(01_screws_4mmDC.nc)
(----------------------------------------------------------------)
( Generated for RhinoCam to export for CNC-STEP models Raptor X-SL3000s20 / T-Rex1215 )
( Postprocessor written at FabLab BCN/IaaC by eduardo.chamorro@iaac.net )
( Last edit : 22 January - 2019 )
(----------------------------------------------------------------)
(Stock Size X = 2500.0000, Y =  1225.0000, Z = 15.0000)
(Home Origin X =  0, Y = 0, Z = 0)
(Units = MM, Spindle Speed = 18000)
(Max cut depth = Z-15.0000)
(Tool dia= 3.0 mm, Tool length= 50.0 mm)(WARNING!-CHECK YOUR TOOL)
(-------------------------------------------------------------)
%
G90
G64
M7
M8
T1
S20000
M3
G1 X2446.2221 Y50.6493 Z30.0000 F10000.
G0 Z2.5000
G81 X2446.2221 Y50.6493 Z-3.0000 R2.5000 F2000.0
G80
G1 X2162.5389 Y71.6989 Z30.0000 F10000.
G0 Z2.5000
G81 X2162.5389 Y71.6989 Z-3.0000 R2.5000 F2000.0
G80
G1 X1821.6114 Y661.6058 Z30.0000 F10000.
G0 Z2.5000
G81 X1821.6114 Y661.6058 Z-3.0000 R2.5000 F2000.0
G80
G1 X1564.3289 Y1069.3932 Z30.0000 F10000.
G0 Z2.5000
G81 X1564.3289 Y1069.3932 Z-3.0000 R2.5000 F2000.0
G80
G1 X1213.3658 Y1118.1216 Z30.0000 F10000.
G0 Z2.5000
G81 X1213.3658 Y1118.1216 Z-3.0000 R2.5000 F2000.0
G80
G1 X1238.2081 Y737.8718 Z30.0000 F10000.
G0 Z2.5000
G81 X1238.2081 Y737.8718 Z-3.0000 R2.5000 F2000.0
G80
G1 X1224.6600 Y370.1379 Z30.0000 F10000.
G0 Z2.5000
G81 X1224.6600 Y370.1379 Z-3.0000 R2.5000 F2000.0
G80
G1 X1294.8912 Y82.6926 Z30.0000 F10000.
G0 Z2.5000
G81 X1294.8912 Y82.6926 Z-3.0000 R2.5000 F2000.0
G80
G1 X358.6618 Y29.5192 Z30.0000 F10000.
G0 Z2.5000
G81 X358.6618 Y29.5192 Z-3.0000 R2.5000 F2000.0
G80
G1 X358.6618 Y371.0054 Z30.0000 F10000.
G0 Z2.5000
G81 X358.6618 Y371.0054 Z-3.0000 R2.5000 F2000.0
G80
G1 X373.0619 Y735.1202 Z30.0000 F10000.
G0 Z2.5000
G81 X373.0619 Y735.1202 Z-3.0000 R2.5000 F2000.0
G80
G1 X49.8568 Y1098.6413 Z30.0000 F10000.
G0 Z2.5000
G81 X49.8568 Y1098.6413 Z-3.0000 R2.5000 F2000.0
G80
G1 X7.6609 Y8.4288 Z30.0000 F10000.
G0 Z2.5000
G81 X7.6609 Y8.4288 Z-3.0000 R2.5000 F2000.0
G80
G1 X2374.8619 Y1123.0183 Z30.0000 F10000.
G0 Z2.5000
G81 X2374.8619 Y1123.0183 Z-3.0000 R2.5000 F2000.0
G80
G1 X2374.8619 Y1123.0183 Z30.0000 F10000.
M9
M5
M30
(--THE END - THANK YOU FOR USING THIS AWESOME POSTPROCESSOR---)
