(02_Pocketing_4mmDC.nc)
(----------------------------------------------------------------)
( Generated for RhinoCam to export for CNC-STEP models Raptor X-SL3000s20 / T-Rex1215 )
( Postprocessor written at FabLab BCN/IaaC by eduardo.chamorro@iaac.net )
( Last edit : 22 January - 2019 )
(----------------------------------------------------------------)
(Stock Size X = 2500.0000, Y =  1225.0000, Z = 15.0000)
(Home Origin X =  0, Y = 0, Z = 0)
(Units = MM, Spindle Speed = 18000)
(Max cut depth = Z-15.0000)
(Tool dia= 3.0 mm, Tool length= 50.0 mm)(WARNING!-CHECK YOUR TOOL)
(-------------------------------------------------------------)
%
G90
G64
M7
M8
T1
S20000
M3
G1 X441.3703 Y69.7503 Z30.0000 F10000.
G1 X441.3703 Y69.7503 Z-0.4067 F2500.
G1 X441.3703 Y69.7503 Z-1.0067
G1 X441.3642 Y69.7576 Z-1.0083
G1 X441.3352 Y69.8371 Z-1.0233
G1 X441.3352 Y69.9220 Z-1.0382
G1 X441.3642 Y70.0018 Z-1.0532
G1 X441.4187 Y70.0667 Z-1.0681
G1 X441.4922 Y70.1091 Z-1.0831
G1 X441.5758 Y70.1239 Z-1.0981
G1 X441.6593 Y70.1091 Z-1.1130
G1 X441.7328 Y70.0667 Z-1.1280
G1 X441.7873 Y70.0018 Z-1.1429
G1 X441.8163 Y69.9220 Z-1.1579
G1 X441.8163 Y69.8371 Z-1.1729
G1 X441.7874 Y69.7576 Z-1.1878
G1 X441.7327 Y69.6924 Z-1.2028
G1 X441.6593 Y69.6500 Z-1.2177
G1 X441.5758 Y69.6353 Z-1.2327
G1 X441.4922 Y69.6500 Z-1.2477
G1 X441.4189 Y69.6924 Z-1.2626
G1 X441.3642 Y69.7576 Z-1.2776
G1 X441.3352 Y69.8371 Z-1.2925
G1 X441.3352 Y69.9220 Z-1.3075
G1 X441.3642 Y70.0018 Z-1.3225
G1 X441.4187 Y70.0667 Z-1.3374
G1 X441.4922 Y70.1091 Z-1.3524
G1 X441.5758 Y70.1239 Z-1.3673
G1 X441.6593 Y70.1091 Z-1.3823
G1 X441.7328 Y70.0667 Z-1.3973
G1 X441.7873 Y70.0018 Z-1.4122
G1 X441.8163 Y69.9220 Z-1.4272
G1 X441.8163 Y69.8371 Z-1.4421
G1 X441.7874 Y69.7576 Z-1.4571
G1 X441.7327 Y69.6924 Z-1.4721
G1 X441.6593 Y69.6500 Z-1.4870
G1 X441.5758 Y69.6353 Z-1.5020
G1 X441.4922 Y69.6500 Z-1.5169
G1 X441.4189 Y69.6924 Z-1.5319
G1 X441.3642 Y69.7576 Z-1.5469
G1 X441.3352 Y69.8371 Z-1.5618
G1 X441.3352 Y69.9220 Z-1.5768
G1 X441.3642 Y70.0018 Z-1.5917
G1 X441.4187 Y70.0667 Z-1.6067
G2 X441.7629 Y69.7226 I0.1571 J-0.1871 F2000.
G2 X441.3642 Y70.0018 I-0.1871 J0.1570
G1 X441.4187 Y70.0667 Z-1.6067
G1 X441.4187 Y70.0667 Z-1.0067 F5000.
G1 X441.4187 Y70.0667 Z30.0000 F10000.
G1 X441.3703 Y69.7503 Z30.0000
G1 X441.3703 Y69.7503 Z-2.0133 F2500.
G1 X441.3703 Y69.7503 Z-2.6133
G1 X441.3642 Y69.7576 Z-2.6150
G1 X441.3352 Y69.8371 Z-2.6299
G1 X441.3352 Y69.9220 Z-2.6449
G1 X441.3642 Y70.0018 Z-2.6599
G1 X441.4187 Y70.0667 Z-2.6748
G1 X441.4922 Y70.1091 Z-2.6898
G1 X441.5758 Y70.1239 Z-2.7047
G1 X441.6593 Y70.1091 Z-2.7197
G1 X441.7328 Y70.0667 Z-2.7347
G1 X441.7873 Y70.0018 Z-2.7496
G1 X441.8163 Y69.9220 Z-2.7646
G1 X441.8163 Y69.8371 Z-2.7795
G1 X441.7874 Y69.7576 Z-2.7945
G1 X441.7327 Y69.6924 Z-2.8095
G1 X441.6593 Y69.6500 Z-2.8244
G1 X441.5758 Y69.6353 Z-2.8394
G1 X441.4922 Y69.6500 Z-2.8543
G1 X441.4189 Y69.6924 Z-2.8693
G1 X441.3642 Y69.7576 Z-2.8843
G1 X441.3352 Y69.8371 Z-2.8992
G1 X441.3352 Y69.9220 Z-2.9142
G1 X441.3642 Y70.0018 Z-2.9291
G1 X441.4187 Y70.0667 Z-2.9441
G1 X441.4922 Y70.1091 Z-2.9590
G1 X441.5758 Y70.1239 Z-2.9740
G1 X441.6593 Y70.1091 Z-2.9890
G1 X441.7328 Y70.0667 Z-3.0039
G1 X441.7873 Y70.0018 Z-3.0189
G1 X441.8163 Y69.9220 Z-3.0338
G1 X441.8163 Y69.8371 Z-3.0488
G1 X441.7874 Y69.7576 Z-3.0637
G1 X441.7327 Y69.6924 Z-3.0787
G1 X441.6593 Y69.6500 Z-3.0937
G1 X441.5758 Y69.6353 Z-3.1086
G1 X441.4922 Y69.6500 Z-3.1236
G1 X441.4189 Y69.6924 Z-3.1385
G1 X441.3642 Y69.7576 Z-3.1535
G1 X441.3352 Y69.8371 Z-3.1685
G1 X441.3352 Y69.9220 Z-3.1834
G1 X441.3642 Y70.0018 Z-3.1984
G1 X441.4187 Y70.0667 Z-3.2133
G2 X441.7629 Y69.7226 I0.1571 J-0.1871 F2000.
G2 X441.3642 Y70.0018 I-0.1871 J0.1570
G1 X441.4187 Y70.0667 Z-3.2133
G1 X441.4187 Y70.0667 Z-2.6133 F5000.
G1 X441.4187 Y70.0667 Z30.0000 F10000.
G1 X441.3703 Y69.7503 Z30.0000
G1 X441.3703 Y69.7503 Z-3.6200 F2500.
G1 X441.3703 Y69.7503 Z-4.2200
G1 X441.3642 Y69.7576 Z-4.2217
G1 X441.3352 Y69.8371 Z-4.2366
G1 X441.3352 Y69.9220 Z-4.2516
G1 X441.3642 Y70.0018 Z-4.2665
G1 X441.4187 Y70.0667 Z-4.2815
G1 X441.4922 Y70.1091 Z-4.2964
G1 X441.5758 Y70.1239 Z-4.3114
G1 X441.6593 Y70.1091 Z-4.3264
G1 X441.7328 Y70.0667 Z-4.3413
G1 X441.7873 Y70.0018 Z-4.3563
G1 X441.8163 Y69.9220 Z-4.3712
G1 X441.8163 Y69.8371 Z-4.3862
G1 X441.7874 Y69.7576 Z-4.4011
G1 X441.7327 Y69.6924 Z-4.4161
G1 X441.6593 Y69.6500 Z-4.4311
G1 X441.5758 Y69.6353 Z-4.4460
G1 X441.4922 Y69.6500 Z-4.4610
G1 X441.4189 Y69.6924 Z-4.4759
G1 X441.3642 Y69.7576 Z-4.4909
G1 X441.3352 Y69.8371 Z-4.5059
G1 X441.3352 Y69.9220 Z-4.5208
G1 X441.3642 Y70.0018 Z-4.5358
G1 X441.4187 Y70.0667 Z-4.5507
G1 X441.4922 Y70.1091 Z-4.5657
G1 X441.5758 Y70.1239 Z-4.5807
G1 X441.6593 Y70.1091 Z-4.5956
G1 X441.7328 Y70.0667 Z-4.6106
G1 X441.7873 Y70.0018 Z-4.6255
G1 X441.8163 Y69.9220 Z-4.6405
G1 X441.8163 Y69.8371 Z-4.6555
G1 X441.7874 Y69.7576 Z-4.6704
G1 X441.7327 Y69.6924 Z-4.6854
G1 X441.6593 Y69.6500 Z-4.7003
G1 X441.5758 Y69.6353 Z-4.7153
G1 X441.4922 Y69.6500 Z-4.7302
G1 X441.4189 Y69.6924 Z-4.7452
G1 X441.3642 Y69.7576 Z-4.7602
G1 X441.3352 Y69.8371 Z-4.7751
G1 X441.3352 Y69.9220 Z-4.7901
G1 X441.3642 Y70.0018 Z-4.8051
G1 X441.4187 Y70.0667 Z-4.8200
G2 X441.7629 Y69.7226 I0.1571 J-0.1871 F2000.
G2 X441.3642 Y70.0018 I-0.1871 J0.1570
G1 X441.4187 Y70.0667 Z-4.8200
G1 X441.4187 Y70.0667 Z-4.2200 F5000.
G1 X441.4187 Y70.0667 Z30.0000 F10000.
G1 X441.3703 Y69.7503 Z30.0000
G1 X441.3703 Y69.7503 Z-5.2267 F2500.
G1 X441.3703 Y69.7503 Z-5.8267
G1 X441.3642 Y69.7576 Z-5.8283
G1 X441.3352 Y69.8371 Z-5.8433
G1 X441.3352 Y69.9220 Z-5.8582
G1 X441.3642 Y70.0018 Z-5.8732
G1 X441.4187 Y70.0667 Z-5.8881
G1 X441.4922 Y70.1091 Z-5.9031
G1 X441.5758 Y70.1239 Z-5.9181
G1 X441.6593 Y70.1091 Z-5.9330
G1 X441.7328 Y70.0667 Z-5.9480
G1 X441.7873 Y70.0018 Z-5.9629
G1 X441.8163 Y69.9220 Z-5.9779
G1 X441.8163 Y69.8371 Z-5.9929
G1 X441.7874 Y69.7576 Z-6.0078
G1 X441.7327 Y69.6924 Z-6.0228
G1 X441.6593 Y69.6500 Z-6.0377
G1 X441.5758 Y69.6353 Z-6.0527
G1 X441.4922 Y69.6500 Z-6.0677
G1 X441.4189 Y69.6924 Z-6.0826
G1 X441.3642 Y69.7576 Z-6.0976
G1 X441.3352 Y69.8371 Z-6.1125
G1 X441.3352 Y69.9220 Z-6.1275
G1 X441.3642 Y70.0018 Z-6.1425
G1 X441.4187 Y70.0667 Z-6.1574
G1 X441.4922 Y70.1091 Z-6.1724
G1 X441.5758 Y70.1239 Z-6.1873
G1 X441.6593 Y70.1091 Z-6.2023
G1 X441.7328 Y70.0667 Z-6.2173
G1 X441.7873 Y70.0018 Z-6.2322
G1 X441.8163 Y69.9220 Z-6.2472
G1 X441.8163 Y69.8371 Z-6.2621
G1 X441.7874 Y69.7576 Z-6.2771
G1 X441.7327 Y69.6924 Z-6.2921
G1 X441.6593 Y69.6500 Z-6.3070
G1 X441.5758 Y69.6353 Z-6.3220
G1 X441.4922 Y69.6500 Z-6.3369
G1 X441.4189 Y69.6924 Z-6.3519
G1 X441.3642 Y69.7576 Z-6.3669
G1 X441.3352 Y69.8371 Z-6.3818
G1 X441.3352 Y69.9220 Z-6.3968
G1 X441.3642 Y70.0018 Z-6.4117
G1 X441.4187 Y70.0667 Z-6.4267
G2 X441.7629 Y69.7226 I0.1571 J-0.1871 F2000.
G2 X441.3642 Y70.0018 I-0.1871 J0.1570
G1 X441.4187 Y70.0667 Z-6.4267
G1 X441.4187 Y70.0667 Z-5.8267 F5000.
G1 X441.4187 Y70.0667 Z30.0000 F10000.
G1 X441.3703 Y69.7503 Z30.0000
G1 X441.3703 Y69.7503 Z-6.8333 F2500.
G1 X441.3703 Y69.7503 Z-7.4333
G1 X441.3642 Y69.7576 Z-7.4350
G1 X441.3352 Y69.8371 Z-7.4499
G1 X441.3352 Y69.9220 Z-7.4649
G1 X441.3642 Y70.0018 Z-7.4799
G1 X441.4187 Y70.0667 Z-7.4948
G1 X441.4922 Y70.1091 Z-7.5098
G1 X441.5758 Y70.1239 Z-7.5247
G1 X441.6593 Y70.1091 Z-7.5397
G1 X441.7328 Y70.0667 Z-7.5547
G1 X441.7873 Y70.0018 Z-7.5696
G1 X441.8163 Y69.9220 Z-7.5846
G1 X441.8163 Y69.8371 Z-7.5995
G1 X441.7874 Y69.7576 Z-7.6145
G1 X441.7327 Y69.6924 Z-7.6295
G1 X441.6593 Y69.6500 Z-7.6444
G1 X441.5758 Y69.6353 Z-7.6594
G1 X441.4922 Y69.6500 Z-7.6743
G1 X441.4189 Y69.6924 Z-7.6893
G1 X441.3642 Y69.7576 Z-7.7043
G1 X441.3352 Y69.8371 Z-7.7192
G1 X441.3352 Y69.9220 Z-7.7342
G1 X441.3642 Y70.0018 Z-7.7491
G1 X441.4187 Y70.0667 Z-7.7641
G1 X441.4922 Y70.1091 Z-7.7790
G1 X441.5758 Y70.1239 Z-7.7940
G1 X441.6593 Y70.1091 Z-7.8090
G1 X441.7328 Y70.0667 Z-7.8239
G1 X441.7873 Y70.0018 Z-7.8389
G1 X441.8163 Y69.9220 Z-7.8538
G1 X441.8163 Y69.8371 Z-7.8688
G1 X441.7874 Y69.7576 Z-7.8837
G1 X441.7327 Y69.6924 Z-7.8987
G1 X441.6593 Y69.6500 Z-7.9137
G1 X441.5758 Y69.6353 Z-7.9286
G1 X441.4922 Y69.6500 Z-7.9436
G1 X441.4189 Y69.6924 Z-7.9585
G1 X441.3642 Y69.7576 Z-7.9735
G1 X441.3352 Y69.8371 Z-7.9885
G1 X441.3352 Y69.9220 Z-8.0034
G1 X441.3642 Y70.0018 Z-8.0184
G1 X441.4187 Y70.0667 Z-8.0333
G2 X441.7629 Y69.7226 I0.1571 J-0.1871 F2000.
G2 X441.3642 Y70.0018 I-0.1871 J0.1570
G1 X441.4187 Y70.0667 Z-8.0333
G1 X441.4187 Y70.0667 Z-7.4333 F5000.
G1 X441.4187 Y70.0667 Z30.0000 F10000.
G1 X441.3703 Y69.7503 Z30.0000
G1 X441.3703 Y69.7503 Z-8.4400 F2500.
G1 X441.3703 Y69.7503 Z-9.0400
G1 X441.3642 Y69.7576 Z-9.0417
G1 X441.3352 Y69.8371 Z-9.0566
G1 X441.3352 Y69.9220 Z-9.0716
G1 X441.3642 Y70.0018 Z-9.0865
G1 X441.4187 Y70.0667 Z-9.1015
G1 X441.4922 Y70.1091 Z-9.1164
G1 X441.5758 Y70.1239 Z-9.1314
G1 X441.6593 Y70.1091 Z-9.1464
G1 X441.7328 Y70.0667 Z-9.1613
G1 X441.7873 Y70.0018 Z-9.1763
G1 X441.8163 Y69.9220 Z-9.1912
G1 X441.8163 Y69.8371 Z-9.2062
G1 X441.7874 Y69.7576 Z-9.2211
G1 X441.7327 Y69.6924 Z-9.2361
G1 X441.6593 Y69.6500 Z-9.2511
G1 X441.5758 Y69.6353 Z-9.2660
G1 X441.4922 Y69.6500 Z-9.2810
G1 X441.4189 Y69.6924 Z-9.2959
G1 X441.3642 Y69.7576 Z-9.3109
G1 X441.3352 Y69.8371 Z-9.3259
G1 X441.3352 Y69.9220 Z-9.3408
G1 X441.3642 Y70.0018 Z-9.3558
G1 X441.4187 Y70.0667 Z-9.3707
G1 X441.4922 Y70.1091 Z-9.3857
G1 X441.5758 Y70.1239 Z-9.4007
G1 X441.6593 Y70.1091 Z-9.4156
G1 X441.7328 Y70.0667 Z-9.4306
G1 X441.7873 Y70.0018 Z-9.4455
G1 X441.8163 Y69.9220 Z-9.4605
G1 X441.8163 Y69.8371 Z-9.4755
G1 X441.7874 Y69.7576 Z-9.4904
G1 X441.7327 Y69.6924 Z-9.5054
G1 X441.6593 Y69.6500 Z-9.5203
G1 X441.5758 Y69.6353 Z-9.5353
G1 X441.4922 Y69.6500 Z-9.5502
G1 X441.4189 Y69.6924 Z-9.5652
G1 X441.3642 Y69.7576 Z-9.5802
G1 X441.3352 Y69.8371 Z-9.5951
G1 X441.3352 Y69.9220 Z-9.6101
G1 X441.3642 Y70.0018 Z-9.6251
G1 X441.4187 Y70.0667 Z-9.6400
G2 X441.7629 Y69.7226 I0.1571 J-0.1871 F2000.
G2 X441.3642 Y70.0018 I-0.1871 J0.1570
G1 X441.4187 Y70.0667 Z-9.6400
G1 X441.4187 Y70.0667 Z-9.0400 F5000.
G1 X441.4187 Y70.0667 Z30.0000 F10000.
G1 X441.3703 Y69.7503 Z30.0000
G1 X441.3703 Y69.7503 Z-10.0467 F2500.
G1 X441.3703 Y69.7503 Z-10.6467
G1 X441.3642 Y69.7576 Z-10.6483
G1 X441.3352 Y69.8371 Z-10.6633
G1 X441.3352 Y69.9220 Z-10.6782
G1 X441.3642 Y70.0018 Z-10.6932
G1 X441.4187 Y70.0667 Z-10.7081
G1 X441.4922 Y70.1091 Z-10.7231
G1 X441.5758 Y70.1239 Z-10.7381
G1 X441.6593 Y70.1091 Z-10.7530
G1 X441.7328 Y70.0667 Z-10.7680
G1 X441.7873 Y70.0018 Z-10.7829
G1 X441.8163 Y69.9220 Z-10.7979
G1 X441.8163 Y69.8371 Z-10.8129
G1 X441.7874 Y69.7576 Z-10.8278
G1 X441.7327 Y69.6924 Z-10.8428
G1 X441.6593 Y69.6500 Z-10.8577
G1 X441.5758 Y69.6353 Z-10.8727
G1 X441.4922 Y69.6500 Z-10.8877
G1 X441.4189 Y69.6924 Z-10.9026
G1 X441.3642 Y69.7576 Z-10.9176
G1 X441.3352 Y69.8371 Z-10.9325
G1 X441.3352 Y69.9220 Z-10.9475
G1 X441.3642 Y70.0018 Z-10.9625
G1 X441.4187 Y70.0667 Z-10.9774
G1 X441.4922 Y70.1091 Z-10.9924
G1 X441.5758 Y70.1239 Z-11.0073
G1 X441.6593 Y70.1091 Z-11.0223
G1 X441.7328 Y70.0667 Z-11.0373
G1 X441.7873 Y70.0018 Z-11.0522
G1 X441.8163 Y69.9220 Z-11.0672
G1 X441.8163 Y69.8371 Z-11.0821
G1 X441.7874 Y69.7576 Z-11.0971
G1 X441.7327 Y69.6924 Z-11.1121
G1 X441.6593 Y69.6500 Z-11.1270
G1 X441.5758 Y69.6353 Z-11.1420
G1 X441.4922 Y69.6500 Z-11.1569
G1 X441.4189 Y69.6924 Z-11.1719
G1 X441.3642 Y69.7576 Z-11.1869
G1 X441.3352 Y69.8371 Z-11.2018
G1 X441.3352 Y69.9220 Z-11.2168
G1 X441.3642 Y70.0018 Z-11.2317
G1 X441.4187 Y70.0667 Z-11.2467
G2 X441.7629 Y69.7226 I0.1571 J-0.1871 F2000.
G2 X441.3642 Y70.0018 I-0.1871 J0.1570
G1 X441.4187 Y70.0667 Z-11.2467
G1 X441.4187 Y70.0667 Z-10.6467 F5000.
G1 X441.4187 Y70.0667 Z30.0000 F10000.
G1 X441.3703 Y69.7503 Z30.0000
G1 X441.3703 Y69.7503 Z-11.6533 F2500.
G1 X441.3703 Y69.7503 Z-12.2533
G1 X441.3642 Y69.7576 Z-12.2550
G1 X441.3352 Y69.8371 Z-12.2699
G1 X441.3352 Y69.9220 Z-12.2849
G1 X441.3642 Y70.0018 Z-12.2999
G1 X441.4187 Y70.0667 Z-12.3148
G1 X441.4922 Y70.1091 Z-12.3298
G1 X441.5758 Y70.1239 Z-12.3447
G1 X441.6593 Y70.1091 Z-12.3597
G1 X441.7328 Y70.0667 Z-12.3747
G1 X441.7873 Y70.0018 Z-12.3896
G1 X441.8163 Y69.9220 Z-12.4046
G1 X441.8163 Y69.8371 Z-12.4195
G1 X441.7874 Y69.7576 Z-12.4345
G1 X441.7327 Y69.6924 Z-12.4495
G1 X441.6593 Y69.6500 Z-12.4644
G1 X441.5758 Y69.6353 Z-12.4794
G1 X441.4922 Y69.6500 Z-12.4943
G1 X441.4189 Y69.6924 Z-12.5093
G1 X441.3642 Y69.7576 Z-12.5243
G1 X441.3352 Y69.8371 Z-12.5392
G1 X441.3352 Y69.9220 Z-12.5542
G1 X441.3642 Y70.0018 Z-12.5691
G1 X441.4187 Y70.0667 Z-12.5841
G1 X441.4922 Y70.1091 Z-12.5990
G1 X441.5758 Y70.1239 Z-12.6140
G1 X441.6593 Y70.1091 Z-12.6290
G1 X441.7328 Y70.0667 Z-12.6439
G1 X441.7873 Y70.0018 Z-12.6589
G1 X441.8163 Y69.9220 Z-12.6738
G1 X441.8163 Y69.8371 Z-12.6888
G1 X441.7874 Y69.7576 Z-12.7037
G1 X441.7327 Y69.6924 Z-12.7187
G1 X441.6593 Y69.6500 Z-12.7337
G1 X441.5758 Y69.6353 Z-12.7486
G1 X441.4922 Y69.6500 Z-12.7636
G1 X441.4189 Y69.6924 Z-12.7785
G1 X441.3642 Y69.7576 Z-12.7935
G1 X441.3352 Y69.8371 Z-12.8085
G1 X441.3352 Y69.9220 Z-12.8234
G1 X441.3642 Y70.0018 Z-12.8384
G1 X441.4187 Y70.0667 Z-12.8533
G2 X441.7629 Y69.7226 I0.1571 J-0.1871 F2000.
G2 X441.3642 Y70.0018 I-0.1871 J0.1570
G1 X441.4187 Y70.0667 Z-12.8533
G1 X441.4187 Y70.0667 Z-12.2533 F5000.
G1 X441.4187 Y70.0667 Z30.0000 F10000.
G1 X441.3703 Y69.7503 Z30.0000
G1 X441.3703 Y69.7503 Z-13.2600 F2500.
G1 X441.3703 Y69.7503 Z-13.8600
G1 X441.3642 Y69.7576 Z-13.8617
G1 X441.3352 Y69.8371 Z-13.8766
G1 X441.3352 Y69.9220 Z-13.8916
G1 X441.3642 Y70.0018 Z-13.9065
G1 X441.4187 Y70.0667 Z-13.9215
G1 X441.4922 Y70.1091 Z-13.9364
G1 X441.5758 Y70.1239 Z-13.9514
G1 X441.6593 Y70.1091 Z-13.9664
G1 X441.7328 Y70.0667 Z-13.9813
G1 X441.7873 Y70.0018 Z-13.9963
G1 X441.8163 Y69.9220 Z-14.0112
G1 X441.8163 Y69.8371 Z-14.0262
G1 X441.7874 Y69.7576 Z-14.0411
G1 X441.7327 Y69.6924 Z-14.0561
G1 X441.6593 Y69.6500 Z-14.0711
G1 X441.5758 Y69.6353 Z-14.0860
G1 X441.4922 Y69.6500 Z-14.1010
G1 X441.4189 Y69.6924 Z-14.1159
G1 X441.3642 Y69.7576 Z-14.1309
G1 X441.3352 Y69.8371 Z-14.1459
G1 X441.3352 Y69.9220 Z-14.1608
G1 X441.3642 Y70.0018 Z-14.1758
G1 X441.4187 Y70.0667 Z-14.1907
G1 X441.4922 Y70.1091 Z-14.2057
G1 X441.5758 Y70.1239 Z-14.2207
G1 X441.6593 Y70.1091 Z-14.2356
G1 X441.7328 Y70.0667 Z-14.2506
G1 X441.7873 Y70.0018 Z-14.2655
G1 X441.8163 Y69.9220 Z-14.2805
G1 X441.8163 Y69.8371 Z-14.2955
G1 X441.7874 Y69.7576 Z-14.3104
G1 X441.7327 Y69.6924 Z-14.3254
G1 X441.6593 Y69.6500 Z-14.3403
G1 X441.5758 Y69.6353 Z-14.3553
G1 X441.4922 Y69.6500 Z-14.3702
G1 X441.4189 Y69.6924 Z-14.3852
G1 X441.3642 Y69.7576 Z-14.4002
G1 X441.3352 Y69.8371 Z-14.4151
G1 X441.3352 Y69.9220 Z-14.4301
G1 X441.3642 Y70.0018 Z-14.4451
G1 X441.4187 Y70.0667 Z-14.4600
G2 X441.7629 Y69.7226 I0.1571 J-0.1871 F2000.
G2 X441.3642 Y70.0018 I-0.1871 J0.1570
G1 X441.4187 Y70.0667 Z-14.4600
G1 X441.4187 Y70.0667 Z-13.8600 F5000.
G1 X441.4187 Y70.0667 Z30.0000 F10000.
G1 X441.3703 Y69.7503 Z30.0000
G1 X441.3703 Y69.7503 Z-14.2000 F2500.
G1 X441.3703 Y69.7503 Z-14.8000
G1 X441.3642 Y69.7576 Z-14.8017
G1 X441.3352 Y69.8371 Z-14.8166
G1 X441.3352 Y69.9220 Z-14.8316
G1 X441.3642 Y70.0018 Z-14.8465
G1 X441.4187 Y70.0667 Z-14.8615
G1 X441.4922 Y70.1091 Z-14.8764
G1 X441.5758 Y70.1239 Z-14.8914
G1 X441.6593 Y70.1091 Z-14.9064
G1 X441.7328 Y70.0667 Z-14.9213
G1 X441.7873 Y70.0018 Z-14.9363
G1 X441.8163 Y69.9220 Z-14.9512
G1 X441.8163 Y69.8371 Z-14.9662
G1 X441.7874 Y69.7576 Z-14.9811
G1 X441.7327 Y69.6924 Z-14.9961
G1 X441.6593 Y69.6500 Z-15.0111
G1 X441.5758 Y69.6353 Z-15.0260
G1 X441.4922 Y69.6500 Z-15.0410
G1 X441.4189 Y69.6924 Z-15.0559
G1 X441.3642 Y69.7576 Z-15.0709
G1 X441.3352 Y69.8371 Z-15.0859
G1 X441.3352 Y69.9220 Z-15.1008
G1 X441.3642 Y70.0018 Z-15.1158
G1 X441.4187 Y70.0667 Z-15.1307
G1 X441.4922 Y70.1091 Z-15.1457
G1 X441.5758 Y70.1239 Z-15.1607
G1 X441.6593 Y70.1091 Z-15.1756
G1 X441.7328 Y70.0667 Z-15.1906
G1 X441.7873 Y70.0018 Z-15.2055
G1 X441.8163 Y69.9220 Z-15.2205
G1 X441.8163 Y69.8371 Z-15.2355
G1 X441.7874 Y69.7576 Z-15.2504
G1 X441.7327 Y69.6924 Z-15.2654
G1 X441.6593 Y69.6500 Z-15.2803
G1 X441.5758 Y69.6353 Z-15.2953
G1 X441.4922 Y69.6500 Z-15.3102
G1 X441.4189 Y69.6924 Z-15.3252
G1 X441.3642 Y69.7576 Z-15.3402
G1 X441.3352 Y69.8371 Z-15.3551
G1 X441.3352 Y69.9220 Z-15.3701
G1 X441.3642 Y70.0018 Z-15.3851
G1 X441.4187 Y70.0667 Z-15.4000
G2 X441.7629 Y69.7226 I0.1571 J-0.1871 F2000.
G2 X441.3642 Y70.0018 I-0.1871 J0.1570
G1 X441.4187 Y70.0667 Z-15.4000
G1 X441.4187 Y70.0667 Z-14.8000 F5000.
G1 X441.4187 Y70.0667 Z30.0000 F10000.
G1 X474.8445 Y69.8050 Z30.0000
G1 X474.8445 Y69.8050 Z-0.4067 F2500.
G1 X474.8445 Y69.8050 Z-1.0067
G1 X474.8429 Y69.7961 Z-1.0083
G1 X474.8005 Y69.7226 Z-1.0232
G1 X474.7354 Y69.6680 Z-1.0382
G1 X474.6559 Y69.6390 Z-1.0531
G1 X474.5708 Y69.6390 Z-1.0681
G1 X474.4914 Y69.6680 Z-1.0830
G1 X474.4262 Y69.7226 Z-1.0980
G1 X474.3838 Y69.7961 Z-1.1130
G1 X474.3691 Y69.8796 Z-1.1279
G1 X474.3838 Y69.9632 Z-1.1429
G1 X474.4262 Y70.0367 Z-1.1579
G1 X474.4911 Y70.0911 Z-1.1728
G1 X474.5711 Y70.1202 Z-1.1878
G1 X474.6557 Y70.1202 Z-1.2027
G1 X474.7356 Y70.0911 Z-1.2177
G1 X474.8005 Y70.0367 Z-1.2327
G1 X474.8429 Y69.9632 Z-1.2476
G1 X474.8576 Y69.8796 Z-1.2626
G1 X474.8429 Y69.7961 Z-1.2775
G1 X474.8005 Y69.7226 Z-1.2925
G1 X474.7354 Y69.6680 Z-1.3075
G1 X474.6559 Y69.6390 Z-1.3224
G1 X474.5708 Y69.6390 Z-1.3374
G1 X474.4914 Y69.6680 Z-1.3523
G1 X474.4262 Y69.7226 Z-1.3673
G1 X474.3838 Y69.7961 Z-1.3823
G1 X474.3691 Y69.8796 Z-1.3972
G1 X474.3838 Y69.9632 Z-1.4122
G1 X474.4262 Y70.0367 Z-1.4271
G1 X474.4911 Y70.0911 Z-1.4421
G1 X474.5711 Y70.1202 Z-1.4571
G1 X474.6557 Y70.1202 Z-1.4720
G1 X474.7356 Y70.0911 Z-1.4870
G1 X474.8005 Y70.0367 Z-1.5019
G1 X474.8429 Y69.9632 Z-1.5169
G1 X474.8576 Y69.8796 Z-1.5318
G1 X474.8429 Y69.7961 Z-1.5468
G1 X474.8005 Y69.7226 Z-1.5618
G1 X474.7354 Y69.6680 Z-1.5767
G1 X474.6559 Y69.6390 Z-1.5916
G1 X474.5708 Y69.6390 Z-1.6067
G2 X474.6133 Y70.1239 I0.0425 J0.2406 F2000.
G2 X474.6559 Y69.6390 I0.0000 J-0.2443
G1 X474.5708 Y69.6390 Z-1.6067
G1 X474.5708 Y69.6390 Z-1.0067 F5000.
G1 X474.5708 Y69.6390 Z30.0000 F10000.
G1 X474.8445 Y69.8050 Z30.0000
G1 X474.8445 Y69.8050 Z-2.0133 F2500.
G1 X474.8445 Y69.8050 Z-2.6133
G1 X474.8429 Y69.7961 Z-2.6149
G1 X474.8005 Y69.7226 Z-2.6299
G1 X474.7354 Y69.6680 Z-2.6449
G1 X474.6559 Y69.6390 Z-2.6598
G1 X474.5708 Y69.6390 Z-2.6748
G1 X474.4914 Y69.6680 Z-2.6897
G1 X474.4262 Y69.7226 Z-2.7047
G1 X474.3838 Y69.7961 Z-2.7197
G1 X474.3691 Y69.8796 Z-2.7346
G1 X474.3838 Y69.9632 Z-2.7496
G1 X474.4262 Y70.0367 Z-2.7645
G1 X474.4911 Y70.0911 Z-2.7795
G1 X474.5711 Y70.1202 Z-2.7945
G1 X474.6557 Y70.1202 Z-2.8094
G1 X474.7356 Y70.0911 Z-2.8244
G1 X474.8005 Y70.0367 Z-2.8393
G1 X474.8429 Y69.9632 Z-2.8543
G1 X474.8576 Y69.8796 Z-2.8692
G1 X474.8429 Y69.7961 Z-2.8842
G1 X474.8005 Y69.7226 Z-2.8992
G1 X474.7354 Y69.6680 Z-2.9141
G1 X474.6559 Y69.6390 Z-2.9291
G1 X474.5708 Y69.6390 Z-2.9441
G1 X474.4914 Y69.6680 Z-2.9590
G1 X474.4262 Y69.7226 Z-2.9740
G1 X474.3838 Y69.7961 Z-2.9889
G1 X474.3691 Y69.8796 Z-3.0039
G1 X474.3838 Y69.9632 Z-3.0188
G1 X474.4262 Y70.0367 Z-3.0338
G1 X474.4911 Y70.0911 Z-3.0487
G1 X474.5711 Y70.1202 Z-3.0637
G1 X474.6557 Y70.1202 Z-3.0787
G1 X474.7356 Y70.0911 Z-3.0937
G1 X474.8005 Y70.0367 Z-3.1086
G1 X474.8429 Y69.9632 Z-3.1235
G1 X474.8576 Y69.8796 Z-3.1385
G1 X474.8429 Y69.7961 Z-3.1535
G1 X474.8005 Y69.7226 Z-3.1684
G1 X474.7354 Y69.6680 Z-3.1834
G1 X474.6559 Y69.6390 Z-3.1983
G1 X474.5708 Y69.6390 Z-3.2133
G2 X474.6133 Y70.1239 I0.0425 J0.2406 F2000.
G2 X474.6559 Y69.6390 I0.0000 J-0.2443
G1 X474.5708 Y69.6390 Z-3.2133
G1 X474.5708 Y69.6390 Z-2.6133 F5000.
G1 X474.5708 Y69.6390 Z30.0000 F10000.
G1 X474.8445 Y69.8050 Z30.0000
G1 X474.8445 Y69.8050 Z-3.6200 F2500.
G1 X474.8445 Y69.8050 Z-4.2200
G1 X474.8429 Y69.7961 Z-4.2216
G1 X474.8005 Y69.7226 Z-4.2366
G1 X474.7354 Y69.6680 Z-4.2516
G1 X474.6559 Y69.6390 Z-4.2665
G1 X474.5708 Y69.6390 Z-4.2815
G1 X474.4914 Y69.6680 Z-4.2964
G1 X474.4262 Y69.7226 Z-4.3114
G1 X474.3838 Y69.7961 Z-4.3263
G1 X474.3691 Y69.8796 Z-4.3413
G1 X474.3838 Y69.9632 Z-4.3562
G1 X474.4262 Y70.0367 Z-4.3712
G1 X474.4911 Y70.0911 Z-4.3861
G1 X474.5711 Y70.1202 Z-4.4011
G1 X474.6557 Y70.1202 Z-4.4161
G1 X474.7356 Y70.0911 Z-4.4311
G1 X474.8005 Y70.0367 Z-4.4460
G1 X474.8429 Y69.9632 Z-4.4609
G1 X474.8576 Y69.8796 Z-4.4759
G1 X474.8429 Y69.7961 Z-4.4909
G1 X474.8005 Y69.7226 Z-4.5058
G1 X474.7354 Y69.6680 Z-4.5208
G1 X474.6559 Y69.6390 Z-4.5357
G1 X474.5708 Y69.6390 Z-4.5507
G1 X474.4914 Y69.6680 Z-4.5656
G1 X474.4262 Y69.7226 Z-4.5806
G1 X474.3838 Y69.7961 Z-4.5956
G1 X474.3691 Y69.8796 Z-4.6105
G1 X474.3838 Y69.9632 Z-4.6255
G1 X474.4262 Y70.0367 Z-4.6405
G1 X474.4911 Y70.0911 Z-4.6554
G1 X474.5711 Y70.1202 Z-4.6704
G1 X474.6557 Y70.1202 Z-4.6853
G1 X474.7356 Y70.0911 Z-4.7003
G1 X474.8005 Y70.0367 Z-4.7153
G1 X474.8429 Y69.9632 Z-4.7302
G1 X474.8576 Y69.8796 Z-4.7452
G1 X474.8429 Y69.7961 Z-4.7601
G1 X474.8005 Y69.7226 Z-4.7751
G1 X474.7354 Y69.6680 Z-4.7901
G1 X474.6559 Y69.6390 Z-4.8050
G1 X474.5708 Y69.6390 Z-4.8200
G2 X474.6133 Y70.1239 I0.0425 J0.2406 F2000.
G2 X474.6559 Y69.6390 I0.0000 J-0.2443
G1 X474.5708 Y69.6390 Z-4.8200
G1 X474.5708 Y69.6390 Z-4.2200 F5000.
G1 X474.5708 Y69.6390 Z30.0000 F10000.
G1 X474.8445 Y69.8050 Z30.0000
G1 X474.8445 Y69.8050 Z-5.2267 F2500.
G1 X474.8445 Y69.8050 Z-5.8267
G1 X474.8429 Y69.7961 Z-5.8283
G1 X474.8005 Y69.7226 Z-5.8432
G1 X474.7354 Y69.6680 Z-5.8582
G1 X474.6559 Y69.6390 Z-5.8731
G1 X474.5708 Y69.6390 Z-5.8881
G1 X474.4914 Y69.6680 Z-5.9030
G1 X474.4262 Y69.7226 Z-5.9180
G1 X474.3838 Y69.7961 Z-5.9330
G1 X474.3691 Y69.8796 Z-5.9479
G1 X474.3838 Y69.9632 Z-5.9629
G1 X474.4262 Y70.0367 Z-5.9779
G1 X474.4911 Y70.0911 Z-5.9928
G1 X474.5711 Y70.1202 Z-6.0078
G1 X474.6557 Y70.1202 Z-6.0227
G1 X474.7356 Y70.0911 Z-6.0377
G1 X474.8005 Y70.0367 Z-6.0527
G1 X474.8429 Y69.9632 Z-6.0676
G1 X474.8576 Y69.8796 Z-6.0826
G1 X474.8429 Y69.7961 Z-6.0975
G1 X474.8005 Y69.7226 Z-6.1125
G1 X474.7354 Y69.6680 Z-6.1275
G1 X474.6559 Y69.6390 Z-6.1424
G1 X474.5708 Y69.6390 Z-6.1574
G1 X474.4914 Y69.6680 Z-6.1723
G1 X474.4262 Y69.7226 Z-6.1873
G1 X474.3838 Y69.7961 Z-6.2023
G1 X474.3691 Y69.8796 Z-6.2172
G1 X474.3838 Y69.9632 Z-6.2322
G1 X474.4262 Y70.0367 Z-6.2471
G1 X474.4911 Y70.0911 Z-6.2621
G1 X474.5711 Y70.1202 Z-6.2771
G1 X474.6557 Y70.1202 Z-6.2920
G1 X474.7356 Y70.0911 Z-6.3070
G1 X474.8005 Y70.0367 Z-6.3219
G1 X474.8429 Y69.9632 Z-6.3369
G1 X474.8576 Y69.8796 Z-6.3518
G1 X474.8429 Y69.7961 Z-6.3668
G1 X474.8005 Y69.7226 Z-6.3818
G1 X474.7354 Y69.6680 Z-6.3967
G1 X474.6559 Y69.6390 Z-6.4116
G1 X474.5708 Y69.6390 Z-6.4267
G2 X474.6133 Y70.1239 I0.0425 J0.2406 F2000.
G2 X474.6559 Y69.6390 I0.0000 J-0.2443
G1 X474.5708 Y69.6390 Z-6.4267
G1 X474.5708 Y69.6390 Z-5.8267 F5000.
G1 X474.5708 Y69.6390 Z30.0000 F10000.
G1 X474.8445 Y69.8050 Z30.0000
G1 X474.8445 Y69.8050 Z-6.8333 F2500.
G1 X474.8445 Y69.8050 Z-7.4333
G1 X474.8429 Y69.7961 Z-7.4349
G1 X474.8005 Y69.7226 Z-7.4499
G1 X474.7354 Y69.6680 Z-7.4649
G1 X474.6559 Y69.6390 Z-7.4798
G1 X474.5708 Y69.6390 Z-7.4948
G1 X474.4914 Y69.6680 Z-7.5097
G1 X474.4262 Y69.7226 Z-7.5247
G1 X474.3838 Y69.7961 Z-7.5397
G1 X474.3691 Y69.8796 Z-7.5546
G1 X474.3838 Y69.9632 Z-7.5696
G1 X474.4262 Y70.0367 Z-7.5845
G1 X474.4911 Y70.0911 Z-7.5995
G1 X474.5711 Y70.1202 Z-7.6145
G1 X474.6557 Y70.1202 Z-7.6294
G1 X474.7356 Y70.0911 Z-7.6444
G1 X474.8005 Y70.0367 Z-7.6593
G1 X474.8429 Y69.9632 Z-7.6743
G1 X474.8576 Y69.8796 Z-7.6892
G1 X474.8429 Y69.7961 Z-7.7042
G1 X474.8005 Y69.7226 Z-7.7192
G1 X474.7354 Y69.6680 Z-7.7341
G1 X474.6559 Y69.6390 Z-7.7491
G1 X474.5708 Y69.6390 Z-7.7641
G1 X474.4914 Y69.6680 Z-7.7790
G1 X474.4262 Y69.7226 Z-7.7940
G1 X474.3838 Y69.7961 Z-7.8089
G1 X474.3691 Y69.8796 Z-7.8239
G1 X474.3838 Y69.9632 Z-7.8388
G1 X474.4262 Y70.0367 Z-7.8538
G1 X474.4911 Y70.0911 Z-7.8687
G1 X474.5711 Y70.1202 Z-7.8837
G1 X474.6557 Y70.1202 Z-7.8987
G1 X474.7356 Y70.0911 Z-7.9137
G1 X474.8005 Y70.0367 Z-7.9286
G1 X474.8429 Y69.9632 Z-7.9435
G1 X474.8576 Y69.8796 Z-7.9585
G1 X474.8429 Y69.7961 Z-7.9735
G1 X474.8005 Y69.7226 Z-7.9884
G1 X474.7354 Y69.6680 Z-8.0034
G1 X474.6559 Y69.6390 Z-8.0183
G1 X474.5708 Y69.6390 Z-8.0333
G2 X474.6133 Y70.1239 I0.0425 J0.2406 F2000.
G2 X474.6559 Y69.6390 I0.0000 J-0.2443
G1 X474.5708 Y69.6390 Z-8.0333
G1 X474.5708 Y69.6390 Z-7.4333 F5000.
G1 X474.5708 Y69.6390 Z30.0000 F10000.
G1 X474.8445 Y69.8050 Z30.0000
G1 X474.8445 Y69.8050 Z-8.4400 F2500.
G1 X474.8445 Y69.8050 Z-9.0400
G1 X474.8429 Y69.7961 Z-9.0416
G1 X474.8005 Y69.7226 Z-9.0566
G1 X474.7354 Y69.6680 Z-9.0716
G1 X474.6559 Y69.6390 Z-9.0865
G1 X474.5708 Y69.6390 Z-9.1015
G1 X474.4914 Y69.6680 Z-9.1164
G1 X474.4262 Y69.7226 Z-9.1314
G1 X474.3838 Y69.7961 Z-9.1463
G1 X474.3691 Y69.8796 Z-9.1613
G1 X474.3838 Y69.9632 Z-9.1762
G1 X474.4262 Y70.0367 Z-9.1912
G1 X474.4911 Y70.0911 Z-9.2061
G1 X474.5711 Y70.1202 Z-9.2211
G1 X474.6557 Y70.1202 Z-9.2361
G1 X474.7356 Y70.0911 Z-9.2511
G1 X474.8005 Y70.0367 Z-9.2660
G1 X474.8429 Y69.9632 Z-9.2809
G1 X474.8576 Y69.8796 Z-9.2959
G1 X474.8429 Y69.7961 Z-9.3109
G1 X474.8005 Y69.7226 Z-9.3258
G1 X474.7354 Y69.6680 Z-9.3408
G1 X474.6559 Y69.6390 Z-9.3557
G1 X474.5708 Y69.6390 Z-9.3707
G1 X474.4914 Y69.6680 Z-9.3856
G1 X474.4262 Y69.7226 Z-9.4006
G1 X474.3838 Y69.7961 Z-9.4156
G1 X474.3691 Y69.8796 Z-9.4305
G1 X474.3838 Y69.9632 Z-9.4455
G1 X474.4262 Y70.0367 Z-9.4605
G1 X474.4911 Y70.0911 Z-9.4754
G1 X474.5711 Y70.1202 Z-9.4904
G1 X474.6557 Y70.1202 Z-9.5053
G1 X474.7356 Y70.0911 Z-9.5203
G1 X474.8005 Y70.0367 Z-9.5353
G1 X474.8429 Y69.9632 Z-9.5502
G1 X474.8576 Y69.8796 Z-9.5652
G1 X474.8429 Y69.7961 Z-9.5801
G1 X474.8005 Y69.7226 Z-9.5951
G1 X474.7354 Y69.6680 Z-9.6101
G1 X474.6559 Y69.6390 Z-9.6250
G1 X474.5708 Y69.6390 Z-9.6400
G2 X474.6133 Y70.1239 I0.0425 J0.2406 F2000.
G2 X474.6559 Y69.6390 I0.0000 J-0.2443
G1 X474.5708 Y69.6390 Z-9.6400
G1 X474.5708 Y69.6390 Z-9.0400 F5000.
G1 X474.5708 Y69.6390 Z30.0000 F10000.
G1 X474.8445 Y69.8050 Z30.0000
G1 X474.8445 Y69.8050 Z-10.0467 F2500.
G1 X474.8445 Y69.8050 Z-10.6467
G1 X474.8429 Y69.7961 Z-10.6483
G1 X474.8005 Y69.7226 Z-10.6632
G1 X474.7354 Y69.6680 Z-10.6782
G1 X474.6559 Y69.6390 Z-10.6931
G1 X474.5708 Y69.6390 Z-10.7081
G1 X474.4914 Y69.6680 Z-10.7230
G1 X474.4262 Y69.7226 Z-10.7380
G1 X474.3838 Y69.7961 Z-10.7530
G1 X474.3691 Y69.8796 Z-10.7679
G1 X474.3838 Y69.9632 Z-10.7829
G1 X474.4262 Y70.0367 Z-10.7979
G1 X474.4911 Y70.0911 Z-10.8128
G1 X474.5711 Y70.1202 Z-10.8278
G1 X474.6557 Y70.1202 Z-10.8427
G1 X474.7356 Y70.0911 Z-10.8577
G1 X474.8005 Y70.0367 Z-10.8727
G1 X474.8429 Y69.9632 Z-10.8876
G1 X474.8576 Y69.8796 Z-10.9026
G1 X474.8429 Y69.7961 Z-10.9175
G1 X474.8005 Y69.7226 Z-10.9325
G1 X474.7354 Y69.6680 Z-10.9475
G1 X474.6559 Y69.6390 Z-10.9624
G1 X474.5708 Y69.6390 Z-10.9774
G1 X474.4914 Y69.6680 Z-10.9923
G1 X474.4262 Y69.7226 Z-11.0073
G1 X474.3838 Y69.7961 Z-11.0223
G1 X474.3691 Y69.8796 Z-11.0372
G1 X474.3838 Y69.9632 Z-11.0522
G1 X474.4262 Y70.0367 Z-11.0671
G1 X474.4911 Y70.0911 Z-11.0821
G1 X474.5711 Y70.1202 Z-11.0971
G1 X474.6557 Y70.1202 Z-11.1120
G1 X474.7356 Y70.0911 Z-11.1270
G1 X474.8005 Y70.0367 Z-11.1419
G1 X474.8429 Y69.9632 Z-11.1569
G1 X474.8576 Y69.8796 Z-11.1718
G1 X474.8429 Y69.7961 Z-11.1868
G1 X474.8005 Y69.7226 Z-11.2018
G1 X474.7354 Y69.6680 Z-11.2167
G1 X474.6559 Y69.6390 Z-11.2316
G1 X474.5708 Y69.6390 Z-11.2467
G2 X474.6133 Y70.1239 I0.0425 J0.2406 F2000.
G2 X474.6559 Y69.6390 I0.0000 J-0.2443
G1 X474.5708 Y69.6390 Z-11.2467
G1 X474.5708 Y69.6390 Z-10.6467 F5000.
G1 X474.5708 Y69.6390 Z30.0000 F10000.
G1 X474.8445 Y69.8050 Z30.0000
G1 X474.8445 Y69.8050 Z-11.6533 F2500.
G1 X474.8445 Y69.8050 Z-12.2533
G1 X474.8429 Y69.7961 Z-12.2549
G1 X474.8005 Y69.7226 Z-12.2699
G1 X474.7354 Y69.6680 Z-12.2849
G1 X474.6559 Y69.6390 Z-12.2998
G1 X474.5708 Y69.6390 Z-12.3148
G1 X474.4914 Y69.6680 Z-12.3297
G1 X474.4262 Y69.7226 Z-12.3447
G1 X474.3838 Y69.7961 Z-12.3597
G1 X474.3691 Y69.8796 Z-12.3746
G1 X474.3838 Y69.9632 Z-12.3896
G1 X474.4262 Y70.0367 Z-12.4045
G1 X474.4911 Y70.0911 Z-12.4195
G1 X474.5711 Y70.1202 Z-12.4345
G1 X474.6557 Y70.1202 Z-12.4494
G1 X474.7356 Y70.0911 Z-12.4644
G1 X474.8005 Y70.0367 Z-12.4793
G1 X474.8429 Y69.9632 Z-12.4943
G1 X474.8576 Y69.8796 Z-12.5092
G1 X474.8429 Y69.7961 Z-12.5242
G1 X474.8005 Y69.7226 Z-12.5392
G1 X474.7354 Y69.6680 Z-12.5541
G1 X474.6559 Y69.6390 Z-12.5691
G1 X474.5708 Y69.6390 Z-12.5841
G1 X474.4914 Y69.6680 Z-12.5990
G1 X474.4262 Y69.7226 Z-12.6140
G1 X474.3838 Y69.7961 Z-12.6289
G1 X474.3691 Y69.8796 Z-12.6439
G1 X474.3838 Y69.9632 Z-12.6588
G1 X474.4262 Y70.0367 Z-12.6738
G1 X474.4911 Y70.0911 Z-12.6887
G1 X474.5711 Y70.1202 Z-12.7037
G1 X474.6557 Y70.1202 Z-12.7187
G1 X474.7356 Y70.0911 Z-12.7337
G1 X474.8005 Y70.0367 Z-12.7486
G1 X474.8429 Y69.9632 Z-12.7635
G1 X474.8576 Y69.8796 Z-12.7785
G1 X474.8429 Y69.7961 Z-12.7935
G1 X474.8005 Y69.7226 Z-12.8084
G1 X474.7354 Y69.6680 Z-12.8234
G1 X474.6559 Y69.6390 Z-12.8383
G1 X474.5708 Y69.6390 Z-12.8533
G2 X474.6133 Y70.1239 I0.0425 J0.2406 F2000.
G2 X474.6559 Y69.6390 I0.0000 J-0.2443
G1 X474.5708 Y69.6390 Z-12.8533
G1 X474.5708 Y69.6390 Z-12.2533 F5000.
G1 X474.5708 Y69.6390 Z30.0000 F10000.
G1 X474.8445 Y69.8050 Z30.0000
G1 X474.8445 Y69.8050 Z-13.2600 F2500.
G1 X474.8445 Y69.8050 Z-13.8600
G1 X474.8429 Y69.7961 Z-13.8616
G1 X474.8005 Y69.7226 Z-13.8766
G1 X474.7354 Y69.6680 Z-13.8916
G1 X474.6559 Y69.6390 Z-13.9065
G1 X474.5708 Y69.6390 Z-13.9215
G1 X474.4914 Y69.6680 Z-13.9364
G1 X474.4262 Y69.7226 Z-13.9514
G1 X474.3838 Y69.7961 Z-13.9663
G1 X474.3691 Y69.8796 Z-13.9813
G1 X474.3838 Y69.9632 Z-13.9962
G1 X474.4262 Y70.0367 Z-14.0112
G1 X474.4911 Y70.0911 Z-14.0261
G1 X474.5711 Y70.1202 Z-14.0411
G1 X474.6557 Y70.1202 Z-14.0561
G1 X474.7356 Y70.0911 Z-14.0711
G1 X474.8005 Y70.0367 Z-14.0860
G1 X474.8429 Y69.9632 Z-14.1009
G1 X474.8576 Y69.8796 Z-14.1159
G1 X474.8429 Y69.7961 Z-14.1309
G1 X474.8005 Y69.7226 Z-14.1458
G1 X474.7354 Y69.6680 Z-14.1608
G1 X474.6559 Y69.6390 Z-14.1757
G1 X474.5708 Y69.6390 Z-14.1907
G1 X474.4914 Y69.6680 Z-14.2056
G1 X474.4262 Y69.7226 Z-14.2206
G1 X474.3838 Y69.7961 Z-14.2356
G1 X474.3691 Y69.8796 Z-14.2505
G1 X474.3838 Y69.9632 Z-14.2655
G1 X474.4262 Y70.0367 Z-14.2805
G1 X474.4911 Y70.0911 Z-14.2954
G1 X474.5711 Y70.1202 Z-14.3104
G1 X474.6557 Y70.1202 Z-14.3253
G1 X474.7356 Y70.0911 Z-14.3403
G1 X474.8005 Y70.0367 Z-14.3553
G1 X474.8429 Y69.9632 Z-14.3702
G1 X474.8576 Y69.8796 Z-14.3852
G1 X474.8429 Y69.7961 Z-14.4001
G1 X474.8005 Y69.7226 Z-14.4151
G1 X474.7354 Y69.6680 Z-14.4301
G1 X474.6559 Y69.6390 Z-14.4450
G1 X474.5708 Y69.6390 Z-14.4600
G2 X474.6133 Y70.1239 I0.0425 J0.2406 F2000.
G2 X474.6559 Y69.6390 I0.0000 J-0.2443
G1 X474.5708 Y69.6390 Z-14.4600
G1 X474.5708 Y69.6390 Z-13.8600 F5000.
G1 X474.5708 Y69.6390 Z30.0000 F10000.
G1 X474.8445 Y69.8050 Z30.0000
G1 X474.8445 Y69.8050 Z-14.2000 F2500.
G1 X474.8445 Y69.8050 Z-14.8000
G1 X474.8429 Y69.7961 Z-14.8016
G1 X474.8005 Y69.7226 Z-14.8166
G1 X474.7354 Y69.6680 Z-14.8316
G1 X474.6559 Y69.6390 Z-14.8465
G1 X474.5708 Y69.6390 Z-14.8615
G1 X474.4914 Y69.6680 Z-14.8764
G1 X474.4262 Y69.7226 Z-14.8914
G1 X474.3838 Y69.7961 Z-14.9063
G1 X474.3691 Y69.8796 Z-14.9213
G1 X474.3838 Y69.9632 Z-14.9362
G1 X474.4262 Y70.0367 Z-14.9512
G1 X474.4911 Y70.0911 Z-14.9661
G1 X474.5711 Y70.1202 Z-14.9811
G1 X474.6557 Y70.1202 Z-14.9961
G1 X474.7356 Y70.0911 Z-15.0111
G1 X474.8005 Y70.0367 Z-15.0260
G1 X474.8429 Y69.9632 Z-15.0409
G1 X474.8576 Y69.8796 Z-15.0559
G1 X474.8429 Y69.7961 Z-15.0709
G1 X474.8005 Y69.7226 Z-15.0858
G1 X474.7354 Y69.6680 Z-15.1008
G1 X474.6559 Y69.6390 Z-15.1157
G1 X474.5708 Y69.6390 Z-15.1307
G1 X474.4914 Y69.6680 Z-15.1456
G1 X474.4262 Y69.7226 Z-15.1606
G1 X474.3838 Y69.7961 Z-15.1756
G1 X474.3691 Y69.8796 Z-15.1905
G1 X474.3838 Y69.9632 Z-15.2055
G1 X474.4262 Y70.0367 Z-15.2205
G1 X474.4911 Y70.0911 Z-15.2354
G1 X474.5711 Y70.1202 Z-15.2504
G1 X474.6557 Y70.1202 Z-15.2653
G1 X474.7356 Y70.0911 Z-15.2803
G1 X474.8005 Y70.0367 Z-15.2953
G1 X474.8429 Y69.9632 Z-15.3102
G1 X474.8576 Y69.8796 Z-15.3252
G1 X474.8429 Y69.7961 Z-15.3401
G1 X474.8005 Y69.7226 Z-15.3551
G1 X474.7354 Y69.6680 Z-15.3701
G1 X474.6559 Y69.6390 Z-15.3850
G1 X474.5708 Y69.6390 Z-15.4000
G2 X474.6133 Y70.1239 I0.0425 J0.2406 F2000.
G2 X474.6559 Y69.6390 I0.0000 J-0.2443
G1 X474.5708 Y69.6390 Z-15.4000
G1 X474.5708 Y69.6390 Z-14.8000 F5000.
G1 X474.5708 Y69.6390 Z30.0000 F10000.
G1 X568.2109 Y69.8050 Z30.0000
G1 X568.2109 Y69.8050 Z-0.4067 F2500.
G1 X568.2109 Y69.8050 Z-1.0067
G1 X568.2093 Y69.7961 Z-1.0083
G1 X568.1669 Y69.7226 Z-1.0232
G1 X568.1018 Y69.6680 Z-1.0382
G1 X568.0223 Y69.6390 Z-1.0531
G1 X567.9372 Y69.6390 Z-1.0681
G1 X567.8578 Y69.6680 Z-1.0830
G1 X567.7926 Y69.7226 Z-1.0980
G1 X567.7502 Y69.7961 Z-1.1130
G1 X567.7355 Y69.8796 Z-1.1280
G1 X567.7502 Y69.9632 Z-1.1429
G1 X567.7926 Y70.0367 Z-1.1579
G1 X567.8575 Y70.0911 Z-1.1728
G1 X567.9375 Y70.1202 Z-1.1878
G1 X568.0220 Y70.1202 Z-1.2027
G1 X568.1020 Y70.0911 Z-1.2177
G1 X568.1669 Y70.0367 Z-1.2327
G1 X568.2093 Y69.9632 Z-1.2476
G1 X568.2240 Y69.8796 Z-1.2626
G1 X568.2093 Y69.7961 Z-1.2775
G1 X568.1669 Y69.7226 Z-1.2925
G1 X568.1018 Y69.6680 Z-1.3075
G1 X568.0223 Y69.6390 Z-1.3224
G1 X567.9372 Y69.6390 Z-1.3374
G1 X567.8578 Y69.6680 Z-1.3523
G1 X567.7926 Y69.7226 Z-1.3673
G1 X567.7502 Y69.7961 Z-1.3823
G1 X567.7355 Y69.8796 Z-1.3972
G1 X567.7502 Y69.9632 Z-1.4122
G1 X567.7926 Y70.0367 Z-1.4271
G1 X567.8575 Y70.0911 Z-1.4421
G1 X567.9375 Y70.1202 Z-1.4571
G1 X568.0220 Y70.1202 Z-1.4720
G1 X568.1020 Y70.0911 Z-1.4870
G1 X568.1669 Y70.0367 Z-1.5019
G1 X568.2093 Y69.9632 Z-1.5169
G1 X568.2240 Y69.8796 Z-1.5318
G1 X568.2093 Y69.7961 Z-1.5468
G1 X568.1669 Y69.7226 Z-1.5618
G1 X568.1018 Y69.6680 Z-1.5767
G1 X568.0223 Y69.6390 Z-1.5916
G1 X567.9372 Y69.6390 Z-1.6067
G2 X567.9797 Y70.1239 I0.0425 J0.2406 F2000.
G2 X568.0223 Y69.6390 I0.0000 J-0.2443
G1 X567.9372 Y69.6390 Z-1.6067
G1 X567.9372 Y69.6390 Z-1.0067 F5000.
G1 X567.9372 Y69.6390 Z30.0000 F10000.
G1 X568.2109 Y69.8050 Z30.0000
G1 X568.2109 Y69.8050 Z-2.0133 F2500.
G1 X568.2109 Y69.8050 Z-2.6133
G1 X568.2093 Y69.7961 Z-2.6149
G1 X568.1669 Y69.7226 Z-2.6299
G1 X568.1018 Y69.6680 Z-2.6449
G1 X568.0223 Y69.6390 Z-2.6598
G1 X567.9372 Y69.6390 Z-2.6748
G1 X567.8578 Y69.6680 Z-2.6897
G1 X567.7926 Y69.7226 Z-2.7047
G1 X567.7502 Y69.7961 Z-2.7197
G1 X567.7355 Y69.8796 Z-2.7346
G1 X567.7502 Y69.9632 Z-2.7496
G1 X567.7926 Y70.0367 Z-2.7645
G1 X567.8575 Y70.0911 Z-2.7795
G1 X567.9375 Y70.1202 Z-2.7945
G1 X568.0220 Y70.1202 Z-2.8094
G1 X568.1020 Y70.0911 Z-2.8244
G1 X568.1669 Y70.0367 Z-2.8393
G1 X568.2093 Y69.9632 Z-2.8543
G1 X568.2240 Y69.8796 Z-2.8692
G1 X568.2093 Y69.7961 Z-2.8842
G1 X568.1669 Y69.7226 Z-2.8992
G1 X568.1018 Y69.6680 Z-2.9142
G1 X568.0223 Y69.6390 Z-2.9291
G1 X567.9372 Y69.6390 Z-2.9441
G1 X567.8578 Y69.6680 Z-2.9590
G1 X567.7926 Y69.7226 Z-2.9740
G1 X567.7502 Y69.7961 Z-2.9889
G1 X567.7355 Y69.8796 Z-3.0039
G1 X567.7502 Y69.9632 Z-3.0188
G1 X567.7926 Y70.0367 Z-3.0338
G1 X567.8575 Y70.0911 Z-3.0487
G1 X567.9375 Y70.1202 Z-3.0637
G1 X568.0220 Y70.1202 Z-3.0787
G1 X568.1020 Y70.0911 Z-3.0937
G1 X568.1669 Y70.0367 Z-3.1086
G1 X568.2093 Y69.9632 Z-3.1235
G1 X568.2240 Y69.8796 Z-3.1385
G1 X568.2093 Y69.7961 Z-3.1535
G1 X568.1669 Y69.7226 Z-3.1684
G1 X568.1018 Y69.6680 Z-3.1834
G1 X568.0223 Y69.6390 Z-3.1983
G1 X567.9372 Y69.6390 Z-3.2133
G2 X567.9797 Y70.1239 I0.0425 J0.2406 F2000.
G2 X568.0223 Y69.6390 I0.0000 J-0.2443
G1 X567.9372 Y69.6390 Z-3.2133
G1 X567.9372 Y69.6390 Z-2.6133 F5000.
G1 X567.9372 Y69.6390 Z30.0000 F10000.
G1 X568.2109 Y69.8050 Z30.0000
G1 X568.2109 Y69.8050 Z-3.6200 F2500.
G1 X568.2109 Y69.8050 Z-4.2200
G1 X568.2093 Y69.7961 Z-4.2216
G1 X568.1669 Y69.7226 Z-4.2366
G1 X568.1018 Y69.6680 Z-4.2516
G1 X568.0223 Y69.6390 Z-4.2665
G1 X567.9372 Y69.6390 Z-4.2815
G1 X567.8578 Y69.6680 Z-4.2964
G1 X567.7926 Y69.7226 Z-4.3114
G1 X567.7502 Y69.7961 Z-4.3263
G1 X567.7355 Y69.8796 Z-4.3413
G1 X567.7502 Y69.9632 Z-4.3563
G1 X567.7926 Y70.0367 Z-4.3712
G1 X567.8575 Y70.0911 Z-4.3861
G1 X567.9375 Y70.1202 Z-4.4011
G1 X568.0220 Y70.1202 Z-4.4161
G1 X568.1020 Y70.0911 Z-4.4311
G1 X568.1669 Y70.0367 Z-4.4460
G1 X568.2093 Y69.9632 Z-4.4609
G1 X568.2240 Y69.8796 Z-4.4759
G1 X568.2093 Y69.7961 Z-4.4909
G1 X568.1669 Y69.7226 Z-4.5058
G1 X568.1018 Y69.6680 Z-4.5208
G1 X568.0223 Y69.6390 Z-4.5357
G1 X567.9372 Y69.6390 Z-4.5507
G1 X567.8578 Y69.6680 Z-4.5656
G1 X567.7926 Y69.7226 Z-4.5806
G1 X567.7502 Y69.7961 Z-4.5956
G1 X567.7355 Y69.8796 Z-4.6105
G1 X567.7502 Y69.9632 Z-4.6255
G1 X567.7926 Y70.0367 Z-4.6405
G1 X567.8575 Y70.0911 Z-4.6554
G1 X567.9375 Y70.1202 Z-4.6704
G1 X568.0220 Y70.1202 Z-4.6853
G1 X568.1020 Y70.0911 Z-4.7003
G1 X568.1669 Y70.0367 Z-4.7153
G1 X568.2093 Y69.9632 Z-4.7302
G1 X568.2240 Y69.8796 Z-4.7452
G1 X568.2093 Y69.7961 Z-4.7601
G1 X568.1669 Y69.7226 Z-4.7751
G1 X568.1018 Y69.6680 Z-4.7901
G1 X568.0223 Y69.6390 Z-4.8050
G1 X567.9372 Y69.6390 Z-4.8200
G2 X567.9797 Y70.1239 I0.0425 J0.2406 F2000.
G2 X568.0223 Y69.6390 I0.0000 J-0.2443
G1 X567.9372 Y69.6390 Z-4.8200
G1 X567.9372 Y69.6390 Z-4.2200 F5000.
G1 X567.9372 Y69.6390 Z30.0000 F10000.
G1 X568.2109 Y69.8050 Z30.0000
G1 X568.2109 Y69.8050 Z-5.2267 F2500.
G1 X568.2109 Y69.8050 Z-5.8267
G1 X568.2093 Y69.7961 Z-5.8283
G1 X568.1669 Y69.7226 Z-5.8432
G1 X568.1018 Y69.6680 Z-5.8582
G1 X568.0223 Y69.6390 Z-5.8731
G1 X567.9372 Y69.6390 Z-5.8881
G1 X567.8578 Y69.6680 Z-5.9030
G1 X567.7926 Y69.7226 Z-5.9180
G1 X567.7502 Y69.7961 Z-5.9330
G1 X567.7355 Y69.8796 Z-5.9480
G1 X567.7502 Y69.9632 Z-5.9629
G1 X567.7926 Y70.0367 Z-5.9779
G1 X567.8575 Y70.0911 Z-5.9928
G1 X567.9375 Y70.1202 Z-6.0078
G1 X568.0220 Y70.1202 Z-6.0227
G1 X568.1020 Y70.0911 Z-6.0377
G1 X568.1669 Y70.0367 Z-6.0527
G1 X568.2093 Y69.9632 Z-6.0676
G1 X568.2240 Y69.8796 Z-6.0826
G1 X568.2093 Y69.7961 Z-6.0975
G1 X568.1669 Y69.7226 Z-6.1125
G1 X568.1018 Y69.6680 Z-6.1275
G1 X568.0223 Y69.6390 Z-6.1424
G1 X567.9372 Y69.6390 Z-6.1574
G1 X567.8578 Y69.6680 Z-6.1723
G1 X567.7926 Y69.7226 Z-6.1873
G1 X567.7502 Y69.7961 Z-6.2023
G1 X567.7355 Y69.8796 Z-6.2172
G1 X567.7502 Y69.9632 Z-6.2322
G1 X567.7926 Y70.0367 Z-6.2471
G1 X567.8575 Y70.0911 Z-6.2621
G1 X567.9375 Y70.1202 Z-6.2771
G1 X568.0220 Y70.1202 Z-6.2920
G1 X568.1020 Y70.0911 Z-6.3070
G1 X568.1669 Y70.0367 Z-6.3219
G1 X568.2093 Y69.9632 Z-6.3369
G1 X568.2240 Y69.8796 Z-6.3518
G1 X568.2093 Y69.7961 Z-6.3668
G1 X568.1669 Y69.7226 Z-6.3818
G1 X568.1018 Y69.6680 Z-6.3967
G1 X568.0223 Y69.6390 Z-6.4116
G1 X567.9372 Y69.6390 Z-6.4267
G2 X567.9797 Y70.1239 I0.0425 J0.2406 F2000.
G2 X568.0223 Y69.6390 I0.0000 J-0.2443
G1 X567.9372 Y69.6390 Z-6.4267
G1 X567.9372 Y69.6390 Z-5.8267 F5000.
G1 X567.9372 Y69.6390 Z30.0000 F10000.
G1 X568.2109 Y69.8050 Z30.0000
G1 X568.2109 Y69.8050 Z-6.8333 F2500.
G1 X568.2109 Y69.8050 Z-7.4333
G1 X568.2093 Y69.7961 Z-7.4349
G1 X568.1669 Y69.7226 Z-7.4499
G1 X568.1018 Y69.6680 Z-7.4649
G1 X568.0223 Y69.6390 Z-7.4798
G1 X567.9372 Y69.6390 Z-7.4948
G1 X567.8578 Y69.6680 Z-7.5097
G1 X567.7926 Y69.7226 Z-7.5247
G1 X567.7502 Y69.7961 Z-7.5397
G1 X567.7355 Y69.8796 Z-7.5546
G1 X567.7502 Y69.9632 Z-7.5696
G1 X567.7926 Y70.0367 Z-7.5845
G1 X567.8575 Y70.0911 Z-7.5995
G1 X567.9375 Y70.1202 Z-7.6145
G1 X568.0220 Y70.1202 Z-7.6294
G1 X568.1020 Y70.0911 Z-7.6444
G1 X568.1669 Y70.0367 Z-7.6593
G1 X568.2093 Y69.9632 Z-7.6743
G1 X568.2240 Y69.8796 Z-7.6892
G1 X568.2093 Y69.7961 Z-7.7042
G1 X568.1669 Y69.7226 Z-7.7192
G1 X568.1018 Y69.6680 Z-7.7342
G1 X568.0223 Y69.6390 Z-7.7491
G1 X567.9372 Y69.6390 Z-7.7641
G1 X567.8578 Y69.6680 Z-7.7790
G1 X567.7926 Y69.7226 Z-7.7940
G1 X567.7502 Y69.7961 Z-7.8089
G1 X567.7355 Y69.8796 Z-7.8239
G1 X567.7502 Y69.9632 Z-7.8388
G1 X567.7926 Y70.0367 Z-7.8538
G1 X567.8575 Y70.0911 Z-7.8687
G1 X567.9375 Y70.1202 Z-7.8837
G1 X568.0220 Y70.1202 Z-7.8987
G1 X568.1020 Y70.0911 Z-7.9137
G1 X568.1669 Y70.0367 Z-7.9286
G1 X568.2093 Y69.9632 Z-7.9435
G1 X568.2240 Y69.8796 Z-7.9585
G1 X568.2093 Y69.7961 Z-7.9735
G1 X568.1669 Y69.7226 Z-7.9884
G1 X568.1018 Y69.6680 Z-8.0034
G1 X568.0223 Y69.6390 Z-8.0183
G1 X567.9372 Y69.6390 Z-8.0333
G2 X567.9797 Y70.1239 I0.0425 J0.2406 F2000.
G2 X568.0223 Y69.6390 I0.0000 J-0.2443
G1 X567.9372 Y69.6390 Z-8.0333
G1 X567.9372 Y69.6390 Z-7.4333 F5000.
G1 X567.9372 Y69.6390 Z30.0000 F10000.
G1 X568.2109 Y69.8050 Z30.0000
G1 X568.2109 Y69.8050 Z-8.4400 F2500.
G1 X568.2109 Y69.8050 Z-9.0400
G1 X568.2093 Y69.7961 Z-9.0416
G1 X568.1669 Y69.7226 Z-9.0566
G1 X568.1018 Y69.6680 Z-9.0716
G1 X568.0223 Y69.6390 Z-9.0865
G1 X567.9372 Y69.6390 Z-9.1015
G1 X567.8578 Y69.6680 Z-9.1164
G1 X567.7926 Y69.7226 Z-9.1314
G1 X567.7502 Y69.7961 Z-9.1463
G1 X567.7355 Y69.8796 Z-9.1613
G1 X567.7502 Y69.9632 Z-9.1763
G1 X567.7926 Y70.0367 Z-9.1912
G1 X567.8575 Y70.0911 Z-9.2061
G1 X567.9375 Y70.1202 Z-9.2211
G1 X568.0220 Y70.1202 Z-9.2361
G1 X568.1020 Y70.0911 Z-9.2511
G1 X568.1669 Y70.0367 Z-9.2660
G1 X568.2093 Y69.9632 Z-9.2809
G1 X568.2240 Y69.8796 Z-9.2959
G1 X568.2093 Y69.7961 Z-9.3109
G1 X568.1669 Y69.7226 Z-9.3258
G1 X568.1018 Y69.6680 Z-9.3408
G1 X568.0223 Y69.6390 Z-9.3557
G1 X567.9372 Y69.6390 Z-9.3707
G1 X567.8578 Y69.6680 Z-9.3856
G1 X567.7926 Y69.7226 Z-9.4006
G1 X567.7502 Y69.7961 Z-9.4156
G1 X567.7355 Y69.8796 Z-9.4305
G1 X567.7502 Y69.9632 Z-9.4455
G1 X567.7926 Y70.0367 Z-9.4605
G1 X567.8575 Y70.0911 Z-9.4754
G1 X567.9375 Y70.1202 Z-9.4904
G1 X568.0220 Y70.1202 Z-9.5053
G1 X568.1020 Y70.0911 Z-9.5203
G1 X568.1669 Y70.0367 Z-9.5353
G1 X568.2093 Y69.9632 Z-9.5502
G1 X568.2240 Y69.8796 Z-9.5652
G1 X568.2093 Y69.7961 Z-9.5801
G1 X568.1669 Y69.7226 Z-9.5951
G1 X568.1018 Y69.6680 Z-9.6101
G1 X568.0223 Y69.6390 Z-9.6250
G1 X567.9372 Y69.6390 Z-9.6400
G2 X567.9797 Y70.1239 I0.0425 J0.2406 F2000.
G2 X568.0223 Y69.6390 I0.0000 J-0.2443
G1 X567.9372 Y69.6390 Z-9.6400
G1 X567.9372 Y69.6390 Z-9.0400 F5000.
G1 X567.9372 Y69.6390 Z30.0000 F10000.
G1 X568.2109 Y69.8050 Z30.0000
G1 X568.2109 Y69.8050 Z-10.0467 F2500.
G1 X568.2109 Y69.8050 Z-10.6467
G1 X568.2093 Y69.7961 Z-10.6483
G1 X568.1669 Y69.7226 Z-10.6632
G1 X568.1018 Y69.6680 Z-10.6782
G1 X568.0223 Y69.6390 Z-10.6931
G1 X567.9372 Y69.6390 Z-10.7081
G1 X567.8578 Y69.6680 Z-10.7230
G1 X567.7926 Y69.7226 Z-10.7380
G1 X567.7502 Y69.7961 Z-10.7530
G1 X567.7355 Y69.8796 Z-10.7680
G1 X567.7502 Y69.9632 Z-10.7829
G1 X567.7926 Y70.0367 Z-10.7979
G1 X567.8575 Y70.0911 Z-10.8128
G1 X567.9375 Y70.1202 Z-10.8278
G1 X568.0220 Y70.1202 Z-10.8427
G1 X568.1020 Y70.0911 Z-10.8577
G1 X568.1669 Y70.0367 Z-10.8727
G1 X568.2093 Y69.9632 Z-10.8876
G1 X568.2240 Y69.8796 Z-10.9026
G1 X568.2093 Y69.7961 Z-10.9175
G1 X568.1669 Y69.7226 Z-10.9325
G1 X568.1018 Y69.6680 Z-10.9475
G1 X568.0223 Y69.6390 Z-10.9624
G1 X567.9372 Y69.6390 Z-10.9774
G1 X567.8578 Y69.6680 Z-10.9923
G1 X567.7926 Y69.7226 Z-11.0073
G1 X567.7502 Y69.7961 Z-11.0223
G1 X567.7355 Y69.8796 Z-11.0372
G1 X567.7502 Y69.9632 Z-11.0522
G1 X567.7926 Y70.0367 Z-11.0671
G1 X567.8575 Y70.0911 Z-11.0821
G1 X567.9375 Y70.1202 Z-11.0971
G1 X568.0220 Y70.1202 Z-11.1120
G1 X568.1020 Y70.0911 Z-11.1270
G1 X568.1669 Y70.0367 Z-11.1419
G1 X568.2093 Y69.9632 Z-11.1569
G1 X568.2240 Y69.8796 Z-11.1718
G1 X568.2093 Y69.7961 Z-11.1868
G1 X568.1669 Y69.7226 Z-11.2018
G1 X568.1018 Y69.6680 Z-11.2167
G1 X568.0223 Y69.6390 Z-11.2316
G1 X567.9372 Y69.6390 Z-11.2467
G2 X567.9797 Y70.1239 I0.0425 J0.2406 F2000.
G2 X568.0223 Y69.6390 I0.0000 J-0.2443
G1 X567.9372 Y69.6390 Z-11.2467
G1 X567.9372 Y69.6390 Z-10.6467 F5000.
G1 X567.9372 Y69.6390 Z30.0000 F10000.
G1 X568.2109 Y69.8050 Z30.0000
G1 X568.2109 Y69.8050 Z-11.6533 F2500.
G1 X568.2109 Y69.8050 Z-12.2533
G1 X568.2093 Y69.7961 Z-12.2549
G1 X568.1669 Y69.7226 Z-12.2699
G1 X568.1018 Y69.6680 Z-12.2849
G1 X568.0223 Y69.6390 Z-12.2998
G1 X567.9372 Y69.6390 Z-12.3148
G1 X567.8578 Y69.6680 Z-12.3297
G1 X567.7926 Y69.7226 Z-12.3447
G1 X567.7502 Y69.7961 Z-12.3597
G1 X567.7355 Y69.8796 Z-12.3746
G1 X567.7502 Y69.9632 Z-12.3896
G1 X567.7926 Y70.0367 Z-12.4045
G1 X567.8575 Y70.0911 Z-12.4195
G1 X567.9375 Y70.1202 Z-12.4345
G1 X568.0220 Y70.1202 Z-12.4494
G1 X568.1020 Y70.0911 Z-12.4644
G1 X568.1669 Y70.0367 Z-12.4793
G1 X568.2093 Y69.9632 Z-12.4943
G1 X568.2240 Y69.8796 Z-12.5092
G1 X568.2093 Y69.7961 Z-12.5242
G1 X568.1669 Y69.7226 Z-12.5392
G1 X568.1018 Y69.6680 Z-12.5542
G1 X568.0223 Y69.6390 Z-12.5691
G1 X567.9372 Y69.6390 Z-12.5841
G1 X567.8578 Y69.6680 Z-12.5990
G1 X567.7926 Y69.7226 Z-12.6140
G1 X567.7502 Y69.7961 Z-12.6289
G1 X567.7355 Y69.8796 Z-12.6439
G1 X567.7502 Y69.9632 Z-12.6588
G1 X567.7926 Y70.0367 Z-12.6738
G1 X567.8575 Y70.0911 Z-12.6887
G1 X567.9375 Y70.1202 Z-12.7037
G1 X568.0220 Y70.1202 Z-12.7187
G1 X568.1020 Y70.0911 Z-12.7337
G1 X568.1669 Y70.0367 Z-12.7486
G1 X568.2093 Y69.9632 Z-12.7635
G1 X568.2240 Y69.8796 Z-12.7785
G1 X568.2093 Y69.7961 Z-12.7935
G1 X568.1669 Y69.7226 Z-12.8084
G1 X568.1018 Y69.6680 Z-12.8234
G1 X568.0223 Y69.6390 Z-12.8383
G1 X567.9372 Y69.6390 Z-12.8533
G2 X567.9797 Y70.1239 I0.0425 J0.2406 F2000.
G2 X568.0223 Y69.6390 I0.0000 J-0.2443
G1 X567.9372 Y69.6390 Z-12.8533
G1 X567.9372 Y69.6390 Z-12.2533 F5000.
G1 X567.9372 Y69.6390 Z30.0000 F10000.
G1 X568.2109 Y69.8050 Z30.0000
G1 X568.2109 Y69.8050 Z-13.2600 F2500.
G1 X568.2109 Y69.8050 Z-13.8600
G1 X568.2093 Y69.7961 Z-13.8616
G1 X568.1669 Y69.7226 Z-13.8766
G1 X568.1018 Y69.6680 Z-13.8916
G1 X568.0223 Y69.6390 Z-13.9065
G1 X567.9372 Y69.6390 Z-13.9215
G1 X567.8578 Y69.6680 Z-13.9364
G1 X567.7926 Y69.7226 Z-13.9514
G1 X567.7502 Y69.7961 Z-13.9663
G1 X567.7355 Y69.8796 Z-13.9813
G1 X567.7502 Y69.9632 Z-13.9963
G1 X567.7926 Y70.0367 Z-14.0112
G1 X567.8575 Y70.0911 Z-14.0261
G1 X567.9375 Y70.1202 Z-14.0411
G1 X568.0220 Y70.1202 Z-14.0561
G1 X568.1020 Y70.0911 Z-14.0711
G1 X568.1669 Y70.0367 Z-14.0860
G1 X568.2093 Y69.9632 Z-14.1009
G1 X568.2240 Y69.8796 Z-14.1159
G1 X568.2093 Y69.7961 Z-14.1309
G1 X568.1669 Y69.7226 Z-14.1458
G1 X568.1018 Y69.6680 Z-14.1608
G1 X568.0223 Y69.6390 Z-14.1757
G1 X567.9372 Y69.6390 Z-14.1907
G1 X567.8578 Y69.6680 Z-14.2056
G1 X567.7926 Y69.7226 Z-14.2206
G1 X567.7502 Y69.7961 Z-14.2356
G1 X567.7355 Y69.8796 Z-14.2505
G1 X567.7502 Y69.9632 Z-14.2655
G1 X567.7926 Y70.0367 Z-14.2805
G1 X567.8575 Y70.0911 Z-14.2954
G1 X567.9375 Y70.1202 Z-14.3104
G1 X568.0220 Y70.1202 Z-14.3253
G1 X568.1020 Y70.0911 Z-14.3403
G1 X568.1669 Y70.0367 Z-14.3553
G1 X568.2093 Y69.9632 Z-14.3702
G1 X568.2240 Y69.8796 Z-14.3852
G1 X568.2093 Y69.7961 Z-14.4001
G1 X568.1669 Y69.7226 Z-14.4151
G1 X568.1018 Y69.6680 Z-14.4301
G1 X568.0223 Y69.6390 Z-14.4450
G1 X567.9372 Y69.6390 Z-14.4600
G2 X567.9797 Y70.1239 I0.0425 J0.2406 F2000.
G2 X568.0223 Y69.6390 I0.0000 J-0.2443
G1 X567.9372 Y69.6390 Z-14.4600
G1 X567.9372 Y69.6390 Z-13.8600 F5000.
G1 X567.9372 Y69.6390 Z30.0000 F10000.
G1 X568.2109 Y69.8050 Z30.0000
G1 X568.2109 Y69.8050 Z-14.2000 F2500.
G1 X568.2109 Y69.8050 Z-14.8000
G1 X568.2093 Y69.7961 Z-14.8016
G1 X568.1669 Y69.7226 Z-14.8166
G1 X568.1018 Y69.6680 Z-14.8316
G1 X568.0223 Y69.6390 Z-14.8465
G1 X567.9372 Y69.6390 Z-14.8615
G1 X567.8578 Y69.6680 Z-14.8764
G1 X567.7926 Y69.7226 Z-14.8914
G1 X567.7502 Y69.7961 Z-14.9063
G1 X567.7355 Y69.8796 Z-14.9213
G1 X567.7502 Y69.9632 Z-14.9363
G1 X567.7926 Y70.0367 Z-14.9512
G1 X567.8575 Y70.0911 Z-14.9661
G1 X567.9375 Y70.1202 Z-14.9811
G1 X568.0220 Y70.1202 Z-14.9961
G1 X568.1020 Y70.0911 Z-15.0111
G1 X568.1669 Y70.0367 Z-15.0260
G1 X568.2093 Y69.9632 Z-15.0409
G1 X568.2240 Y69.8796 Z-15.0559
G1 X568.2093 Y69.7961 Z-15.0709
G1 X568.1669 Y69.7226 Z-15.0858
G1 X568.1018 Y69.6680 Z-15.1008
G1 X568.0223 Y69.6390 Z-15.1157
G1 X567.9372 Y69.6390 Z-15.1307
G1 X567.8578 Y69.6680 Z-15.1456
G1 X567.7926 Y69.7226 Z-15.1606
G1 X567.7502 Y69.7961 Z-15.1756
G1 X567.7355 Y69.8796 Z-15.1905
G1 X567.7502 Y69.9632 Z-15.2055
G1 X567.7926 Y70.0367 Z-15.2205
G1 X567.8575 Y70.0911 Z-15.2354
G1 X567.9375 Y70.1202 Z-15.2504
G1 X568.0220 Y70.1202 Z-15.2653
G1 X568.1020 Y70.0911 Z-15.2803
G1 X568.1669 Y70.0367 Z-15.2953
G1 X568.2093 Y69.9632 Z-15.3102
G1 X568.2240 Y69.8796 Z-15.3252
G1 X568.2093 Y69.7961 Z-15.3401
G1 X568.1669 Y69.7226 Z-15.3551
G1 X568.1018 Y69.6680 Z-15.3701
G1 X568.0223 Y69.6390 Z-15.3850
G1 X567.9372 Y69.6390 Z-15.4000
G2 X567.9797 Y70.1239 I0.0425 J0.2406 F2000.
G2 X568.0223 Y69.6390 I0.0000 J-0.2443
G1 X567.9372 Y69.6390 Z-15.4000
G1 X567.9372 Y69.6390 Z-14.8000 F5000.
G1 X567.9372 Y69.6390 Z30.0000 F10000.
G1 X601.2485 Y69.8050 Z30.0000
G1 X601.2485 Y69.8050 Z-0.4067 F2500.
G1 X601.2485 Y69.8050 Z-1.0067
G1 X601.2469 Y69.7961 Z-1.0083
G1 X601.2045 Y69.7226 Z-1.0232
G1 X601.1394 Y69.6680 Z-1.0382
G1 X601.0599 Y69.6390 Z-1.0531
G1 X600.9748 Y69.6390 Z-1.0681
G1 X600.8954 Y69.6680 Z-1.0830
G1 X600.8302 Y69.7226 Z-1.0980
G1 X600.7878 Y69.7961 Z-1.1130
G1 X600.7731 Y69.8796 Z-1.1280
G1 X600.7878 Y69.9632 Z-1.1429
G1 X600.8302 Y70.0367 Z-1.1579
G1 X600.8951 Y70.0911 Z-1.1728
G1 X600.9751 Y70.1202 Z-1.1878
G1 X601.0597 Y70.1202 Z-1.2027
G1 X601.1396 Y70.0911 Z-1.2177
G1 X601.2045 Y70.0367 Z-1.2327
G1 X601.2469 Y69.9632 Z-1.2476
G1 X601.2616 Y69.8796 Z-1.2626
G1 X601.2469 Y69.7961 Z-1.2775
G1 X601.2045 Y69.7226 Z-1.2925
G1 X601.1394 Y69.6680 Z-1.3075
G1 X601.0599 Y69.6390 Z-1.3224
G1 X600.9748 Y69.6390 Z-1.3374
G1 X600.8954 Y69.6680 Z-1.3523
G1 X600.8302 Y69.7226 Z-1.3673
G1 X600.7878 Y69.7961 Z-1.3823
G1 X600.7731 Y69.8796 Z-1.3972
G1 X600.7878 Y69.9632 Z-1.4122
G1 X600.8302 Y70.0367 Z-1.4271
G1 X600.8951 Y70.0911 Z-1.4421
G1 X600.9751 Y70.1202 Z-1.4571
G1 X601.0597 Y70.1202 Z-1.4720
G1 X601.1396 Y70.0911 Z-1.4870
G1 X601.2045 Y70.0367 Z-1.5019
G1 X601.2469 Y69.9632 Z-1.5169
G1 X601.2616 Y69.8796 Z-1.5318
G1 X601.2469 Y69.7961 Z-1.5468
G1 X601.2045 Y69.7226 Z-1.5618
G1 X601.1394 Y69.6680 Z-1.5767
G1 X601.0599 Y69.6390 Z-1.5916
G1 X600.9748 Y69.6390 Z-1.6067
G2 X601.0173 Y70.1239 I0.0425 J0.2406 F2000.
G2 X601.0599 Y69.6390 I0.0000 J-0.2443
G1 X600.9748 Y69.6390 Z-1.6067
G1 X600.9748 Y69.6390 Z-1.0067 F5000.
G1 X600.9748 Y69.6390 Z30.0000 F10000.
G1 X601.2485 Y69.8050 Z30.0000
G1 X601.2485 Y69.8050 Z-2.0133 F2500.
G1 X601.2485 Y69.8050 Z-2.6133
G1 X601.2469 Y69.7961 Z-2.6149
G1 X601.2045 Y69.7226 Z-2.6299
G1 X601.1394 Y69.6680 Z-2.6449
G1 X601.0599 Y69.6390 Z-2.6598
G1 X600.9748 Y69.6390 Z-2.6748
G1 X600.8954 Y69.6680 Z-2.6897
G1 X600.8302 Y69.7226 Z-2.7047
G1 X600.7878 Y69.7961 Z-2.7197
G1 X600.7731 Y69.8796 Z-2.7346
G1 X600.7878 Y69.9632 Z-2.7496
G1 X600.8302 Y70.0367 Z-2.7645
G1 X600.8951 Y70.0911 Z-2.7795
G1 X600.9751 Y70.1202 Z-2.7945
G1 X601.0597 Y70.1202 Z-2.8094
G1 X601.1396 Y70.0911 Z-2.8244
G1 X601.2045 Y70.0367 Z-2.8393
G1 X601.2469 Y69.9632 Z-2.8543
G1 X601.2616 Y69.8796 Z-2.8692
G1 X601.2469 Y69.7961 Z-2.8842
G1 X601.2045 Y69.7226 Z-2.8992
G1 X601.1394 Y69.6680 Z-2.9142
G1 X601.0599 Y69.6390 Z-2.9291
G1 X600.9748 Y69.6390 Z-2.9441
G1 X600.8954 Y69.6680 Z-2.9590
G1 X600.8302 Y69.7226 Z-2.9740
G1 X600.7878 Y69.7961 Z-2.9889
G1 X600.7731 Y69.8796 Z-3.0039
G1 X600.7878 Y69.9632 Z-3.0188
G1 X600.8302 Y70.0367 Z-3.0338
G1 X600.8951 Y70.0911 Z-3.0487
G1 X600.9751 Y70.1202 Z-3.0637
G1 X601.0597 Y70.1202 Z-3.0787
G1 X601.1396 Y70.0911 Z-3.0937
G1 X601.2045 Y70.0367 Z-3.1086
G1 X601.2469 Y69.9632 Z-3.1235
G1 X601.2616 Y69.8796 Z-3.1385
G1 X601.2469 Y69.7961 Z-3.1535
G1 X601.2045 Y69.7226 Z-3.1684
G1 X601.1394 Y69.6680 Z-3.1834
G1 X601.0599 Y69.6390 Z-3.1983
G1 X600.9748 Y69.6390 Z-3.2133
G2 X601.0173 Y70.1239 I0.0425 J0.2406 F2000.
G2 X601.0599 Y69.6390 I0.0000 J-0.2443
G1 X600.9748 Y69.6390 Z-3.2133
G1 X600.9748 Y69.6390 Z-2.6133 F5000.
G1 X600.9748 Y69.6390 Z30.0000 F10000.
G1 X601.2485 Y69.8050 Z30.0000
G1 X601.2485 Y69.8050 Z-3.6200 F2500.
G1 X601.2485 Y69.8050 Z-4.2200
G1 X601.2469 Y69.7961 Z-4.2216
G1 X601.2045 Y69.7226 Z-4.2366
G1 X601.1394 Y69.6680 Z-4.2516
G1 X601.0599 Y69.6390 Z-4.2665
G1 X600.9748 Y69.6390 Z-4.2815
G1 X600.8954 Y69.6680 Z-4.2964
G1 X600.8302 Y69.7226 Z-4.3114
G1 X600.7878 Y69.7961 Z-4.3263
G1 X600.7731 Y69.8796 Z-4.3413
G1 X600.7878 Y69.9632 Z-4.3562
G1 X600.8302 Y70.0367 Z-4.3712
G1 X600.8951 Y70.0911 Z-4.3861
G1 X600.9751 Y70.1202 Z-4.4011
G1 X601.0597 Y70.1202 Z-4.4161
G1 X601.1396 Y70.0911 Z-4.4311
G1 X601.2045 Y70.0367 Z-4.4460
G1 X601.2469 Y69.9632 Z-4.4609
G1 X601.2616 Y69.8796 Z-4.4759
G1 X601.2469 Y69.7961 Z-4.4909
G1 X601.2045 Y69.7226 Z-4.5058
G1 X601.1394 Y69.6680 Z-4.5208
G1 X601.0599 Y69.6390 Z-4.5357
G1 X600.9748 Y69.6390 Z-4.5507
G1 X600.8954 Y69.6680 Z-4.5656
G1 X600.8302 Y69.7226 Z-4.5806
G1 X600.7878 Y69.7961 Z-4.5956
G1 X600.7731 Y69.8796 Z-4.6105
G1 X600.7878 Y69.9632 Z-4.6255
G1 X600.8302 Y70.0367 Z-4.6405
G1 X600.8951 Y70.0911 Z-4.6554
G1 X600.9751 Y70.1202 Z-4.6704
G1 X601.0597 Y70.1202 Z-4.6853
G1 X601.1396 Y70.0911 Z-4.7003
G1 X601.2045 Y70.0367 Z-4.7153
G1 X601.2469 Y69.9632 Z-4.7302
G1 X601.2616 Y69.8796 Z-4.7452
G1 X601.2469 Y69.7961 Z-4.7601
G1 X601.2045 Y69.7226 Z-4.7751
G1 X601.1394 Y69.6680 Z-4.7901
G1 X601.0599 Y69.6390 Z-4.8050
G1 X600.9748 Y69.6390 Z-4.8200
G2 X601.0173 Y70.1239 I0.0425 J0.2406 F2000.
G2 X601.0599 Y69.6390 I0.0000 J-0.2443
G1 X600.9748 Y69.6390 Z-4.8200
G1 X600.9748 Y69.6390 Z-4.2200 F5000.
G1 X600.9748 Y69.6390 Z30.0000 F10000.
G1 X601.2485 Y69.8050 Z30.0000
G1 X601.2485 Y69.8050 Z-5.2267 F2500.
G1 X601.2485 Y69.8050 Z-5.8267
G1 X601.2469 Y69.7961 Z-5.8283
G1 X601.2045 Y69.7226 Z-5.8432
G1 X601.1394 Y69.6680 Z-5.8582
G1 X601.0599 Y69.6390 Z-5.8731
G1 X600.9748 Y69.6390 Z-5.8881
G1 X600.8954 Y69.6680 Z-5.9030
G1 X600.8302 Y69.7226 Z-5.9180
G1 X600.7878 Y69.7961 Z-5.9330
G1 X600.7731 Y69.8796 Z-5.9480
G1 X600.7878 Y69.9632 Z-5.9629
G1 X600.8302 Y70.0367 Z-5.9779
G1 X600.8951 Y70.0911 Z-5.9928
G1 X600.9751 Y70.1202 Z-6.0078
G1 X601.0597 Y70.1202 Z-6.0227
G1 X601.1396 Y70.0911 Z-6.0377
G1 X601.2045 Y70.0367 Z-6.0527
G1 X601.2469 Y69.9632 Z-6.0676
G1 X601.2616 Y69.8796 Z-6.0826
G1 X601.2469 Y69.7961 Z-6.0975
G1 X601.2045 Y69.7226 Z-6.1125
G1 X601.1394 Y69.6680 Z-6.1275
G1 X601.0599 Y69.6390 Z-6.1424
G1 X600.9748 Y69.6390 Z-6.1574
G1 X600.8954 Y69.6680 Z-6.1723
G1 X600.8302 Y69.7226 Z-6.1873
G1 X600.7878 Y69.7961 Z-6.2023
G1 X600.7731 Y69.8796 Z-6.2172
G1 X600.7878 Y69.9632 Z-6.2322
G1 X600.8302 Y70.0367 Z-6.2471
G1 X600.8951 Y70.0911 Z-6.2621
G1 X600.9751 Y70.1202 Z-6.2771
G1 X601.0597 Y70.1202 Z-6.2920
G1 X601.1396 Y70.0911 Z-6.3070
G1 X601.2045 Y70.0367 Z-6.3219
G1 X601.2469 Y69.9632 Z-6.3369
G1 X601.2616 Y69.8796 Z-6.3518
G1 X601.2469 Y69.7961 Z-6.3668
G1 X601.2045 Y69.7226 Z-6.3818
G1 X601.1394 Y69.6680 Z-6.3967
G1 X601.0599 Y69.6390 Z-6.4116
G1 X600.9748 Y69.6390 Z-6.4267
G2 X601.0173 Y70.1239 I0.0425 J0.2406 F2000.
G2 X601.0599 Y69.6390 I0.0000 J-0.2443
G1 X600.9748 Y69.6390 Z-6.4267
G1 X600.9748 Y69.6390 Z-5.8267 F5000.
G1 X600.9748 Y69.6390 Z30.0000 F10000.
G1 X601.2485 Y69.8050 Z30.0000
G1 X601.2485 Y69.8050 Z-6.8333 F2500.
G1 X601.2485 Y69.8050 Z-7.4333
G1 X601.2469 Y69.7961 Z-7.4349
G1 X601.2045 Y69.7226 Z-7.4499
G1 X601.1394 Y69.6680 Z-7.4649
G1 X601.0599 Y69.6390 Z-7.4798
G1 X600.9748 Y69.6390 Z-7.4948
G1 X600.8954 Y69.6680 Z-7.5097
G1 X600.8302 Y69.7226 Z-7.5247
G1 X600.7878 Y69.7961 Z-7.5397
G1 X600.7731 Y69.8796 Z-7.5546
G1 X600.7878 Y69.9632 Z-7.5696
G1 X600.8302 Y70.0367 Z-7.5845
G1 X600.8951 Y70.0911 Z-7.5995
G1 X600.9751 Y70.1202 Z-7.6145
G1 X601.0597 Y70.1202 Z-7.6294
G1 X601.1396 Y70.0911 Z-7.6444
G1 X601.2045 Y70.0367 Z-7.6593
G1 X601.2469 Y69.9632 Z-7.6743
G1 X601.2616 Y69.8796 Z-7.6892
G1 X601.2469 Y69.7961 Z-7.7042
G1 X601.2045 Y69.7226 Z-7.7192
G1 X601.1394 Y69.6680 Z-7.7342
G1 X601.0599 Y69.6390 Z-7.7491
G1 X600.9748 Y69.6390 Z-7.7641
G1 X600.8954 Y69.6680 Z-7.7790
G1 X600.8302 Y69.7226 Z-7.7940
G1 X600.7878 Y69.7961 Z-7.8089
G1 X600.7731 Y69.8796 Z-7.8239
G1 X600.7878 Y69.9632 Z-7.8388
G1 X600.8302 Y70.0367 Z-7.8538
G1 X600.8951 Y70.0911 Z-7.8687
G1 X600.9751 Y70.1202 Z-7.8837
G1 X601.0597 Y70.1202 Z-7.8987
G1 X601.1396 Y70.0911 Z-7.9137
G1 X601.2045 Y70.0367 Z-7.9286
G1 X601.2469 Y69.9632 Z-7.9435
G1 X601.2616 Y69.8796 Z-7.9585
G1 X601.2469 Y69.7961 Z-7.9735
G1 X601.2045 Y69.7226 Z-7.9884
G1 X601.1394 Y69.6680 Z-8.0034
G1 X601.0599 Y69.6390 Z-8.0183
G1 X600.9748 Y69.6390 Z-8.0333
G2 X601.0173 Y70.1239 I0.0425 J0.2406 F2000.
G2 X601.0599 Y69.6390 I0.0000 J-0.2443
G1 X600.9748 Y69.6390 Z-8.0333
G1 X600.9748 Y69.6390 Z-7.4333 F5000.
G1 X600.9748 Y69.6390 Z30.0000 F10000.
G1 X601.2485 Y69.8050 Z30.0000
G1 X601.2485 Y69.8050 Z-8.4400 F2500.
G1 X601.2485 Y69.8050 Z-9.0400
G1 X601.2469 Y69.7961 Z-9.0416
G1 X601.2045 Y69.7226 Z-9.0566
G1 X601.1394 Y69.6680 Z-9.0716
G1 X601.0599 Y69.6390 Z-9.0865
G1 X600.9748 Y69.6390 Z-9.1015
G1 X600.8954 Y69.6680 Z-9.1164
G1 X600.8302 Y69.7226 Z-9.1314
G1 X600.7878 Y69.7961 Z-9.1463
G1 X600.7731 Y69.8796 Z-9.1613
G1 X600.7878 Y69.9632 Z-9.1762
G1 X600.8302 Y70.0367 Z-9.1912
G1 X600.8951 Y70.0911 Z-9.2061
G1 X600.9751 Y70.1202 Z-9.2211
G1 X601.0597 Y70.1202 Z-9.2361
G1 X601.1396 Y70.0911 Z-9.2511
G1 X601.2045 Y70.0367 Z-9.2660
G1 X601.2469 Y69.9632 Z-9.2809
G1 X601.2616 Y69.8796 Z-9.2959
G1 X601.2469 Y69.7961 Z-9.3109
G1 X601.2045 Y69.7226 Z-9.3258
G1 X601.1394 Y69.6680 Z-9.3408
G1 X601.0599 Y69.6390 Z-9.3557
G1 X600.9748 Y69.6390 Z-9.3707
G1 X600.8954 Y69.6680 Z-9.3856
G1 X600.8302 Y69.7226 Z-9.4006
G1 X600.7878 Y69.7961 Z-9.4156
G1 X600.7731 Y69.8796 Z-9.4305
G1 X600.7878 Y69.9632 Z-9.4455
G1 X600.8302 Y70.0367 Z-9.4605
G1 X600.8951 Y70.0911 Z-9.4754
G1 X600.9751 Y70.1202 Z-9.4904
G1 X601.0597 Y70.1202 Z-9.5053
G1 X601.1396 Y70.0911 Z-9.5203
G1 X601.2045 Y70.0367 Z-9.5353
G1 X601.2469 Y69.9632 Z-9.5502
G1 X601.2616 Y69.8796 Z-9.5652
G1 X601.2469 Y69.7961 Z-9.5801
G1 X601.2045 Y69.7226 Z-9.5951
G1 X601.1394 Y69.6680 Z-9.6101
G1 X601.0599 Y69.6390 Z-9.6250
G1 X600.9748 Y69.6390 Z-9.6400
G2 X601.0173 Y70.1239 I0.0425 J0.2406 F2000.
G2 X601.0599 Y69.6390 I0.0000 J-0.2443
G1 X600.9748 Y69.6390 Z-9.6400
G1 X600.9748 Y69.6390 Z-9.0400 F5000.
G1 X600.9748 Y69.6390 Z30.0000 F10000.
G1 X601.2485 Y69.8050 Z30.0000
G1 X601.2485 Y69.8050 Z-10.0467 F2500.
G1 X601.2485 Y69.8050 Z-10.6467
G1 X601.2469 Y69.7961 Z-10.6483
G1 X601.2045 Y69.7226 Z-10.6632
G1 X601.1394 Y69.6680 Z-10.6782
G1 X601.0599 Y69.6390 Z-10.6931
G1 X600.9748 Y69.6390 Z-10.7081
G1 X600.8954 Y69.6680 Z-10.7230
G1 X600.8302 Y69.7226 Z-10.7380
G1 X600.7878 Y69.7961 Z-10.7530
G1 X600.7731 Y69.8796 Z-10.7680
G1 X600.7878 Y69.9632 Z-10.7829
G1 X600.8302 Y70.0367 Z-10.7979
G1 X600.8951 Y70.0911 Z-10.8128
G1 X600.9751 Y70.1202 Z-10.8278
G1 X601.0597 Y70.1202 Z-10.8427
G1 X601.1396 Y70.0911 Z-10.8577
G1 X601.2045 Y70.0367 Z-10.8727
G1 X601.2469 Y69.9632 Z-10.8876
G1 X601.2616 Y69.8796 Z-10.9026
G1 X601.2469 Y69.7961 Z-10.9175
G1 X601.2045 Y69.7226 Z-10.9325
G1 X601.1394 Y69.6680 Z-10.9475
G1 X601.0599 Y69.6390 Z-10.9624
G1 X600.9748 Y69.6390 Z-10.9774
G1 X600.8954 Y69.6680 Z-10.9923
G1 X600.8302 Y69.7226 Z-11.0073
G1 X600.7878 Y69.7961 Z-11.0223
G1 X600.7731 Y69.8796 Z-11.0372
G1 X600.7878 Y69.9632 Z-11.0522
G1 X600.8302 Y70.0367 Z-11.0671
G1 X600.8951 Y70.0911 Z-11.0821
G1 X600.9751 Y70.1202 Z-11.0971
G1 X601.0597 Y70.1202 Z-11.1120
G1 X601.1396 Y70.0911 Z-11.1270
G1 X601.2045 Y70.0367 Z-11.1419
G1 X601.2469 Y69.9632 Z-11.1569
G1 X601.2616 Y69.8796 Z-11.1718
G1 X601.2469 Y69.7961 Z-11.1868
G1 X601.2045 Y69.7226 Z-11.2018
G1 X601.1394 Y69.6680 Z-11.2167
G1 X601.0599 Y69.6390 Z-11.2316
G1 X600.9748 Y69.6390 Z-11.2467
G2 X601.0173 Y70.1239 I0.0425 J0.2406 F2000.
G2 X601.0599 Y69.6390 I0.0000 J-0.2443
G1 X600.9748 Y69.6390 Z-11.2467
G1 X600.9748 Y69.6390 Z-10.6467 F5000.
G1 X600.9748 Y69.6390 Z30.0000 F10000.
G1 X601.2485 Y69.8050 Z30.0000
G1 X601.2485 Y69.8050 Z-11.6533 F2500.
G1 X601.2485 Y69.8050 Z-12.2533
G1 X601.2469 Y69.7961 Z-12.2549
G1 X601.2045 Y69.7226 Z-12.2699
G1 X601.1394 Y69.6680 Z-12.2849
G1 X601.0599 Y69.6390 Z-12.2998
G1 X600.9748 Y69.6390 Z-12.3148
G1 X600.8954 Y69.6680 Z-12.3297
G1 X600.8302 Y69.7226 Z-12.3447
G1 X600.7878 Y69.7961 Z-12.3597
G1 X600.7731 Y69.8796 Z-12.3746
G1 X600.7878 Y69.9632 Z-12.3896
G1 X600.8302 Y70.0367 Z-12.4045
G1 X600.8951 Y70.0911 Z-12.4195
G1 X600.9751 Y70.1202 Z-12.4345
G1 X601.0597 Y70.1202 Z-12.4494
G1 X601.1396 Y70.0911 Z-12.4644
G1 X601.2045 Y70.0367 Z-12.4793
G1 X601.2469 Y69.9632 Z-12.4943
G1 X601.2616 Y69.8796 Z-12.5092
G1 X601.2469 Y69.7961 Z-12.5242
G1 X601.2045 Y69.7226 Z-12.5392
G1 X601.1394 Y69.6680 Z-12.5542
G1 X601.0599 Y69.6390 Z-12.5691
G1 X600.9748 Y69.6390 Z-12.5841
G1 X600.8954 Y69.6680 Z-12.5990
G1 X600.8302 Y69.7226 Z-12.6140
G1 X600.7878 Y69.7961 Z-12.6289
G1 X600.7731 Y69.8796 Z-12.6439
G1 X600.7878 Y69.9632 Z-12.6588
G1 X600.8302 Y70.0367 Z-12.6738
G1 X600.8951 Y70.0911 Z-12.6887
G1 X600.9751 Y70.1202 Z-12.7037
G1 X601.0597 Y70.1202 Z-12.7187
G1 X601.1396 Y70.0911 Z-12.7337
G1 X601.2045 Y70.0367 Z-12.7486
G1 X601.2469 Y69.9632 Z-12.7635
G1 X601.2616 Y69.8796 Z-12.7785
G1 X601.2469 Y69.7961 Z-12.7935
G1 X601.2045 Y69.7226 Z-12.8084
G1 X601.1394 Y69.6680 Z-12.8234
G1 X601.0599 Y69.6390 Z-12.8383
G1 X600.9748 Y69.6390 Z-12.8533
G2 X601.0173 Y70.1239 I0.0425 J0.2406 F2000.
G2 X601.0599 Y69.6390 I0.0000 J-0.2443
G1 X600.9748 Y69.6390 Z-12.8533
G1 X600.9748 Y69.6390 Z-12.2533 F5000.
G1 X600.9748 Y69.6390 Z30.0000 F10000.
G1 X601.2485 Y69.8050 Z30.0000
G1 X601.2485 Y69.8050 Z-13.2600 F2500.
G1 X601.2485 Y69.8050 Z-13.8600
G1 X601.2469 Y69.7961 Z-13.8616
G1 X601.2045 Y69.7226 Z-13.8766
G1 X601.1394 Y69.6680 Z-13.8916
G1 X601.0599 Y69.6390 Z-13.9065
G1 X600.9748 Y69.6390 Z-13.9215
G1 X600.8954 Y69.6680 Z-13.9364
G1 X600.8302 Y69.7226 Z-13.9514
G1 X600.7878 Y69.7961 Z-13.9663
G1 X600.7731 Y69.8796 Z-13.9813
G1 X600.7878 Y69.9632 Z-13.9963
G1 X600.8302 Y70.0367 Z-14.0112
G1 X600.8951 Y70.0911 Z-14.0261
G1 X600.9751 Y70.1202 Z-14.0411
G1 X601.0597 Y70.1202 Z-14.0561
G1 X601.1396 Y70.0911 Z-14.0711
G1 X601.2045 Y70.0367 Z-14.0860
G1 X601.2469 Y69.9632 Z-14.1009
G1 X601.2616 Y69.8796 Z-14.1159
G1 X601.2469 Y69.7961 Z-14.1309
G1 X601.2045 Y69.7226 Z-14.1458
G1 X601.1394 Y69.6680 Z-14.1608
G1 X601.0599 Y69.6390 Z-14.1757
G1 X600.9748 Y69.6390 Z-14.1907
G1 X600.8954 Y69.6680 Z-14.2056
G1 X600.8302 Y69.7226 Z-14.2206
G1 X600.7878 Y69.7961 Z-14.2356
G1 X600.7731 Y69.8796 Z-14.2505
G1 X600.7878 Y69.9632 Z-14.2655
G1 X600.8302 Y70.0367 Z-14.2805
G1 X600.8951 Y70.0911 Z-14.2954
G1 X600.9751 Y70.1202 Z-14.3104
G1 X601.0597 Y70.1202 Z-14.3253
G1 X601.1396 Y70.0911 Z-14.3403
G1 X601.2045 Y70.0367 Z-14.3553
G1 X601.2469 Y69.9632 Z-14.3702
G1 X601.2616 Y69.8796 Z-14.3852
G1 X601.2469 Y69.7961 Z-14.4001
G1 X601.2045 Y69.7226 Z-14.4151
G1 X601.1394 Y69.6680 Z-14.4301
G1 X601.0599 Y69.6390 Z-14.4450
G1 X600.9748 Y69.6390 Z-14.4600
G2 X601.0173 Y70.1239 I0.0425 J0.2406 F2000.
G2 X601.0599 Y69.6390 I0.0000 J-0.2443
G1 X600.9748 Y69.6390 Z-14.4600
G1 X600.9748 Y69.6390 Z-13.8600 F5000.
G1 X600.9748 Y69.6390 Z30.0000 F10000.
G1 X601.2485 Y69.8050 Z30.0000
G1 X601.2485 Y69.8050 Z-14.2000 F2500.
G1 X601.2485 Y69.8050 Z-14.8000
G1 X601.2469 Y69.7961 Z-14.8016
G1 X601.2045 Y69.7226 Z-14.8166
G1 X601.1394 Y69.6680 Z-14.8316
G1 X601.0599 Y69.6390 Z-14.8465
G1 X600.9748 Y69.6390 Z-14.8615
G1 X600.8954 Y69.6680 Z-14.8764
G1 X600.8302 Y69.7226 Z-14.8914
G1 X600.7878 Y69.7961 Z-14.9063
G1 X600.7731 Y69.8796 Z-14.9213
G1 X600.7878 Y69.9632 Z-14.9363
G1 X600.8302 Y70.0367 Z-14.9512
G1 X600.8951 Y70.0911 Z-14.9661
G1 X600.9751 Y70.1202 Z-14.9811
G1 X601.0597 Y70.1202 Z-14.9961
G1 X601.1396 Y70.0911 Z-15.0111
G1 X601.2045 Y70.0367 Z-15.0260
G1 X601.2469 Y69.9632 Z-15.0409
G1 X601.2616 Y69.8796 Z-15.0559
G1 X601.2469 Y69.7961 Z-15.0709
G1 X601.2045 Y69.7226 Z-15.0858
G1 X601.1394 Y69.6680 Z-15.1008
G1 X601.0599 Y69.6390 Z-15.1157
G1 X600.9748 Y69.6390 Z-15.1307
G1 X600.8954 Y69.6680 Z-15.1456
G1 X600.8302 Y69.7226 Z-15.1606
G1 X600.7878 Y69.7961 Z-15.1756
G1 X600.7731 Y69.8796 Z-15.1905
G1 X600.7878 Y69.9632 Z-15.2055
G1 X600.8302 Y70.0367 Z-15.2205
G1 X600.8951 Y70.0911 Z-15.2354
G1 X600.9751 Y70.1202 Z-15.2504
G1 X601.0597 Y70.1202 Z-15.2653
G1 X601.1396 Y70.0911 Z-15.2803
G1 X601.2045 Y70.0367 Z-15.2953
G1 X601.2469 Y69.9632 Z-15.3102
G1 X601.2616 Y69.8796 Z-15.3252
G1 X601.2469 Y69.7961 Z-15.3401
G1 X601.2045 Y69.7226 Z-15.3551
G1 X601.1394 Y69.6680 Z-15.3701
G1 X601.0599 Y69.6390 Z-15.3850
G1 X600.9748 Y69.6390 Z-15.4000
G2 X601.0173 Y70.1239 I0.0425 J0.2406 F2000.
G2 X601.0599 Y69.6390 I0.0000 J-0.2443
G1 X600.9748 Y69.6390 Z-15.4000
G1 X600.9748 Y69.6390 Z-14.8000 F5000.
G1 X600.9748 Y69.6390 Z30.0000 F10000.
G1 X694.7595 Y69.8684 Z30.0000
G1 X694.7595 Y69.8684 Z-0.4067 F2500.
G1 X694.7595 Y69.8684 Z-1.0067
G1 X694.7612 Y69.8591 Z-1.0083
G1 X694.7464 Y69.7756 Z-1.0233
G1 X694.7040 Y69.7021 Z-1.0382
G1 X694.6389 Y69.6474 Z-1.0532
G1 X694.5595 Y69.6185 Z-1.0681
G1 X694.4743 Y69.6185 Z-1.0832
G1 X694.3949 Y69.6474 Z-1.0981
G1 X694.3298 Y69.7021 Z-1.1131
G1 X694.2873 Y69.7756 Z-1.1280
G1 X694.2726 Y69.8591 Z-1.1430
G1 X694.2874 Y69.9427 Z-1.1579
G1 X694.3298 Y70.0161 Z-1.1729
G1 X694.3947 Y70.0706 Z-1.1878
G1 X694.4746 Y70.0997 Z-1.2028
G1 X694.5592 Y70.0997 Z-1.2177
G1 X694.6391 Y70.0706 Z-1.2327
G1 X694.7040 Y70.0161 Z-1.2477
G1 X694.7464 Y69.9427 Z-1.2626
G1 X694.7612 Y69.8591 Z-1.2776
G1 X694.7464 Y69.7756 Z-1.2925
G1 X694.7040 Y69.7021 Z-1.3075
G1 X694.6389 Y69.6474 Z-1.3225
G1 X694.5595 Y69.6185 Z-1.3374
G1 X694.4743 Y69.6185 Z-1.3524
G1 X694.3949 Y69.6474 Z-1.3673
G1 X694.3298 Y69.7021 Z-1.3823
G1 X694.2873 Y69.7756 Z-1.3973
G1 X694.2726 Y69.8591 Z-1.4122
G1 X694.2874 Y69.9427 Z-1.4272
G1 X694.3298 Y70.0161 Z-1.4421
G1 X694.3947 Y70.0706 Z-1.4571
G1 X694.4746 Y70.0997 Z-1.4721
G1 X694.5592 Y70.0997 Z-1.4870
G1 X694.6391 Y70.0706 Z-1.5020
G1 X694.7040 Y70.0161 Z-1.5169
G1 X694.7464 Y69.9427 Z-1.5319
G1 X694.7612 Y69.8591 Z-1.5469
G1 X694.7464 Y69.7756 Z-1.5618
G1 X694.7040 Y69.7021 Z-1.5768
G1 X694.6389 Y69.6474 Z-1.5918
G1 X694.5595 Y69.6185 Z-1.6067
G2 X694.4332 Y70.0886 I-0.0427 J0.2406 F2000.
G2 X694.6389 Y69.6474 I0.0836 J-0.2295
G1 X694.5595 Y69.6185 Z-1.6067
G1 X694.5595 Y69.6185 Z-1.0067 F5000.
G1 X694.5595 Y69.6185 Z30.0000 F10000.
G1 X694.7595 Y69.8684 Z30.0000
G1 X694.7595 Y69.8684 Z-2.0133 F2500.
G1 X694.7595 Y69.8684 Z-2.6133
G1 X694.7612 Y69.8591 Z-2.6150
G1 X694.7464 Y69.7756 Z-2.6300
G1 X694.7040 Y69.7021 Z-2.6449
G1 X694.6389 Y69.6474 Z-2.6599
G1 X694.5595 Y69.6185 Z-2.6748
G1 X694.4743 Y69.6185 Z-2.6898
G1 X694.3949 Y69.6474 Z-2.7047
G1 X694.3298 Y69.7021 Z-2.7197
G1 X694.2873 Y69.7756 Z-2.7347
G1 X694.2726 Y69.8591 Z-2.7496
G1 X694.2874 Y69.9427 Z-2.7646
G1 X694.3298 Y70.0161 Z-2.7796
G1 X694.3947 Y70.0706 Z-2.7945
G1 X694.4746 Y70.0997 Z-2.8095
G1 X694.5592 Y70.0997 Z-2.8244
G1 X694.6391 Y70.0706 Z-2.8394
G1 X694.7040 Y70.0161 Z-2.8543
G1 X694.7464 Y69.9427 Z-2.8693
G1 X694.7612 Y69.8591 Z-2.8843
G1 X694.7464 Y69.7756 Z-2.8992
G1 X694.7040 Y69.7021 Z-2.9142
G1 X694.6389 Y69.6474 Z-2.9292
G1 X694.5595 Y69.6185 Z-2.9441
G1 X694.4743 Y69.6185 Z-2.9591
G1 X694.3949 Y69.6474 Z-2.9740
G1 X694.3298 Y69.7021 Z-2.9890
G1 X694.2873 Y69.7756 Z-3.0039
G1 X694.2726 Y69.8591 Z-3.0189
G1 X694.2874 Y69.9427 Z-3.0339
G1 X694.3298 Y70.0161 Z-3.0488
G1 X694.3947 Y70.0706 Z-3.0638
G1 X694.4746 Y70.0997 Z-3.0788
G1 X694.5592 Y70.0997 Z-3.0937
G1 X694.6391 Y70.0706 Z-3.1087
G1 X694.7040 Y70.0161 Z-3.1236
G1 X694.7464 Y69.9427 Z-3.1386
G1 X694.7612 Y69.8591 Z-3.1535
G1 X694.7464 Y69.7756 Z-3.1685
G1 X694.7040 Y69.7021 Z-3.1834
G1 X694.6389 Y69.6474 Z-3.1984
G1 X694.5595 Y69.6185 Z-3.2133
G2 X694.4332 Y70.0886 I-0.0427 J0.2406 F2000.
G2 X694.6389 Y69.6474 I0.0836 J-0.2295
G1 X694.5595 Y69.6185 Z-3.2133
G1 X694.5595 Y69.6185 Z-2.6133 F5000.
G1 X694.5595 Y69.6185 Z30.0000 F10000.
G1 X694.7595 Y69.8684 Z30.0000
G1 X694.7595 Y69.8684 Z-3.6200 F2500.
G1 X694.7595 Y69.8684 Z-4.2200
G1 X694.7612 Y69.8591 Z-4.2217
G1 X694.7464 Y69.7756 Z-4.2366
G1 X694.7040 Y69.7021 Z-4.2516
G1 X694.6389 Y69.6474 Z-4.2666
G1 X694.5595 Y69.6185 Z-4.2815
G1 X694.4743 Y69.6185 Z-4.2965
G1 X694.3949 Y69.6474 Z-4.3114
G1 X694.3298 Y69.7021 Z-4.3264
G1 X694.2873 Y69.7756 Z-4.3413
G1 X694.2726 Y69.8591 Z-4.3563
G1 X694.2874 Y69.9427 Z-4.3713
G1 X694.3298 Y70.0161 Z-4.3862
G1 X694.3947 Y70.0706 Z-4.4012
G1 X694.4746 Y70.0997 Z-4.4162
G1 X694.5592 Y70.0997 Z-4.4311
G1 X694.6391 Y70.0706 Z-4.4461
G1 X694.7040 Y70.0161 Z-4.4610
G1 X694.7464 Y69.9427 Z-4.4760
G1 X694.7612 Y69.8591 Z-4.4909
G1 X694.7464 Y69.7756 Z-4.5059
G1 X694.7040 Y69.7021 Z-4.5208
G1 X694.6389 Y69.6474 Z-4.5358
G1 X694.5595 Y69.6185 Z-4.5507
G1 X694.4743 Y69.6185 Z-4.5658
G1 X694.3949 Y69.6474 Z-4.5807
G1 X694.3298 Y69.7021 Z-4.5957
G1 X694.2873 Y69.7756 Z-4.6106
G1 X694.2726 Y69.8591 Z-4.6256
G1 X694.2874 Y69.9427 Z-4.6405
G1 X694.3298 Y70.0161 Z-4.6555
G1 X694.3947 Y70.0706 Z-4.6704
G1 X694.4746 Y70.0997 Z-4.6854
G1 X694.5592 Y70.0997 Z-4.7003
G1 X694.6391 Y70.0706 Z-4.7153
G1 X694.7040 Y70.0161 Z-4.7303
G1 X694.7464 Y69.9427 Z-4.7452
G1 X694.7612 Y69.8591 Z-4.7602
G1 X694.7464 Y69.7756 Z-4.7751
G1 X694.7040 Y69.7021 Z-4.7901
G1 X694.6389 Y69.6474 Z-4.8051
G1 X694.5595 Y69.6185 Z-4.8200
G2 X694.4332 Y70.0886 I-0.0427 J0.2406 F2000.
G2 X694.6389 Y69.6474 I0.0836 J-0.2295
G1 X694.5595 Y69.6185 Z-4.8200
G1 X694.5595 Y69.6185 Z-4.2200 F5000.
G1 X694.5595 Y69.6185 Z30.0000 F10000.
G1 X694.7595 Y69.8684 Z30.0000
G1 X694.7595 Y69.8684 Z-5.2267 F2500.
G1 X694.7595 Y69.8684 Z-5.8267
G1 X694.7612 Y69.8591 Z-5.8283
G1 X694.7464 Y69.7756 Z-5.8433
G1 X694.7040 Y69.7021 Z-5.8582
G1 X694.6389 Y69.6474 Z-5.8732
G1 X694.5595 Y69.6185 Z-5.8881
G1 X694.4743 Y69.6185 Z-5.9032
G1 X694.3949 Y69.6474 Z-5.9181
G1 X694.3298 Y69.7021 Z-5.9331
G1 X694.2873 Y69.7756 Z-5.9480
G1 X694.2726 Y69.8591 Z-5.9630
G1 X694.2874 Y69.9427 Z-5.9779
G1 X694.3298 Y70.0161 Z-5.9929
G1 X694.3947 Y70.0706 Z-6.0078
G1 X694.4746 Y70.0997 Z-6.0228
G1 X694.5592 Y70.0997 Z-6.0377
G1 X694.6391 Y70.0706 Z-6.0527
G1 X694.7040 Y70.0161 Z-6.0677
G1 X694.7464 Y69.9427 Z-6.0826
G1 X694.7612 Y69.8591 Z-6.0976
G1 X694.7464 Y69.7756 Z-6.1125
G1 X694.7040 Y69.7021 Z-6.1275
G1 X694.6389 Y69.6474 Z-6.1425
G1 X694.5595 Y69.6185 Z-6.1574
G1 X694.4743 Y69.6185 Z-6.1724
G1 X694.3949 Y69.6474 Z-6.1873
G1 X694.3298 Y69.7021 Z-6.2023
G1 X694.2873 Y69.7756 Z-6.2173
G1 X694.2726 Y69.8591 Z-6.2322
G1 X694.2874 Y69.9427 Z-6.2472
G1 X694.3298 Y70.0161 Z-6.2621
G1 X694.3947 Y70.0706 Z-6.2771
G1 X694.4746 Y70.0997 Z-6.2921
G1 X694.5592 Y70.0997 Z-6.3070
G1 X694.6391 Y70.0706 Z-6.3220
G1 X694.7040 Y70.0161 Z-6.3369
G1 X694.7464 Y69.9427 Z-6.3519
G1 X694.7612 Y69.8591 Z-6.3669
G1 X694.7464 Y69.7756 Z-6.3818
G1 X694.7040 Y69.7021 Z-6.3968
G1 X694.6389 Y69.6474 Z-6.4118
G1 X694.5595 Y69.6185 Z-6.4267
G2 X694.4332 Y70.0886 I-0.0427 J0.2406 F2000.
G2 X694.6389 Y69.6474 I0.0836 J-0.2295
G1 X694.5595 Y69.6185 Z-6.4267
G1 X694.5595 Y69.6185 Z-5.8267 F5000.
G1 X694.5595 Y69.6185 Z30.0000 F10000.
G1 X694.7595 Y69.8684 Z30.0000
G1 X694.7595 Y69.8684 Z-6.8333 F2500.
G1 X694.7595 Y69.8684 Z-7.4333
G1 X694.7612 Y69.8591 Z-7.4350
G1 X694.7464 Y69.7756 Z-7.4500
G1 X694.7040 Y69.7021 Z-7.4649
G1 X694.6389 Y69.6474 Z-7.4799
G1 X694.5595 Y69.6185 Z-7.4948
G1 X694.4743 Y69.6185 Z-7.5098
G1 X694.3949 Y69.6474 Z-7.5247
G1 X694.3298 Y69.7021 Z-7.5397
G1 X694.2873 Y69.7756 Z-7.5547
G1 X694.2726 Y69.8591 Z-7.5696
G1 X694.2874 Y69.9427 Z-7.5846
G1 X694.3298 Y70.0161 Z-7.5996
G1 X694.3947 Y70.0706 Z-7.6145
G1 X694.4746 Y70.0997 Z-7.6295
G1 X694.5592 Y70.0997 Z-7.6444
G1 X694.6391 Y70.0706 Z-7.6594
G1 X694.7040 Y70.0161 Z-7.6743
G1 X694.7464 Y69.9427 Z-7.6893
G1 X694.7612 Y69.8591 Z-7.7043
G1 X694.7464 Y69.7756 Z-7.7192
G1 X694.7040 Y69.7021 Z-7.7342
G1 X694.6389 Y69.6474 Z-7.7492
G1 X694.5595 Y69.6185 Z-7.7641
G1 X694.4743 Y69.6185 Z-7.7791
G1 X694.3949 Y69.6474 Z-7.7940
G1 X694.3298 Y69.7021 Z-7.8090
G1 X694.2873 Y69.7756 Z-7.8239
G1 X694.2726 Y69.8591 Z-7.8389
G1 X694.2874 Y69.9427 Z-7.8539
G1 X694.3298 Y70.0161 Z-7.8688
G1 X694.3947 Y70.0706 Z-7.8838
G1 X694.4746 Y70.0997 Z-7.8988
G1 X694.5592 Y70.0997 Z-7.9137
G1 X694.6391 Y70.0706 Z-7.9287
G1 X694.7040 Y70.0161 Z-7.9436
G1 X694.7464 Y69.9427 Z-7.9586
G1 X694.7612 Y69.8591 Z-7.9735
G1 X694.7464 Y69.7756 Z-7.9885
G1 X694.7040 Y69.7021 Z-8.0034
G1 X694.6389 Y69.6474 Z-8.0184
G1 X694.5595 Y69.6185 Z-8.0333
G2 X694.4332 Y70.0886 I-0.0427 J0.2406 F2000.
G2 X694.6389 Y69.6474 I0.0836 J-0.2295
G1 X694.5595 Y69.6185 Z-8.0333
G1 X694.5595 Y69.6185 Z-7.4333 F5000.
G1 X694.5595 Y69.6185 Z30.0000 F10000.
G1 X694.7595 Y69.8684 Z30.0000
G1 X694.7595 Y69.8684 Z-8.4400 F2500.
G1 X694.7595 Y69.8684 Z-9.0400
G1 X694.7612 Y69.8591 Z-9.0417
G1 X694.7464 Y69.7756 Z-9.0566
G1 X694.7040 Y69.7021 Z-9.0716
G1 X694.6389 Y69.6474 Z-9.0866
G1 X694.5595 Y69.6185 Z-9.1015
G1 X694.4743 Y69.6185 Z-9.1165
G1 X694.3949 Y69.6474 Z-9.1314
G1 X694.3298 Y69.7021 Z-9.1464
G1 X694.2873 Y69.7756 Z-9.1613
G1 X694.2726 Y69.8591 Z-9.1763
G1 X694.2874 Y69.9427 Z-9.1913
G1 X694.3298 Y70.0161 Z-9.2062
G1 X694.3947 Y70.0706 Z-9.2212
G1 X694.4746 Y70.0997 Z-9.2362
G1 X694.5592 Y70.0997 Z-9.2511
G1 X694.6391 Y70.0706 Z-9.2661
G1 X694.7040 Y70.0161 Z-9.2810
G1 X694.7464 Y69.9427 Z-9.2960
G1 X694.7612 Y69.8591 Z-9.3109
G1 X694.7464 Y69.7756 Z-9.3259
G1 X694.7040 Y69.7021 Z-9.3408
G1 X694.6389 Y69.6474 Z-9.3558
G1 X694.5595 Y69.6185 Z-9.3707
G1 X694.4743 Y69.6185 Z-9.3858
G1 X694.3949 Y69.6474 Z-9.4007
G1 X694.3298 Y69.7021 Z-9.4157
G1 X694.2873 Y69.7756 Z-9.4306
G1 X694.2726 Y69.8591 Z-9.4456
G1 X694.2874 Y69.9427 Z-9.4605
G1 X694.3298 Y70.0161 Z-9.4755
G1 X694.3947 Y70.0706 Z-9.4904
G1 X694.4746 Y70.0997 Z-9.5054
G1 X694.5592 Y70.0997 Z-9.5203
G1 X694.6391 Y70.0706 Z-9.5353
G1 X694.7040 Y70.0161 Z-9.5503
G1 X694.7464 Y69.9427 Z-9.5652
G1 X694.7612 Y69.8591 Z-9.5802
G1 X694.7464 Y69.7756 Z-9.5951
G1 X694.7040 Y69.7021 Z-9.6101
G1 X694.6389 Y69.6474 Z-9.6251
G1 X694.5595 Y69.6185 Z-9.6400
G2 X694.4332 Y70.0886 I-0.0427 J0.2406 F2000.
G2 X694.6389 Y69.6474 I0.0836 J-0.2295
G1 X694.5595 Y69.6185 Z-9.6400
G1 X694.5595 Y69.6185 Z-9.0400 F5000.
G1 X694.5595 Y69.6185 Z30.0000 F10000.
G1 X694.7595 Y69.8684 Z30.0000
G1 X694.7595 Y69.8684 Z-10.0467 F2500.
G1 X694.7595 Y69.8684 Z-10.6467
G1 X694.7612 Y69.8591 Z-10.6483
G1 X694.7464 Y69.7756 Z-10.6633
G1 X694.7040 Y69.7021 Z-10.6782
G1 X694.6389 Y69.6474 Z-10.6932
G1 X694.5595 Y69.6185 Z-10.7081
G1 X694.4743 Y69.6185 Z-10.7232
G1 X694.3949 Y69.6474 Z-10.7381
G1 X694.3298 Y69.7021 Z-10.7531
G1 X694.2873 Y69.7756 Z-10.7680
G1 X694.2726 Y69.8591 Z-10.7830
G1 X694.2874 Y69.9427 Z-10.7979
G1 X694.3298 Y70.0161 Z-10.8129
G1 X694.3947 Y70.0706 Z-10.8278
G1 X694.4746 Y70.0997 Z-10.8428
G1 X694.5592 Y70.0997 Z-10.8577
G1 X694.6391 Y70.0706 Z-10.8727
G1 X694.7040 Y70.0161 Z-10.8877
G1 X694.7464 Y69.9427 Z-10.9026
G1 X694.7612 Y69.8591 Z-10.9176
G1 X694.7464 Y69.7756 Z-10.9325
G1 X694.7040 Y69.7021 Z-10.9475
G1 X694.6389 Y69.6474 Z-10.9625
G1 X694.5595 Y69.6185 Z-10.9774
G1 X694.4743 Y69.6185 Z-10.9924
G1 X694.3949 Y69.6474 Z-11.0073
G1 X694.3298 Y69.7021 Z-11.0223
G1 X694.2873 Y69.7756 Z-11.0373
G1 X694.2726 Y69.8591 Z-11.0522
G1 X694.2874 Y69.9427 Z-11.0672
G1 X694.3298 Y70.0161 Z-11.0821
G1 X694.3947 Y70.0706 Z-11.0971
G1 X694.4746 Y70.0997 Z-11.1121
G1 X694.5592 Y70.0997 Z-11.1270
G1 X694.6391 Y70.0706 Z-11.1420
G1 X694.7040 Y70.0161 Z-11.1569
G1 X694.7464 Y69.9427 Z-11.1719
G1 X694.7612 Y69.8591 Z-11.1869
G1 X694.7464 Y69.7756 Z-11.2018
G1 X694.7040 Y69.7021 Z-11.2168
G1 X694.6389 Y69.6474 Z-11.2318
G1 X694.5595 Y69.6185 Z-11.2467
G2 X694.4332 Y70.0886 I-0.0427 J0.2406 F2000.
G2 X694.6389 Y69.6474 I0.0836 J-0.2295
G1 X694.5595 Y69.6185 Z-11.2467
G1 X694.5595 Y69.6185 Z-10.6467 F5000.
G1 X694.5595 Y69.6185 Z30.0000 F10000.
G1 X694.7595 Y69.8684 Z30.0000
G1 X694.7595 Y69.8684 Z-11.6533 F2500.
G1 X694.7595 Y69.8684 Z-12.2533
G1 X694.7612 Y69.8591 Z-12.2550
G1 X694.7464 Y69.7756 Z-12.2700
G1 X694.7040 Y69.7021 Z-12.2849
G1 X694.6389 Y69.6474 Z-12.2999
G1 X694.5595 Y69.6185 Z-12.3148
G1 X694.4743 Y69.6185 Z-12.3298
G1 X694.3949 Y69.6474 Z-12.3447
G1 X694.3298 Y69.7021 Z-12.3597
G1 X694.2873 Y69.7756 Z-12.3747
G1 X694.2726 Y69.8591 Z-12.3896
G1 X694.2874 Y69.9427 Z-12.4046
G1 X694.3298 Y70.0161 Z-12.4196
G1 X694.3947 Y70.0706 Z-12.4345
G1 X694.4746 Y70.0997 Z-12.4495
G1 X694.5592 Y70.0997 Z-12.4644
G1 X694.6391 Y70.0706 Z-12.4794
G1 X694.7040 Y70.0161 Z-12.4943
G1 X694.7464 Y69.9427 Z-12.5093
G1 X694.7612 Y69.8591 Z-12.5243
G1 X694.7464 Y69.7756 Z-12.5392
G1 X694.7040 Y69.7021 Z-12.5542
G1 X694.6389 Y69.6474 Z-12.5692
G1 X694.5595 Y69.6185 Z-12.5841
G1 X694.4743 Y69.6185 Z-12.5991
G1 X694.3949 Y69.6474 Z-12.6140
G1 X694.3298 Y69.7021 Z-12.6290
G1 X694.2873 Y69.7756 Z-12.6439
G1 X694.2726 Y69.8591 Z-12.6589
G1 X694.2874 Y69.9427 Z-12.6739
G1 X694.3298 Y70.0161 Z-12.6888
G1 X694.3947 Y70.0706 Z-12.7038
G1 X694.4746 Y70.0997 Z-12.7188
G1 X694.5592 Y70.0997 Z-12.7337
G1 X694.6391 Y70.0706 Z-12.7487
G1 X694.7040 Y70.0161 Z-12.7636
G1 X694.7464 Y69.9427 Z-12.7786
G1 X694.7612 Y69.8591 Z-12.7935
G1 X694.7464 Y69.7756 Z-12.8085
G1 X694.7040 Y69.7021 Z-12.8234
G1 X694.6389 Y69.6474 Z-12.8384
G1 X694.5595 Y69.6185 Z-12.8533
G2 X694.4332 Y70.0886 I-0.0427 J0.2406 F2000.
G2 X694.6389 Y69.6474 I0.0836 J-0.2295
G1 X694.5595 Y69.6185 Z-12.8533
G1 X694.5595 Y69.6185 Z-12.2533 F5000.
G1 X694.5595 Y69.6185 Z30.0000 F10000.
G1 X694.7595 Y69.8684 Z30.0000
G1 X694.7595 Y69.8684 Z-13.2600 F2500.
G1 X694.7595 Y69.8684 Z-13.8600
G1 X694.7612 Y69.8591 Z-13.8617
G1 X694.7464 Y69.7756 Z-13.8766
G1 X694.7040 Y69.7021 Z-13.8916
G1 X694.6389 Y69.6474 Z-13.9066
G1 X694.5595 Y69.6185 Z-13.9215
G1 X694.4743 Y69.6185 Z-13.9365
G1 X694.3949 Y69.6474 Z-13.9514
G1 X694.3298 Y69.7021 Z-13.9664
G1 X694.2873 Y69.7756 Z-13.9813
G1 X694.2726 Y69.8591 Z-13.9963
G1 X694.2874 Y69.9427 Z-14.0113
G1 X694.3298 Y70.0161 Z-14.0262
G1 X694.3947 Y70.0706 Z-14.0412
G1 X694.4746 Y70.0997 Z-14.0562
G1 X694.5592 Y70.0997 Z-14.0711
G1 X694.6391 Y70.0706 Z-14.0861
G1 X694.7040 Y70.0161 Z-14.1010
G1 X694.7464 Y69.9427 Z-14.1160
G1 X694.7612 Y69.8591 Z-14.1309
G1 X694.7464 Y69.7756 Z-14.1459
G1 X694.7040 Y69.7021 Z-14.1608
G1 X694.6389 Y69.6474 Z-14.1758
G1 X694.5595 Y69.6185 Z-14.1907
G1 X694.4743 Y69.6185 Z-14.2058
G1 X694.3949 Y69.6474 Z-14.2207
G1 X694.3298 Y69.7021 Z-14.2357
G1 X694.2873 Y69.7756 Z-14.2506
G1 X694.2726 Y69.8591 Z-14.2656
G1 X694.2874 Y69.9427 Z-14.2805
G1 X694.3298 Y70.0161 Z-14.2955
G1 X694.3947 Y70.0706 Z-14.3104
G1 X694.4746 Y70.0997 Z-14.3254
G1 X694.5592 Y70.0997 Z-14.3403
G1 X694.6391 Y70.0706 Z-14.3553
G1 X694.7040 Y70.0161 Z-14.3703
G1 X694.7464 Y69.9427 Z-14.3852
G1 X694.7612 Y69.8591 Z-14.4002
G1 X694.7464 Y69.7756 Z-14.4151
G1 X694.7040 Y69.7021 Z-14.4301
G1 X694.6389 Y69.6474 Z-14.4451
G1 X694.5595 Y69.6185 Z-14.4600
G2 X694.4332 Y70.0886 I-0.0427 J0.2406 F2000.
G2 X694.6389 Y69.6474 I0.0836 J-0.2295
G1 X694.5595 Y69.6185 Z-14.4600
G1 X694.5595 Y69.6185 Z-13.8600 F5000.
G1 X694.5595 Y69.6185 Z30.0000 F10000.
G1 X694.7595 Y69.8684 Z30.0000
G1 X694.7595 Y69.8684 Z-14.2000 F2500.
G1 X694.7595 Y69.8684 Z-14.8000
G1 X694.7612 Y69.8591 Z-14.8017
G1 X694.7464 Y69.7756 Z-14.8166
G1 X694.7040 Y69.7021 Z-14.8316
G1 X694.6389 Y69.6474 Z-14.8466
G1 X694.5595 Y69.6185 Z-14.8615
G1 X694.4743 Y69.6185 Z-14.8765
G1 X694.3949 Y69.6474 Z-14.8914
G1 X694.3298 Y69.7021 Z-14.9064
G1 X694.2873 Y69.7756 Z-14.9213
G1 X694.2726 Y69.8591 Z-14.9363
G1 X694.2874 Y69.9427 Z-14.9513
G1 X694.3298 Y70.0161 Z-14.9662
G1 X694.3947 Y70.0706 Z-14.9812
G1 X694.4746 Y70.0997 Z-14.9962
G1 X694.5592 Y70.0997 Z-15.0111
G1 X694.6391 Y70.0706 Z-15.0261
G1 X694.7040 Y70.0161 Z-15.0410
G1 X694.7464 Y69.9427 Z-15.0560
G1 X694.7612 Y69.8591 Z-15.0709
G1 X694.7464 Y69.7756 Z-15.0859
G1 X694.7040 Y69.7021 Z-15.1008
G1 X694.6389 Y69.6474 Z-15.1158
G1 X694.5595 Y69.6185 Z-15.1307
G1 X694.4743 Y69.6185 Z-15.1458
G1 X694.3949 Y69.6474 Z-15.1607
G1 X694.3298 Y69.7021 Z-15.1757
G1 X694.2873 Y69.7756 Z-15.1906
G1 X694.2726 Y69.8591 Z-15.2056
G1 X694.2874 Y69.9427 Z-15.2205
G1 X694.3298 Y70.0161 Z-15.2355
G1 X694.3947 Y70.0706 Z-15.2504
G1 X694.4746 Y70.0997 Z-15.2654
G1 X694.5592 Y70.0997 Z-15.2803
G1 X694.6391 Y70.0706 Z-15.2953
G1 X694.7040 Y70.0161 Z-15.3103
G1 X694.7464 Y69.9427 Z-15.3252
G1 X694.7612 Y69.8591 Z-15.3402
G1 X694.7464 Y69.7756 Z-15.3551
G1 X694.7040 Y69.7021 Z-15.3701
G1 X694.6389 Y69.6474 Z-15.3851
G1 X694.5595 Y69.6185 Z-15.4000
G2 X694.4332 Y70.0886 I-0.0427 J0.2406 F2000.
G2 X694.6389 Y69.6474 I0.0836 J-0.2295
G1 X694.5595 Y69.6185 Z-15.4000
G1 X694.5595 Y69.6185 Z-14.8000 F5000.
G1 X694.5595 Y69.6185 Z30.0000 F10000.
G1 X727.6640 Y69.8889 Z30.0000
G1 X727.6640 Y69.8889 Z-0.4067 F2500.
G1 X727.6640 Y69.8889 Z-1.0067
G1 X727.6656 Y69.8796 Z-1.0083
G1 X727.6509 Y69.7961 Z-1.0233
G1 X727.6085 Y69.7227 Z-1.0382
G1 X727.5434 Y69.6680 Z-1.0532
G1 X727.4639 Y69.6390 Z-1.0681
G1 X727.3788 Y69.6390 Z-1.0832
G1 X727.2994 Y69.6680 Z-1.0981
G1 X727.2342 Y69.7226 Z-1.1130
G1 X727.1918 Y69.7961 Z-1.1280
G1 X727.1771 Y69.8796 Z-1.1430
G1 X727.1918 Y69.9632 Z-1.1579
G1 X727.2342 Y70.0367 Z-1.1729
G1 X727.2991 Y70.0911 Z-1.1878
G1 X727.3791 Y70.1202 Z-1.2028
G1 X727.4637 Y70.1202 Z-1.2177
G1 X727.5436 Y70.0911 Z-1.2327
G1 X727.6085 Y70.0366 Z-1.2477
G1 X727.6509 Y69.9632 Z-1.2626
G1 X727.6656 Y69.8796 Z-1.2776
G1 X727.6509 Y69.7961 Z-1.2926
G1 X727.6085 Y69.7227 Z-1.3075
G1 X727.5434 Y69.6680 Z-1.3225
G1 X727.4639 Y69.6390 Z-1.3374
G1 X727.3788 Y69.6390 Z-1.3524
G1 X727.2994 Y69.6680 Z-1.3673
G1 X727.2342 Y69.7226 Z-1.3823
G1 X727.1918 Y69.7961 Z-1.3973
G1 X727.1771 Y69.8796 Z-1.4122
G1 X727.1918 Y69.9632 Z-1.4272
G1 X727.2342 Y70.0367 Z-1.4422
G1 X727.2991 Y70.0911 Z-1.4571
G1 X727.3791 Y70.1202 Z-1.4721
G1 X727.4637 Y70.1202 Z-1.4870
G1 X727.5436 Y70.0911 Z-1.5020
G1 X727.6085 Y70.0366 Z-1.5169
G1 X727.6509 Y69.9632 Z-1.5319
G1 X727.6656 Y69.8796 Z-1.5469
G1 X727.6509 Y69.7961 Z-1.5618
G1 X727.6085 Y69.7227 Z-1.5768
G1 X727.5434 Y69.6680 Z-1.5918
G1 X727.4639 Y69.6390 Z-1.6067
G2 X727.3377 Y70.1091 I-0.0426 J0.2406 F2000.
G2 X727.5434 Y69.6680 I0.0836 J-0.2295
G1 X727.4639 Y69.6390 Z-1.6067
G1 X727.4639 Y69.6390 Z-1.0067 F5000.
G1 X727.4639 Y69.6390 Z30.0000 F10000.
G1 X727.6640 Y69.8889 Z30.0000
G1 X727.6640 Y69.8889 Z-2.0133 F2500.
G1 X727.6640 Y69.8889 Z-2.6133
G1 X727.6656 Y69.8796 Z-2.6150
G1 X727.6509 Y69.7961 Z-2.6300
G1 X727.6085 Y69.7227 Z-2.6449
G1 X727.5434 Y69.6680 Z-2.6599
G1 X727.4639 Y69.6390 Z-2.6748
G1 X727.3788 Y69.6390 Z-2.6898
G1 X727.2994 Y69.6680 Z-2.7047
G1 X727.2342 Y69.7226 Z-2.7197
G1 X727.1918 Y69.7961 Z-2.7347
G1 X727.1771 Y69.8796 Z-2.7496
G1 X727.1918 Y69.9632 Z-2.7646
G1 X727.2342 Y70.0367 Z-2.7796
G1 X727.2991 Y70.0911 Z-2.7945
G1 X727.3791 Y70.1202 Z-2.8095
G1 X727.4637 Y70.1202 Z-2.8244
G1 X727.5436 Y70.0911 Z-2.8394
G1 X727.6085 Y70.0366 Z-2.8543
G1 X727.6509 Y69.9632 Z-2.8693
G1 X727.6656 Y69.8796 Z-2.8843
G1 X727.6509 Y69.7961 Z-2.8992
G1 X727.6085 Y69.7227 Z-2.9142
G1 X727.5434 Y69.6680 Z-2.9292
G1 X727.4639 Y69.6390 Z-2.9441
G1 X727.3788 Y69.6390 Z-2.9591
G1 X727.2994 Y69.6680 Z-2.9740
G1 X727.2342 Y69.7226 Z-2.9890
G1 X727.1918 Y69.7961 Z-3.0039
G1 X727.1771 Y69.8796 Z-3.0189
G1 X727.1918 Y69.9632 Z-3.0339
G1 X727.2342 Y70.0367 Z-3.0488
G1 X727.2991 Y70.0911 Z-3.0638
G1 X727.3791 Y70.1202 Z-3.0788
G1 X727.4637 Y70.1202 Z-3.0937
G1 X727.5436 Y70.0911 Z-3.1087
G1 X727.6085 Y70.0366 Z-3.1236
G1 X727.6509 Y69.9632 Z-3.1386
G1 X727.6656 Y69.8796 Z-3.1535
G1 X727.6509 Y69.7961 Z-3.1685
G1 X727.6085 Y69.7227 Z-3.1834
G1 X727.5434 Y69.6680 Z-3.1984
G1 X727.4639 Y69.6390 Z-3.2133
G2 X727.3377 Y70.1091 I-0.0426 J0.2406 F2000.
G2 X727.5434 Y69.6680 I0.0836 J-0.2295
G1 X727.4639 Y69.6390 Z-3.2133
G1 X727.4639 Y69.6390 Z-2.6133 F5000.
G1 X727.4639 Y69.6390 Z30.0000 F10000.
G1 X727.6640 Y69.8889 Z30.0000
G1 X727.6640 Y69.8889 Z-3.6200 F2500.
G1 X727.6640 Y69.8889 Z-4.2200
G1 X727.6656 Y69.8796 Z-4.2217
G1 X727.6509 Y69.7961 Z-4.2366
G1 X727.6085 Y69.7227 Z-4.2516
G1 X727.5434 Y69.6680 Z-4.2666
G1 X727.4639 Y69.6390 Z-4.2815
G1 X727.3788 Y69.6390 Z-4.2965
G1 X727.2994 Y69.6680 Z-4.3114
G1 X727.2342 Y69.7226 Z-4.3264
G1 X727.1918 Y69.7961 Z-4.3413
G1 X727.1771 Y69.8796 Z-4.3563
G1 X727.1918 Y69.9632 Z-4.3713
G1 X727.2342 Y70.0367 Z-4.3862
G1 X727.2991 Y70.0911 Z-4.4012
G1 X727.3791 Y70.1202 Z-4.4162
G1 X727.4637 Y70.1202 Z-4.4311
G1 X727.5436 Y70.0911 Z-4.4461
G1 X727.6085 Y70.0366 Z-4.4610
G1 X727.6509 Y69.9632 Z-4.4760
G1 X727.6656 Y69.8796 Z-4.4909
G1 X727.6509 Y69.7961 Z-4.5059
G1 X727.6085 Y69.7227 Z-4.5208
G1 X727.5434 Y69.6680 Z-4.5358
G1 X727.4639 Y69.6390 Z-4.5507
G1 X727.3788 Y69.6390 Z-4.5658
G1 X727.2994 Y69.6680 Z-4.5807
G1 X727.2342 Y69.7226 Z-4.5956
G1 X727.1918 Y69.7961 Z-4.6106
G1 X727.1771 Y69.8796 Z-4.6256
G1 X727.1918 Y69.9632 Z-4.6405
G1 X727.2342 Y70.0367 Z-4.6555
G1 X727.2991 Y70.0911 Z-4.6704
G1 X727.3791 Y70.1202 Z-4.6854
G1 X727.4637 Y70.1202 Z-4.7003
G1 X727.5436 Y70.0911 Z-4.7153
G1 X727.6085 Y70.0366 Z-4.7303
G1 X727.6509 Y69.9632 Z-4.7452
G1 X727.6656 Y69.8796 Z-4.7602
G1 X727.6509 Y69.7961 Z-4.7752
G1 X727.6085 Y69.7227 Z-4.7901
G1 X727.5434 Y69.6680 Z-4.8051
G1 X727.4639 Y69.6390 Z-4.8200
G2 X727.3377 Y70.1091 I-0.0426 J0.2406 F2000.
G2 X727.5434 Y69.6680 I0.0836 J-0.2295
G1 X727.4639 Y69.6390 Z-4.8200
G1 X727.4639 Y69.6390 Z-4.2200 F5000.
G1 X727.4639 Y69.6390 Z30.0000 F10000.
G1 X727.6640 Y69.8889 Z30.0000
G1 X727.6640 Y69.8889 Z-5.2267 F2500.
G1 X727.6640 Y69.8889 Z-5.8267
G1 X727.6656 Y69.8796 Z-5.8283
G1 X727.6509 Y69.7961 Z-5.8433
G1 X727.6085 Y69.7227 Z-5.8582
G1 X727.5434 Y69.6680 Z-5.8732
G1 X727.4639 Y69.6390 Z-5.8881
G1 X727.3788 Y69.6390 Z-5.9032
G1 X727.2994 Y69.6680 Z-5.9181
G1 X727.2342 Y69.7226 Z-5.9330
G1 X727.1918 Y69.7961 Z-5.9480
G1 X727.1771 Y69.8796 Z-5.9630
G1 X727.1918 Y69.9632 Z-5.9779
G1 X727.2342 Y70.0367 Z-5.9929
G1 X727.2991 Y70.0911 Z-6.0078
G1 X727.3791 Y70.1202 Z-6.0228
G1 X727.4637 Y70.1202 Z-6.0377
G1 X727.5436 Y70.0911 Z-6.0527
G1 X727.6085 Y70.0366 Z-6.0677
G1 X727.6509 Y69.9632 Z-6.0826
G1 X727.6656 Y69.8796 Z-6.0976
G1 X727.6509 Y69.7961 Z-6.1126
G1 X727.6085 Y69.7227 Z-6.1275
G1 X727.5434 Y69.6680 Z-6.1425
G1 X727.4639 Y69.6390 Z-6.1574
G1 X727.3788 Y69.6390 Z-6.1724
G1 X727.2994 Y69.6680 Z-6.1873
G1 X727.2342 Y69.7226 Z-6.2023
G1 X727.1918 Y69.7961 Z-6.2173
G1 X727.1771 Y69.8796 Z-6.2322
G1 X727.1918 Y69.9632 Z-6.2472
G1 X727.2342 Y70.0367 Z-6.2622
G1 X727.2991 Y70.0911 Z-6.2771
G1 X727.3791 Y70.1202 Z-6.2921
G1 X727.4637 Y70.1202 Z-6.3070
G1 X727.5436 Y70.0911 Z-6.3220
G1 X727.6085 Y70.0366 Z-6.3369
G1 X727.6509 Y69.9632 Z-6.3519
G1 X727.6656 Y69.8796 Z-6.3669
G1 X727.6509 Y69.7961 Z-6.3818
G1 X727.6085 Y69.7227 Z-6.3968
G1 X727.5434 Y69.6680 Z-6.4118
G1 X727.4639 Y69.6390 Z-6.4267
G2 X727.3377 Y70.1091 I-0.0426 J0.2406 F2000.
G2 X727.5434 Y69.6680 I0.0836 J-0.2295
G1 X727.4639 Y69.6390 Z-6.4267
G1 X727.4639 Y69.6390 Z-5.8267 F5000.
G1 X727.4639 Y69.6390 Z30.0000 F10000.
G1 X727.6640 Y69.8889 Z30.0000
G1 X727.6640 Y69.8889 Z-6.8333 F2500.
G1 X727.6640 Y69.8889 Z-7.4333
G1 X727.6656 Y69.8796 Z-7.4350
G1 X727.6509 Y69.7961 Z-7.4500
G1 X727.6085 Y69.7227 Z-7.4649
G1 X727.5434 Y69.6680 Z-7.4799
G1 X727.4639 Y69.6390 Z-7.4948
G1 X727.3788 Y69.6390 Z-7.5098
G1 X727.2994 Y69.6680 Z-7.5247
G1 X727.2342 Y69.7226 Z-7.5397
G1 X727.1918 Y69.7961 Z-7.5547
G1 X727.1771 Y69.8796 Z-7.5696
G1 X727.1918 Y69.9632 Z-7.5846
G1 X727.2342 Y70.0367 Z-7.5996
G1 X727.2991 Y70.0911 Z-7.6145
G1 X727.3791 Y70.1202 Z-7.6295
G1 X727.4637 Y70.1202 Z-7.6444
G1 X727.5436 Y70.0911 Z-7.6594
G1 X727.6085 Y70.0366 Z-7.6743
G1 X727.6509 Y69.9632 Z-7.6893
G1 X727.6656 Y69.8796 Z-7.7043
G1 X727.6509 Y69.7961 Z-7.7192
G1 X727.6085 Y69.7227 Z-7.7342
G1 X727.5434 Y69.6680 Z-7.7492
G1 X727.4639 Y69.6390 Z-7.7641
G1 X727.3788 Y69.6390 Z-7.7791
G1 X727.2994 Y69.6680 Z-7.7940
G1 X727.2342 Y69.7226 Z-7.8090
G1 X727.1918 Y69.7961 Z-7.8239
G1 X727.1771 Y69.8796 Z-7.8389
G1 X727.1918 Y69.9632 Z-7.8539
G1 X727.2342 Y70.0367 Z-7.8688
G1 X727.2991 Y70.0911 Z-7.8838
G1 X727.3791 Y70.1202 Z-7.8988
G1 X727.4637 Y70.1202 Z-7.9137
G1 X727.5436 Y70.0911 Z-7.9287
G1 X727.6085 Y70.0366 Z-7.9436
G1 X727.6509 Y69.9632 Z-7.9586
G1 X727.6656 Y69.8796 Z-7.9735
G1 X727.6509 Y69.7961 Z-7.9885
G1 X727.6085 Y69.7227 Z-8.0034
G1 X727.5434 Y69.6680 Z-8.0184
G1 X727.4639 Y69.6390 Z-8.0333
G2 X727.3377 Y70.1091 I-0.0426 J0.2406 F2000.
G2 X727.5434 Y69.6680 I0.0836 J-0.2295
G1 X727.4639 Y69.6390 Z-8.0333
G1 X727.4639 Y69.6390 Z-7.4333 F5000.
G1 X727.4639 Y69.6390 Z30.0000 F10000.
G1 X727.6640 Y69.8889 Z30.0000
G1 X727.6640 Y69.8889 Z-8.4400 F2500.
G1 X727.6640 Y69.8889 Z-9.0400
G1 X727.6656 Y69.8796 Z-9.0417
G1 X727.6509 Y69.7961 Z-9.0566
G1 X727.6085 Y69.7227 Z-9.0716
G1 X727.5434 Y69.6680 Z-9.0866
G1 X727.4639 Y69.6390 Z-9.1015
G1 X727.3788 Y69.6390 Z-9.1165
G1 X727.2994 Y69.6680 Z-9.1314
G1 X727.2342 Y69.7226 Z-9.1464
G1 X727.1918 Y69.7961 Z-9.1613
G1 X727.1771 Y69.8796 Z-9.1763
G1 X727.1918 Y69.9632 Z-9.1913
G1 X727.2342 Y70.0367 Z-9.2062
G1 X727.2991 Y70.0911 Z-9.2212
G1 X727.3791 Y70.1202 Z-9.2362
G1 X727.4637 Y70.1202 Z-9.2511
G1 X727.5436 Y70.0911 Z-9.2661
G1 X727.6085 Y70.0366 Z-9.2810
G1 X727.6509 Y69.9632 Z-9.2960
G1 X727.6656 Y69.8796 Z-9.3109
G1 X727.6509 Y69.7961 Z-9.3259
G1 X727.6085 Y69.7227 Z-9.3408
G1 X727.5434 Y69.6680 Z-9.3558
G1 X727.4639 Y69.6390 Z-9.3707
G1 X727.3788 Y69.6390 Z-9.3858
G1 X727.2994 Y69.6680 Z-9.4007
G1 X727.2342 Y69.7226 Z-9.4156
G1 X727.1918 Y69.7961 Z-9.4306
G1 X727.1771 Y69.8796 Z-9.4456
G1 X727.1918 Y69.9632 Z-9.4605
G1 X727.2342 Y70.0367 Z-9.4755
G1 X727.2991 Y70.0911 Z-9.4904
G1 X727.3791 Y70.1202 Z-9.5054
G1 X727.4637 Y70.1202 Z-9.5203
G1 X727.5436 Y70.0911 Z-9.5353
G1 X727.6085 Y70.0366 Z-9.5503
G1 X727.6509 Y69.9632 Z-9.5652
G1 X727.6656 Y69.8796 Z-9.5802
G1 X727.6509 Y69.7961 Z-9.5952
G1 X727.6085 Y69.7227 Z-9.6101
G1 X727.5434 Y69.6680 Z-9.6251
G1 X727.4639 Y69.6390 Z-9.6400
G2 X727.3377 Y70.1091 I-0.0426 J0.2406 F2000.
G2 X727.5434 Y69.6680 I0.0836 J-0.2295
G1 X727.4639 Y69.6390 Z-9.6400
G1 X727.4639 Y69.6390 Z-9.0400 F5000.
G1 X727.4639 Y69.6390 Z30.0000 F10000.
G1 X727.6640 Y69.8889 Z30.0000
G1 X727.6640 Y69.8889 Z-10.0467 F2500.
G1 X727.6640 Y69.8889 Z-10.6467
G1 X727.6656 Y69.8796 Z-10.6483
G1 X727.6509 Y69.7961 Z-10.6633
G1 X727.6085 Y69.7227 Z-10.6782
G1 X727.5434 Y69.6680 Z-10.6932
G1 X727.4639 Y69.6390 Z-10.7081
G1 X727.3788 Y69.6390 Z-10.7232
G1 X727.2994 Y69.6680 Z-10.7381
G1 X727.2342 Y69.7226 Z-10.7530
G1 X727.1918 Y69.7961 Z-10.7680
G1 X727.1771 Y69.8796 Z-10.7830
G1 X727.1918 Y69.9632 Z-10.7979
G1 X727.2342 Y70.0367 Z-10.8129
G1 X727.2991 Y70.0911 Z-10.8278
G1 X727.3791 Y70.1202 Z-10.8428
G1 X727.4637 Y70.1202 Z-10.8577
G1 X727.5436 Y70.0911 Z-10.8727
G1 X727.6085 Y70.0366 Z-10.8877
G1 X727.6509 Y69.9632 Z-10.9026
G1 X727.6656 Y69.8796 Z-10.9176
G1 X727.6509 Y69.7961 Z-10.9326
G1 X727.6085 Y69.7227 Z-10.9475
G1 X727.5434 Y69.6680 Z-10.9625
G1 X727.4639 Y69.6390 Z-10.9774
G1 X727.3788 Y69.6390 Z-10.9924
G1 X727.2994 Y69.6680 Z-11.0073
G1 X727.2342 Y69.7226 Z-11.0223
G1 X727.1918 Y69.7961 Z-11.0373
G1 X727.1771 Y69.8796 Z-11.0522
G1 X727.1918 Y69.9632 Z-11.0672
G1 X727.2342 Y70.0367 Z-11.0822
G1 X727.2991 Y70.0911 Z-11.0971
G1 X727.3791 Y70.1202 Z-11.1121
G1 X727.4637 Y70.1202 Z-11.1270
G1 X727.5436 Y70.0911 Z-11.1420
G1 X727.6085 Y70.0366 Z-11.1569
G1 X727.6509 Y69.9632 Z-11.1719
G1 X727.6656 Y69.8796 Z-11.1869
G1 X727.6509 Y69.7961 Z-11.2018
G1 X727.6085 Y69.7227 Z-11.2168
G1 X727.5434 Y69.6680 Z-11.2318
G1 X727.4639 Y69.6390 Z-11.2467
G2 X727.3377 Y70.1091 I-0.0426 J0.2406 F2000.
G2 X727.5434 Y69.6680 I0.0836 J-0.2295
G1 X727.4639 Y69.6390 Z-11.2467
G1 X727.4639 Y69.6390 Z-10.6467 F5000.
G1 X727.4639 Y69.6390 Z30.0000 F10000.
G1 X727.6640 Y69.8889 Z30.0000
G1 X727.6640 Y69.8889 Z-11.6533 F2500.
G1 X727.6640 Y69.8889 Z-12.2533
G1 X727.6656 Y69.8796 Z-12.2550
G1 X727.6509 Y69.7961 Z-12.2700
G1 X727.6085 Y69.7227 Z-12.2849
G1 X727.5434 Y69.6680 Z-12.2999
G1 X727.4639 Y69.6390 Z-12.3148
G1 X727.3788 Y69.6390 Z-12.3298
G1 X727.2994 Y69.6680 Z-12.3447
G1 X727.2342 Y69.7226 Z-12.3597
G1 X727.1918 Y69.7961 Z-12.3747
G1 X727.1771 Y69.8796 Z-12.3896
G1 X727.1918 Y69.9632 Z-12.4046
G1 X727.2342 Y70.0367 Z-12.4196
G1 X727.2991 Y70.0911 Z-12.4345
G1 X727.3791 Y70.1202 Z-12.4495
G1 X727.4637 Y70.1202 Z-12.4644
G1 X727.5436 Y70.0911 Z-12.4794
G1 X727.6085 Y70.0366 Z-12.4943
G1 X727.6509 Y69.9632 Z-12.5093
G1 X727.6656 Y69.8796 Z-12.5243
G1 X727.6509 Y69.7961 Z-12.5392
G1 X727.6085 Y69.7227 Z-12.5542
G1 X727.5434 Y69.6680 Z-12.5692
G1 X727.4639 Y69.6390 Z-12.5841
G1 X727.3788 Y69.6390 Z-12.5991
G1 X727.2994 Y69.6680 Z-12.6140
G1 X727.2342 Y69.7226 Z-12.6290
G1 X727.1918 Y69.7961 Z-12.6439
G1 X727.1771 Y69.8796 Z-12.6589
G1 X727.1918 Y69.9632 Z-12.6739
G1 X727.2342 Y70.0367 Z-12.6888
G1 X727.2991 Y70.0911 Z-12.7038
G1 X727.3791 Y70.1202 Z-12.7188
G1 X727.4637 Y70.1202 Z-12.7337
G1 X727.5436 Y70.0911 Z-12.7487
G1 X727.6085 Y70.0366 Z-12.7636
G1 X727.6509 Y69.9632 Z-12.7786
G1 X727.6656 Y69.8796 Z-12.7935
G1 X727.6509 Y69.7961 Z-12.8085
G1 X727.6085 Y69.7227 Z-12.8234
G1 X727.5434 Y69.6680 Z-12.8384
G1 X727.4639 Y69.6390 Z-12.8533
G2 X727.3377 Y70.1091 I-0.0426 J0.2406 F2000.
G2 X727.5434 Y69.6680 I0.0836 J-0.2295
G1 X727.4639 Y69.6390 Z-12.8533
G1 X727.4639 Y69.6390 Z-12.2533 F5000.
G1 X727.4639 Y69.6390 Z30.0000 F10000.
G1 X727.6640 Y69.8889 Z30.0000
G1 X727.6640 Y69.8889 Z-13.2600 F2500.
G1 X727.6640 Y69.8889 Z-13.8600
G1 X727.6656 Y69.8796 Z-13.8617
G1 X727.6509 Y69.7961 Z-13.8766
G1 X727.6085 Y69.7227 Z-13.8916
G1 X727.5434 Y69.6680 Z-13.9066
G1 X727.4639 Y69.6390 Z-13.9215
G1 X727.3788 Y69.6390 Z-13.9365
G1 X727.2994 Y69.6680 Z-13.9514
G1 X727.2342 Y69.7226 Z-13.9664
G1 X727.1918 Y69.7961 Z-13.9813
G1 X727.1771 Y69.8796 Z-13.9963
G1 X727.1918 Y69.9632 Z-14.0113
G1 X727.2342 Y70.0367 Z-14.0262
G1 X727.2991 Y70.0911 Z-14.0412
G1 X727.3791 Y70.1202 Z-14.0562
G1 X727.4637 Y70.1202 Z-14.0711
G1 X727.5436 Y70.0911 Z-14.0861
G1 X727.6085 Y70.0366 Z-14.1010
G1 X727.6509 Y69.9632 Z-14.1160
G1 X727.6656 Y69.8796 Z-14.1309
G1 X727.6509 Y69.7961 Z-14.1459
G1 X727.6085 Y69.7227 Z-14.1608
G1 X727.5434 Y69.6680 Z-14.1758
G1 X727.4639 Y69.6390 Z-14.1907
G1 X727.3788 Y69.6390 Z-14.2058
G1 X727.2994 Y69.6680 Z-14.2207
G1 X727.2342 Y69.7226 Z-14.2356
G1 X727.1918 Y69.7961 Z-14.2506
G1 X727.1771 Y69.8796 Z-14.2656
G1 X727.1918 Y69.9632 Z-14.2805
G1 X727.2342 Y70.0367 Z-14.2955
G1 X727.2991 Y70.0911 Z-14.3104
G1 X727.3791 Y70.1202 Z-14.3254
G1 X727.4637 Y70.1202 Z-14.3403
G1 X727.5436 Y70.0911 Z-14.3553
G1 X727.6085 Y70.0366 Z-14.3703
G1 X727.6509 Y69.9632 Z-14.3852
G1 X727.6656 Y69.8796 Z-14.4002
G1 X727.6509 Y69.7961 Z-14.4152
G1 X727.6085 Y69.7227 Z-14.4301
G1 X727.5434 Y69.6680 Z-14.4451
G1 X727.4639 Y69.6390 Z-14.4600
G2 X727.3377 Y70.1091 I-0.0426 J0.2406 F2000.
G2 X727.5434 Y69.6680 I0.0836 J-0.2295
G1 X727.4639 Y69.6390 Z-14.4600
G1 X727.4639 Y69.6390 Z-13.8600 F5000.
G1 X727.4639 Y69.6390 Z30.0000 F10000.
G1 X727.6640 Y69.8889 Z30.0000
G1 X727.6640 Y69.8889 Z-14.2000 F2500.
G1 X727.6640 Y69.8889 Z-14.8000
G1 X727.6656 Y69.8796 Z-14.8017
G1 X727.6509 Y69.7961 Z-14.8166
G1 X727.6085 Y69.7227 Z-14.8316
G1 X727.5434 Y69.6680 Z-14.8466
G1 X727.4639 Y69.6390 Z-14.8615
G1 X727.3788 Y69.6390 Z-14.8765
G1 X727.2994 Y69.6680 Z-14.8914
G1 X727.2342 Y69.7226 Z-14.9064
G1 X727.1918 Y69.7961 Z-14.9213
G1 X727.1771 Y69.8796 Z-14.9363
G1 X727.1918 Y69.9632 Z-14.9513
G1 X727.2342 Y70.0367 Z-14.9662
G1 X727.2991 Y70.0911 Z-14.9812
G1 X727.3791 Y70.1202 Z-14.9962
G1 X727.4637 Y70.1202 Z-15.0111
G1 X727.5436 Y70.0911 Z-15.0261
G1 X727.6085 Y70.0366 Z-15.0410
G1 X727.6509 Y69.9632 Z-15.0560
G1 X727.6656 Y69.8796 Z-15.0709
G1 X727.6509 Y69.7961 Z-15.0859
G1 X727.6085 Y69.7227 Z-15.1008
G1 X727.5434 Y69.6680 Z-15.1158
G1 X727.4639 Y69.6390 Z-15.1307
G1 X727.3788 Y69.6390 Z-15.1458
G1 X727.2994 Y69.6680 Z-15.1607
G1 X727.2342 Y69.7226 Z-15.1756
G1 X727.1918 Y69.7961 Z-15.1906
G1 X727.1771 Y69.8796 Z-15.2056
G1 X727.1918 Y69.9632 Z-15.2205
G1 X727.2342 Y70.0367 Z-15.2355
G1 X727.2991 Y70.0911 Z-15.2504
G1 X727.3791 Y70.1202 Z-15.2654
G1 X727.4637 Y70.1202 Z-15.2803
G1 X727.5436 Y70.0911 Z-15.2953
G1 X727.6085 Y70.0366 Z-15.3103
G1 X727.6509 Y69.9632 Z-15.3252
G1 X727.6656 Y69.8796 Z-15.3402
G1 X727.6509 Y69.7961 Z-15.3552
G1 X727.6085 Y69.7227 Z-15.3701
G1 X727.5434 Y69.6680 Z-15.3851
G1 X727.4639 Y69.6390 Z-15.4000
G2 X727.3377 Y70.1091 I-0.0426 J0.2406 F2000.
G2 X727.5434 Y69.6680 I0.0836 J-0.2295
G1 X727.4639 Y69.6390 Z-15.4000
G1 X727.4639 Y69.6390 Z-14.8000 F5000.
G1 X727.4639 Y69.6390 Z30.0000 F10000.
G1 X727.6640 Y184.8889 Z30.0000
G1 X727.6640 Y184.8889 Z-0.4067 F2500.
G1 X727.6640 Y184.8889 Z-1.0067
G1 X727.6656 Y184.8796 Z-1.0083
G1 X727.6509 Y184.7961 Z-1.0233
G1 X727.6085 Y184.7227 Z-1.0382
G1 X727.5434 Y184.6680 Z-1.0532
G1 X727.4639 Y184.6390 Z-1.0681
G1 X727.3788 Y184.6390 Z-1.0832
G1 X727.2994 Y184.6680 Z-1.0981
G1 X727.2342 Y184.7226 Z-1.1130
G1 X727.1918 Y184.7961 Z-1.1280
G1 X727.1771 Y184.8796 Z-1.1430
G1 X727.1918 Y184.9632 Z-1.1579
G1 X727.2342 Y185.0367 Z-1.1729
G1 X727.2991 Y185.0911 Z-1.1878
G1 X727.3791 Y185.1202 Z-1.2028
G1 X727.4637 Y185.1202 Z-1.2177
G1 X727.5436 Y185.0911 Z-1.2327
G1 X727.6085 Y185.0366 Z-1.2477
G1 X727.6509 Y184.9632 Z-1.2626
G1 X727.6656 Y184.8796 Z-1.2776
G1 X727.6509 Y184.7961 Z-1.2926
G1 X727.6085 Y184.7227 Z-1.3075
G1 X727.5434 Y184.6680 Z-1.3225
G1 X727.4639 Y184.6390 Z-1.3374
G1 X727.3788 Y184.6390 Z-1.3524
G1 X727.2994 Y184.6680 Z-1.3673
G1 X727.2342 Y184.7226 Z-1.3823
G1 X727.1918 Y184.7961 Z-1.3973
G1 X727.1771 Y184.8796 Z-1.4122
G1 X727.1918 Y184.9632 Z-1.4272
G1 X727.2342 Y185.0367 Z-1.4422
G1 X727.2991 Y185.0911 Z-1.4571
G1 X727.3791 Y185.1202 Z-1.4721
G1 X727.4637 Y185.1202 Z-1.4870
G1 X727.5436 Y185.0911 Z-1.5020
G1 X727.6085 Y185.0366 Z-1.5169
G1 X727.6509 Y184.9632 Z-1.5319
G1 X727.6656 Y184.8796 Z-1.5469
G1 X727.6509 Y184.7961 Z-1.5618
G1 X727.6085 Y184.7227 Z-1.5768
G1 X727.5434 Y184.6680 Z-1.5918
G1 X727.4639 Y184.6390 Z-1.6067
