(03_Pocketing+Profiling_6mmDC.nc)
(----------------------------------------------------------------)
( Generated for RhinoCam to export for CNC-STEP models Raptor X-SL3000s20 / T-Rex1215 )
( Postprocessor written at FabLab BCN/IaaC by eduardo.chamorro@iaac.net )
( Last edit : 22 January - 2019 )
(----------------------------------------------------------------)
(Stock Size X = 2500.0000, Y =  1225.0000, Z = 15.0000)
(Home Origin X =  0, Y = 0, Z = 0)
(Units = MM, Spindle Speed = 18000)
(Max cut depth = Z-15.0000)
(Tool dia= 6.0 mm, Tool length= 50.0 mm)(WARNING!-CHECK YOUR TOOL)
(-------------------------------------------------------------)
%
G90
G64
M7
M8
T2
S20000
M3
G1 X75.9649 Y204.7407 Z30.0000 F10000.
G1 X75.9649 Y204.7407 Z-1.3833 F2500.
G1 X75.9649 Y204.7407 Z-1.9833
G1 X75.9819 Y204.8107 Z-1.9960
G1 X75.9955 Y204.9049 Z-2.0128
G1 X76.0000 Y205.0000 Z-2.0296
G1 X75.9955 Y205.0951 Z-2.0464
G1 X75.9819 Y205.1893 Z-2.0632
G1 X75.9595 Y205.2817 Z-2.0799
G1 X75.9284 Y205.3717 Z-2.0967
G1 X75.8888 Y205.4582 Z-2.1135
G1 X75.8413 Y205.5406 Z-2.1303
G1 X75.7861 Y205.6182 Z-2.1471
G1 X75.7237 Y205.6901 Z-2.1638
G1 X75.6549 Y205.7557 Z-2.1806
G1 X75.5801 Y205.8146 Z-2.1974
G1 X75.5000 Y205.8660 Z-2.2142
G1 X75.4154 Y205.9096 Z-2.2310
G1 X75.3271 Y205.9450 Z-2.2477
G1 X75.2358 Y205.9718 Z-2.2645
G1 X75.1423 Y205.9898 Z-2.2813
G1 X75.0476 Y205.9989 Z-2.2981
G1 X74.9524 Y205.9989 Z-2.3149
G1 X74.8577 Y205.9898 Z-2.3316
G1 X74.7642 Y205.9718 Z-2.3484
G1 X74.6729 Y205.9450 Z-2.3652
G1 X74.5846 Y205.9096 Z-2.3820
G1 X74.5000 Y205.8660 Z-2.3988
G1 X74.4199 Y205.8146 Z-2.4155
G1 X74.3451 Y205.7557 Z-2.4323
G1 X74.2763 Y205.6901 Z-2.4491
G1 X74.2139 Y205.6182 Z-2.4659
G1 X74.1587 Y205.5406 Z-2.4827
G1 X74.1112 Y205.4582 Z-2.4994
G1 X74.0716 Y205.3717 Z-2.5162
G1 X74.0405 Y205.2817 Z-2.5330
G1 X74.0181 Y205.1893 Z-2.5498
G1 X74.0045 Y205.0951 Z-2.5666
G1 X74.0000 Y205.0000 Z-2.5833
G3 X76.0000 Y205.0000 I1.0000 J0.0000 F3500.
G3 X74.0000 Y205.0000 I-1.0000 J0.0000
G1 X72.5000 Y205.0000 Z-2.5833
G2 X77.5000 Y205.0000 I2.5000 J0.0000
G2 X72.5000 Y205.0000 I-2.5000 J0.0000
G1 X71.0000 Y205.0000 Z-2.5833
G3 X79.0000 Y205.0000 I4.0000 J0.0000
G3 X71.0000 Y205.0000 I-4.0000 J0.0000
G1 X69.5000 Y205.0000 Z-2.5833
G2 X80.5000 Y205.0000 I5.5000 J0.0000
G2 X69.5000 Y205.0000 I-5.5000 J0.0000
G1 X68.0000 Y205.0000 Z-2.5833
G3 X82.0000 Y205.0000 I7.0000 J0.0000
G3 X68.0000 Y205.0000 I-7.0000 J0.0000
G1 X66.5000 Y205.0000 Z-2.5833
G2 X83.5000 Y205.0000 I8.5000 J0.0000
G2 X66.5000 Y205.0000 I-8.5000 J0.0000
G1 X65.0000 Y205.0000 Z-2.5833
G3 X85.0000 Y205.0000 I10.0000 J0.0000
G3 X65.0000 Y205.0000 I-10.0000 J0.0000
G1 X65.5303 Y205.9186 Z-1.5227 F5000.
G1 X65.5303 Y205.9186 Z-0.9227
G1 X65.5303 Y205.9186 Z30.0000 F10000.
G1 X75.9649 Y204.7407 Z30.0000
G1 X75.9649 Y204.7407 Z-3.9667 F2500.
G1 X75.9649 Y204.7407 Z-4.5667
G1 X75.9819 Y204.8107 Z-4.5794
G1 X75.9955 Y204.9049 Z-4.5961
G1 X76.0000 Y205.0000 Z-4.6129
G1 X75.9955 Y205.0951 Z-4.6297
G1 X75.9819 Y205.1893 Z-4.6465
G1 X75.9595 Y205.2817 Z-4.6633
G1 X75.9284 Y205.3717 Z-4.6800
G1 X75.8888 Y205.4582 Z-4.6968
G1 X75.8413 Y205.5406 Z-4.7136
G1 X75.7861 Y205.6182 Z-4.7304
G1 X75.7237 Y205.6901 Z-4.7472
G1 X75.6549 Y205.7557 Z-4.7639
G1 X75.5801 Y205.8146 Z-4.7807
G1 X75.5000 Y205.8660 Z-4.7975
G1 X75.4154 Y205.9096 Z-4.8143
G1 X75.3271 Y205.9450 Z-4.8311
G1 X75.2358 Y205.9718 Z-4.8478
G1 X75.1423 Y205.9898 Z-4.8646
G1 X75.0476 Y205.9989 Z-4.8814
G1 X74.9524 Y205.9989 Z-4.8982
G1 X74.8577 Y205.9898 Z-4.9150
G1 X74.7642 Y205.9718 Z-4.9317
G1 X74.6729 Y205.9450 Z-4.9485
G1 X74.5846 Y205.9096 Z-4.9653
G1 X74.5000 Y205.8660 Z-4.9821
G1 X74.4199 Y205.8146 Z-4.9989
G1 X74.3451 Y205.7557 Z-5.0156
G1 X74.2763 Y205.6901 Z-5.0324
G1 X74.2139 Y205.6182 Z-5.0492
G1 X74.1587 Y205.5406 Z-5.0660
G1 X74.1112 Y205.4582 Z-5.0828
G1 X74.0716 Y205.3717 Z-5.0995
G1 X74.0405 Y205.2817 Z-5.1163
G1 X74.0181 Y205.1893 Z-5.1331
G1 X74.0045 Y205.0951 Z-5.1499
G1 X74.0000 Y205.0000 Z-5.1667
G3 X76.0000 Y205.0000 I1.0000 J0.0000 F3500.
G3 X74.0000 Y205.0000 I-1.0000 J0.0000
G1 X72.5000 Y205.0000 Z-5.1667
G2 X77.5000 Y205.0000 I2.5000 J0.0000
G2 X72.5000 Y205.0000 I-2.5000 J0.0000
G1 X71.0000 Y205.0000 Z-5.1667
G3 X79.0000 Y205.0000 I4.0000 J0.0000
G3 X71.0000 Y205.0000 I-4.0000 J0.0000
G1 X69.5000 Y205.0000 Z-5.1667
G2 X80.5000 Y205.0000 I5.5000 J0.0000
G2 X69.5000 Y205.0000 I-5.5000 J0.0000
G1 X68.0000 Y205.0000 Z-5.1667
G3 X82.0000 Y205.0000 I7.0000 J0.0000
G3 X68.0000 Y205.0000 I-7.0000 J0.0000
G1 X66.5000 Y205.0000 Z-5.1667
G2 X83.5000 Y205.0000 I8.5000 J0.0000
G2 X66.5000 Y205.0000 I-8.5000 J0.0000
G1 X65.0000 Y205.0000 Z-5.1667
G3 X85.0000 Y205.0000 I10.0000 J0.0000
G3 X65.0000 Y205.0000 I-10.0000 J0.0000
G1 X65.5303 Y205.9186 Z-4.1060 F5000.
G1 X65.5303 Y205.9186 Z-3.5060
G1 X65.5303 Y205.9186 Z30.0000 F10000.
G1 X75.9649 Y204.7407 Z30.0000
G1 X75.9649 Y204.7407 Z-6.5500 F2500.
G1 X75.9649 Y204.7407 Z-7.1500
G1 X75.9819 Y204.8107 Z-7.1627
G1 X75.9955 Y204.9049 Z-7.1795
G1 X76.0000 Y205.0000 Z-7.1963
G1 X75.9955 Y205.0951 Z-7.2130
G1 X75.9819 Y205.1893 Z-7.2298
G1 X75.9595 Y205.2817 Z-7.2466
G1 X75.9284 Y205.3717 Z-7.2634
G1 X75.8888 Y205.4582 Z-7.2802
G1 X75.8413 Y205.5406 Z-7.2969
G1 X75.7861 Y205.6182 Z-7.3137
G1 X75.7237 Y205.6901 Z-7.3305
G1 X75.6549 Y205.7557 Z-7.3473
G1 X75.5801 Y205.8146 Z-7.3641
G1 X75.5000 Y205.8660 Z-7.3808
G1 X75.4154 Y205.9096 Z-7.3976
G1 X75.3271 Y205.9450 Z-7.4144
G1 X75.2358 Y205.9718 Z-7.4312
G1 X75.1423 Y205.9898 Z-7.4480
G1 X75.0476 Y205.9989 Z-7.4647
G1 X74.9524 Y205.9989 Z-7.4815
G1 X74.8577 Y205.9898 Z-7.4983
G1 X74.7642 Y205.9718 Z-7.5151
G1 X74.6729 Y205.9450 Z-7.5319
G1 X74.5846 Y205.9096 Z-7.5486
G1 X74.5000 Y205.8660 Z-7.5654
G1 X74.4199 Y205.8146 Z-7.5822
G1 X74.3451 Y205.7557 Z-7.5990
G1 X74.2763 Y205.6901 Z-7.6158
G1 X74.2139 Y205.6182 Z-7.6325
G1 X74.1587 Y205.5406 Z-7.6493
G1 X74.1112 Y205.4582 Z-7.6661
G1 X74.0716 Y205.3717 Z-7.6829
G1 X74.0405 Y205.2817 Z-7.6997
G1 X74.0181 Y205.1893 Z-7.7164
G1 X74.0045 Y205.0951 Z-7.7332
G1 X74.0000 Y205.0000 Z-7.7500
G3 X76.0000 Y205.0000 I1.0000 J0.0000 F3500.
G3 X74.0000 Y205.0000 I-1.0000 J0.0000
G1 X72.5000 Y205.0000 Z-7.7500
G2 X77.5000 Y205.0000 I2.5000 J0.0000
G2 X72.5000 Y205.0000 I-2.5000 J0.0000
G1 X71.0000 Y205.0000 Z-7.7500
G3 X79.0000 Y205.0000 I4.0000 J0.0000
G3 X71.0000 Y205.0000 I-4.0000 J0.0000
G1 X69.5000 Y205.0000 Z-7.7500
G2 X80.5000 Y205.0000 I5.5000 J0.0000
G2 X69.5000 Y205.0000 I-5.5000 J0.0000
G1 X68.0000 Y205.0000 Z-7.7500
G3 X82.0000 Y205.0000 I7.0000 J0.0000
G3 X68.0000 Y205.0000 I-7.0000 J0.0000
G1 X66.5000 Y205.0000 Z-7.7500
G2 X83.5000 Y205.0000 I8.5000 J0.0000
G2 X66.5000 Y205.0000 I-8.5000 J0.0000
G1 X65.0000 Y205.0000 Z-7.7500
G3 X85.0000 Y205.0000 I10.0000 J0.0000
G3 X65.0000 Y205.0000 I-10.0000 J0.0000
G1 X65.5303 Y205.9186 Z-6.6893 F5000.
G1 X65.5303 Y205.9186 Z-6.0893
G1 X65.5303 Y205.9186 Z30.0000 F10000.
G1 X75.9649 Y204.7407 Z30.0000
G1 X75.9649 Y204.7407 Z-9.1333 F2500.
G1 X75.9649 Y204.7407 Z-9.7333
G1 X75.9819 Y204.8107 Z-9.7460
G1 X75.9955 Y204.9049 Z-9.7628
G1 X76.0000 Y205.0000 Z-9.7796
G1 X75.9955 Y205.0951 Z-9.7964
G1 X75.9819 Y205.1893 Z-9.8132
G1 X75.9595 Y205.2817 Z-9.8299
G1 X75.9284 Y205.3717 Z-9.8467
G1 X75.8888 Y205.4582 Z-9.8635
G1 X75.8413 Y205.5406 Z-9.8803
G1 X75.7861 Y205.6182 Z-9.8971
G1 X75.7237 Y205.6901 Z-9.9138
G1 X75.6549 Y205.7557 Z-9.9306
G1 X75.5801 Y205.8146 Z-9.9474
G1 X75.5000 Y205.8660 Z-9.9642
G1 X75.4154 Y205.9096 Z-9.9810
G1 X75.3271 Y205.9450 Z-9.9977
G1 X75.2358 Y205.9718 Z-10.0145
G1 X75.1423 Y205.9898 Z-10.0313
G1 X75.0476 Y205.9989 Z-10.0481
G1 X74.9524 Y205.9989 Z-10.0649
G1 X74.8577 Y205.9898 Z-10.0816
G1 X74.7642 Y205.9718 Z-10.0984
G1 X74.6729 Y205.9450 Z-10.1152
G1 X74.5846 Y205.9096 Z-10.1320
G1 X74.5000 Y205.8660 Z-10.1488
G1 X74.4199 Y205.8146 Z-10.1655
G1 X74.3451 Y205.7557 Z-10.1823
G1 X74.2763 Y205.6901 Z-10.1991
G1 X74.2139 Y205.6182 Z-10.2159
G1 X74.1587 Y205.5406 Z-10.2327
G1 X74.1112 Y205.4582 Z-10.2494
G1 X74.0716 Y205.3717 Z-10.2662
G1 X74.0405 Y205.2817 Z-10.2830
G1 X74.0181 Y205.1893 Z-10.2998
G1 X74.0045 Y205.0951 Z-10.3166
G1 X74.0000 Y205.0000 Z-10.3333
G3 X76.0000 Y205.0000 I1.0000 J0.0000 F3500.
G3 X74.0000 Y205.0000 I-1.0000 J0.0000
G1 X72.5000 Y205.0000 Z-10.3333
G2 X77.5000 Y205.0000 I2.5000 J0.0000
G2 X72.5000 Y205.0000 I-2.5000 J0.0000
G1 X71.0000 Y205.0000 Z-10.3333
G3 X79.0000 Y205.0000 I4.0000 J0.0000
G3 X71.0000 Y205.0000 I-4.0000 J0.0000
G1 X69.5000 Y205.0000 Z-10.3333
G2 X80.5000 Y205.0000 I5.5000 J0.0000
G2 X69.5000 Y205.0000 I-5.5000 J0.0000
G1 X68.0000 Y205.0000 Z-10.3333
G3 X82.0000 Y205.0000 I7.0000 J0.0000
G3 X68.0000 Y205.0000 I-7.0000 J0.0000
G1 X66.5000 Y205.0000 Z-10.3333
G2 X83.5000 Y205.0000 I8.5000 J0.0000
G2 X66.5000 Y205.0000 I-8.5000 J0.0000
G1 X65.0000 Y205.0000 Z-10.3333
G3 X85.0000 Y205.0000 I10.0000 J0.0000
G3 X65.0000 Y205.0000 I-10.0000 J0.0000
G1 X65.5303 Y205.9186 Z-9.2727 F5000.
G1 X65.5303 Y205.9186 Z-8.6727
G1 X65.5303 Y205.9186 Z30.0000 F10000.
G1 X75.9649 Y204.7407 Z30.0000
G1 X75.9649 Y204.7407 Z-11.7167 F2500.
G1 X75.9649 Y204.7407 Z-12.3167
G1 X75.9819 Y204.8107 Z-12.3294
G1 X75.9955 Y204.9049 Z-12.3461
G1 X76.0000 Y205.0000 Z-12.3629
G1 X75.9955 Y205.0951 Z-12.3797
G1 X75.9819 Y205.1893 Z-12.3965
G1 X75.9595 Y205.2817 Z-12.4133
G1 X75.9284 Y205.3717 Z-12.4300
G1 X75.8888 Y205.4582 Z-12.4468
G1 X75.8413 Y205.5406 Z-12.4636
G1 X75.7861 Y205.6182 Z-12.4804
G1 X75.7237 Y205.6901 Z-12.4972
G1 X75.6549 Y205.7557 Z-12.5139
G1 X75.5801 Y205.8146 Z-12.5307
G1 X75.5000 Y205.8660 Z-12.5475
G1 X75.4154 Y205.9096 Z-12.5643
G1 X75.3271 Y205.9450 Z-12.5811
G1 X75.2358 Y205.9718 Z-12.5978
G1 X75.1423 Y205.9898 Z-12.6146
G1 X75.0476 Y205.9989 Z-12.6314
G1 X74.9524 Y205.9989 Z-12.6482
G1 X74.8577 Y205.9898 Z-12.6650
G1 X74.7642 Y205.9718 Z-12.6817
G1 X74.6729 Y205.9450 Z-12.6985
G1 X74.5846 Y205.9096 Z-12.7153
G1 X74.5000 Y205.8660 Z-12.7321
G1 X74.4199 Y205.8146 Z-12.7489
G1 X74.3451 Y205.7557 Z-12.7656
G1 X74.2763 Y205.6901 Z-12.7824
G1 X74.2139 Y205.6182 Z-12.7992
G1 X74.1587 Y205.5406 Z-12.8160
G1 X74.1112 Y205.4582 Z-12.8328
G1 X74.0716 Y205.3717 Z-12.8495
G1 X74.0405 Y205.2817 Z-12.8663
G1 X74.0181 Y205.1893 Z-12.8831
G1 X74.0045 Y205.0951 Z-12.8999
G1 X74.0000 Y205.0000 Z-12.9167
G3 X76.0000 Y205.0000 I1.0000 J0.0000 F3500.
G3 X74.0000 Y205.0000 I-1.0000 J0.0000
G1 X72.5000 Y205.0000 Z-12.9167
G2 X77.5000 Y205.0000 I2.5000 J0.0000
G2 X72.5000 Y205.0000 I-2.5000 J0.0000
G1 X71.0000 Y205.0000 Z-12.9167
G3 X79.0000 Y205.0000 I4.0000 J0.0000
G3 X71.0000 Y205.0000 I-4.0000 J0.0000
G1 X69.5000 Y205.0000 Z-12.9167
G2 X80.5000 Y205.0000 I5.5000 J0.0000
G2 X69.5000 Y205.0000 I-5.5000 J0.0000
G1 X68.0000 Y205.0000 Z-12.9167
G3 X82.0000 Y205.0000 I7.0000 J0.0000
G3 X68.0000 Y205.0000 I-7.0000 J0.0000
G1 X66.5000 Y205.0000 Z-12.9167
G2 X83.5000 Y205.0000 I8.5000 J0.0000
G2 X66.5000 Y205.0000 I-8.5000 J0.0000
G1 X65.0000 Y205.0000 Z-12.9167
G3 X85.0000 Y205.0000 I10.0000 J0.0000
G3 X65.0000 Y205.0000 I-10.0000 J0.0000
G1 X65.5303 Y205.9186 Z-11.8560 F5000.
G1 X65.5303 Y205.9186 Z-11.2560
G1 X65.5303 Y205.9186 Z30.0000 F10000.
G1 X75.9649 Y204.7407 Z30.0000
G1 X75.9649 Y204.7407 Z-14.3000 F2500.
G1 X75.9649 Y204.7407 Z-14.9000
G1 X75.9819 Y204.8107 Z-14.9127
G1 X75.9955 Y204.9049 Z-14.9295
G1 X76.0000 Y205.0000 Z-14.9463
G1 X75.9955 Y205.0951 Z-14.9630
G1 X75.9819 Y205.1893 Z-14.9798
G1 X75.9595 Y205.2817 Z-14.9966
G1 X75.9284 Y205.3717 Z-15.0134
G1 X75.8888 Y205.4582 Z-15.0302
G1 X75.8413 Y205.5406 Z-15.0469
G1 X75.7861 Y205.6182 Z-15.0637
G1 X75.7237 Y205.6901 Z-15.0805
G1 X75.6549 Y205.7557 Z-15.0973
G1 X75.5801 Y205.8146 Z-15.1141
G1 X75.5000 Y205.8660 Z-15.1308
G1 X75.4154 Y205.9096 Z-15.1476
G1 X75.3271 Y205.9450 Z-15.1644
G1 X75.2358 Y205.9718 Z-15.1812
G1 X75.1423 Y205.9898 Z-15.1980
G1 X75.0476 Y205.9989 Z-15.2147
G1 X74.9524 Y205.9989 Z-15.2315
G1 X74.8577 Y205.9898 Z-15.2483
G1 X74.7642 Y205.9718 Z-15.2651
G1 X74.6729 Y205.9450 Z-15.2819
G1 X74.5846 Y205.9096 Z-15.2986
G1 X74.5000 Y205.8660 Z-15.3154
G1 X74.4199 Y205.8146 Z-15.3322
G1 X74.3451 Y205.7557 Z-15.3490
G1 X74.2763 Y205.6901 Z-15.3658
G1 X74.2139 Y205.6182 Z-15.3825
G1 X74.1587 Y205.5406 Z-15.3993
G1 X74.1112 Y205.4582 Z-15.4161
G1 X74.0716 Y205.3717 Z-15.4329
G1 X74.0405 Y205.2817 Z-15.4497
G1 X74.0181 Y205.1893 Z-15.4664
G1 X74.0045 Y205.0951 Z-15.4832
G1 X74.0000 Y205.0000 Z-15.5000
G3 X76.0000 Y205.0000 I1.0000 J0.0000 F3500.
G3 X74.0000 Y205.0000 I-1.0000 J0.0000
G1 X72.5000 Y205.0000 Z-15.5000
G2 X77.5000 Y205.0000 I2.5000 J0.0000
G2 X72.5000 Y205.0000 I-2.5000 J0.0000
G1 X71.0000 Y205.0000 Z-15.5000
G3 X79.0000 Y205.0000 I4.0000 J0.0000
G3 X71.0000 Y205.0000 I-4.0000 J0.0000
G1 X69.5000 Y205.0000 Z-15.5000
G2 X80.5000 Y205.0000 I5.5000 J0.0000
G2 X69.5000 Y205.0000 I-5.5000 J0.0000
G1 X68.0000 Y205.0000 Z-15.5000
G3 X82.0000 Y205.0000 I7.0000 J0.0000
G3 X68.0000 Y205.0000 I-7.0000 J0.0000
G1 X66.5000 Y205.0000 Z-15.5000
G2 X83.5000 Y205.0000 I8.5000 J0.0000
G2 X66.5000 Y205.0000 I-8.5000 J0.0000
G1 X65.0000 Y205.0000 Z-15.5000
G3 X85.0000 Y205.0000 I10.0000 J0.0000
G3 X65.0000 Y205.0000 I-10.0000 J0.0000
G1 X65.5303 Y205.9186 Z-14.4393 F5000.
G1 X65.5303 Y205.9186 Z-13.8393
G1 X65.5303 Y205.9186 Z30.0000 F10000.
G1 X75.9649 Y299.7407 Z30.0000
G1 X75.9649 Y299.7407 Z-1.3833 F2500.
G1 X75.9649 Y299.7407 Z-1.9833
G1 X75.9819 Y299.8107 Z-1.9960
G1 X75.9955 Y299.9049 Z-2.0128
G1 X76.0000 Y300.0000 Z-2.0296
G1 X75.9955 Y300.0951 Z-2.0464
G1 X75.9819 Y300.1893 Z-2.0632
G1 X75.9595 Y300.2817 Z-2.0799
G1 X75.9284 Y300.3717 Z-2.0967
G1 X75.8888 Y300.4582 Z-2.1135
G1 X75.8413 Y300.5406 Z-2.1303
G1 X75.7861 Y300.6182 Z-2.1471
G1 X75.7237 Y300.6901 Z-2.1638
G1 X75.6549 Y300.7557 Z-2.1806
G1 X75.5801 Y300.8146 Z-2.1974
G1 X75.5000 Y300.8660 Z-2.2142
G1 X75.4154 Y300.9096 Z-2.2310
G1 X75.3271 Y300.9450 Z-2.2477
G1 X75.2358 Y300.9718 Z-2.2645
G1 X75.1423 Y300.9898 Z-2.2813
G1 X75.0476 Y300.9989 Z-2.2981
G1 X74.9524 Y300.9989 Z-2.3149
G1 X74.8577 Y300.9898 Z-2.3316
G1 X74.7642 Y300.9718 Z-2.3484
G1 X74.6729 Y300.9450 Z-2.3652
G1 X74.5846 Y300.9096 Z-2.3820
G1 X74.5000 Y300.8660 Z-2.3988
G1 X74.4199 Y300.8146 Z-2.4155
G1 X74.3451 Y300.7557 Z-2.4323
G1 X74.2763 Y300.6901 Z-2.4491
G1 X74.2139 Y300.6182 Z-2.4659
G1 X74.1587 Y300.5406 Z-2.4827
G1 X74.1112 Y300.4582 Z-2.4994
G1 X74.0716 Y300.3717 Z-2.5162
G1 X74.0405 Y300.2817 Z-2.5330
G1 X74.0181 Y300.1893 Z-2.5498
G1 X74.0045 Y300.0951 Z-2.5666
G1 X74.0000 Y300.0000 Z-2.5833
G3 X76.0000 Y300.0000 I1.0000 J0.0000 F3500.
G3 X74.0000 Y300.0000 I-1.0000 J0.0000
G1 X72.5000 Y300.0000 Z-2.5833
G2 X77.5000 Y300.0000 I2.5000 J0.0000
G2 X72.5000 Y300.0000 I-2.5000 J0.0000
G1 X71.0000 Y300.0000 Z-2.5833
G3 X79.0000 Y300.0000 I4.0000 J0.0000
G3 X71.0000 Y300.0000 I-4.0000 J0.0000
G1 X69.5000 Y300.0000 Z-2.5833
G2 X80.5000 Y300.0000 I5.5000 J0.0000
G2 X69.5000 Y300.0000 I-5.5000 J0.0000
G1 X68.0000 Y300.0000 Z-2.5833
G3 X82.0000 Y300.0000 I7.0000 J0.0000
G3 X68.0000 Y300.0000 I-7.0000 J0.0000
G1 X66.5000 Y300.0000 Z-2.5833
G2 X83.5000 Y300.0000 I8.5000 J0.0000
G2 X66.5000 Y300.0000 I-8.5000 J0.0000
G1 X65.0000 Y300.0000 Z-2.5833
G3 X85.0000 Y300.0000 I10.0000 J0.0000
G3 X65.0000 Y300.0000 I-10.0000 J0.0000
G1 X65.5303 Y300.9186 Z-1.5227 F5000.
G1 X65.5303 Y300.9186 Z-0.9227
G1 X65.5303 Y300.9186 Z30.0000 F10000.
G1 X75.9649 Y299.7407 Z30.0000
G1 X75.9649 Y299.7407 Z-3.9667 F2500.
G1 X75.9649 Y299.7407 Z-4.5667
G1 X75.9819 Y299.8107 Z-4.5794
G1 X75.9955 Y299.9049 Z-4.5961
G1 X76.0000 Y300.0000 Z-4.6129
G1 X75.9955 Y300.0951 Z-4.6297
G1 X75.9819 Y300.1893 Z-4.6465
G1 X75.9595 Y300.2817 Z-4.6633
G1 X75.9284 Y300.3717 Z-4.6800
G1 X75.8888 Y300.4582 Z-4.6968
G1 X75.8413 Y300.5406 Z-4.7136
G1 X75.7861 Y300.6182 Z-4.7304
G1 X75.7237 Y300.6901 Z-4.7472
G1 X75.6549 Y300.7557 Z-4.7639
G1 X75.5801 Y300.8146 Z-4.7807
G1 X75.5000 Y300.8660 Z-4.7975
G1 X75.4154 Y300.9096 Z-4.8143
G1 X75.3271 Y300.9450 Z-4.8311
G1 X75.2358 Y300.9718 Z-4.8478
G1 X75.1423 Y300.9898 Z-4.8646
G1 X75.0476 Y300.9989 Z-4.8814
G1 X74.9524 Y300.9989 Z-4.8982
G1 X74.8577 Y300.9898 Z-4.9150
G1 X74.7642 Y300.9718 Z-4.9317
G1 X74.6729 Y300.9450 Z-4.9485
G1 X74.5846 Y300.9096 Z-4.9653
G1 X74.5000 Y300.8660 Z-4.9821
G1 X74.4199 Y300.8146 Z-4.9989
G1 X74.3451 Y300.7557 Z-5.0156
G1 X74.2763 Y300.6901 Z-5.0324
G1 X74.2139 Y300.6182 Z-5.0492
G1 X74.1587 Y300.5406 Z-5.0660
G1 X74.1112 Y300.4582 Z-5.0828
G1 X74.0716 Y300.3717 Z-5.0995
G1 X74.0405 Y300.2817 Z-5.1163
G1 X74.0181 Y300.1893 Z-5.1331
G1 X74.0045 Y300.0951 Z-5.1499
G1 X74.0000 Y300.0000 Z-5.1667
G3 X76.0000 Y300.0000 I1.0000 J0.0000 F3500.
G3 X74.0000 Y300.0000 I-1.0000 J0.0000
G1 X72.5000 Y300.0000 Z-5.1667
G2 X77.5000 Y300.0000 I2.5000 J0.0000
G2 X72.5000 Y300.0000 I-2.5000 J0.0000
G1 X71.0000 Y300.0000 Z-5.1667
G3 X79.0000 Y300.0000 I4.0000 J0.0000
G3 X71.0000 Y300.0000 I-4.0000 J0.0000
G1 X69.5000 Y300.0000 Z-5.1667
G2 X80.5000 Y300.0000 I5.5000 J0.0000
G2 X69.5000 Y300.0000 I-5.5000 J0.0000
G1 X68.0000 Y300.0000 Z-5.1667
G3 X82.0000 Y300.0000 I7.0000 J0.0000
G3 X68.0000 Y300.0000 I-7.0000 J0.0000
G1 X66.5000 Y300.0000 Z-5.1667
G2 X83.5000 Y300.0000 I8.5000 J0.0000
G2 X66.5000 Y300.0000 I-8.5000 J0.0000
G1 X65.0000 Y300.0000 Z-5.1667
G3 X85.0000 Y300.0000 I10.0000 J0.0000
G3 X65.0000 Y300.0000 I-10.0000 J0.0000
G1 X65.5303 Y300.9186 Z-4.1060 F5000.
G1 X65.5303 Y300.9186 Z-3.5060
G1 X65.5303 Y300.9186 Z30.0000 F10000.
G1 X75.9649 Y299.7407 Z30.0000
G1 X75.9649 Y299.7407 Z-6.5500 F2500.
G1 X75.9649 Y299.7407 Z-7.1500
G1 X75.9819 Y299.8107 Z-7.1627
G1 X75.9955 Y299.9049 Z-7.1795
G1 X76.0000 Y300.0000 Z-7.1963
G1 X75.9955 Y300.0951 Z-7.2130
G1 X75.9819 Y300.1893 Z-7.2298
G1 X75.9595 Y300.2817 Z-7.2466
G1 X75.9284 Y300.3717 Z-7.2634
G1 X75.8888 Y300.4582 Z-7.2802
G1 X75.8413 Y300.5406 Z-7.2969
G1 X75.7861 Y300.6182 Z-7.3137
G1 X75.7237 Y300.6901 Z-7.3305
G1 X75.6549 Y300.7557 Z-7.3473
G1 X75.5801 Y300.8146 Z-7.3641
G1 X75.5000 Y300.8660 Z-7.3808
G1 X75.4154 Y300.9096 Z-7.3976
G1 X75.3271 Y300.9450 Z-7.4144
G1 X75.2358 Y300.9718 Z-7.4312
G1 X75.1423 Y300.9898 Z-7.4480
G1 X75.0476 Y300.9989 Z-7.4647
G1 X74.9524 Y300.9989 Z-7.4815
G1 X74.8577 Y300.9898 Z-7.4983
G1 X74.7642 Y300.9718 Z-7.5151
G1 X74.6729 Y300.9450 Z-7.5319
G1 X74.5846 Y300.9096 Z-7.5486
G1 X74.5000 Y300.8660 Z-7.5654
G1 X74.4199 Y300.8146 Z-7.5822
G1 X74.3451 Y300.7557 Z-7.5990
G1 X74.2763 Y300.6901 Z-7.6158
G1 X74.2139 Y300.6182 Z-7.6325
G1 X74.1587 Y300.5406 Z-7.6493
G1 X74.1112 Y300.4582 Z-7.6661
G1 X74.0716 Y300.3717 Z-7.6829
G1 X74.0405 Y300.2817 Z-7.6997
G1 X74.0181 Y300.1893 Z-7.7164
G1 X74.0045 Y300.0951 Z-7.7332
G1 X74.0000 Y300.0000 Z-7.7500
G3 X76.0000 Y300.0000 I1.0000 J0.0000 F3500.
G3 X74.0000 Y300.0000 I-1.0000 J0.0000
G1 X72.5000 Y300.0000 Z-7.7500
G2 X77.5000 Y300.0000 I2.5000 J0.0000
G2 X72.5000 Y300.0000 I-2.5000 J0.0000
G1 X71.0000 Y300.0000 Z-7.7500
G3 X79.0000 Y300.0000 I4.0000 J0.0000
G3 X71.0000 Y300.0000 I-4.0000 J0.0000
G1 X69.5000 Y300.0000 Z-7.7500
G2 X80.5000 Y300.0000 I5.5000 J0.0000
G2 X69.5000 Y300.0000 I-5.5000 J0.0000
G1 X68.0000 Y300.0000 Z-7.7500
G3 X82.0000 Y300.0000 I7.0000 J0.0000
G3 X68.0000 Y300.0000 I-7.0000 J0.0000
G1 X66.5000 Y300.0000 Z-7.7500
G2 X83.5000 Y300.0000 I8.5000 J0.0000
G2 X66.5000 Y300.0000 I-8.5000 J0.0000
G1 X65.0000 Y300.0000 Z-7.7500
G3 X85.0000 Y300.0000 I10.0000 J0.0000
G3 X65.0000 Y300.0000 I-10.0000 J0.0000
G1 X65.5303 Y300.9186 Z-6.6893 F5000.
G1 X65.5303 Y300.9186 Z-6.0893
G1 X65.5303 Y300.9186 Z30.0000 F10000.
G1 X75.9649 Y299.7407 Z30.0000
G1 X75.9649 Y299.7407 Z-9.1333 F2500.
G1 X75.9649 Y299.7407 Z-9.7333
G1 X75.9819 Y299.8107 Z-9.7460
G1 X75.9955 Y299.9049 Z-9.7628
G1 X76.0000 Y300.0000 Z-9.7796
G1 X75.9955 Y300.0951 Z-9.7964
G1 X75.9819 Y300.1893 Z-9.8132
G1 X75.9595 Y300.2817 Z-9.8299
G1 X75.9284 Y300.3717 Z-9.8467
G1 X75.8888 Y300.4582 Z-9.8635
G1 X75.8413 Y300.5406 Z-9.8803
G1 X75.7861 Y300.6182 Z-9.8971
G1 X75.7237 Y300.6901 Z-9.9138
G1 X75.6549 Y300.7557 Z-9.9306
G1 X75.5801 Y300.8146 Z-9.9474
G1 X75.5000 Y300.8660 Z-9.9642
G1 X75.4154 Y300.9096 Z-9.9810
G1 X75.3271 Y300.9450 Z-9.9977
G1 X75.2358 Y300.9718 Z-10.0145
G1 X75.1423 Y300.9898 Z-10.0313
G1 X75.0476 Y300.9989 Z-10.0481
G1 X74.9524 Y300.9989 Z-10.0649
G1 X74.8577 Y300.9898 Z-10.0816
G1 X74.7642 Y300.9718 Z-10.0984
G1 X74.6729 Y300.9450 Z-10.1152
G1 X74.5846 Y300.9096 Z-10.1320
G1 X74.5000 Y300.8660 Z-10.1488
G1 X74.4199 Y300.8146 Z-10.1655
G1 X74.3451 Y300.7557 Z-10.1823
G1 X74.2763 Y300.6901 Z-10.1991
G1 X74.2139 Y300.6182 Z-10.2159
G1 X74.1587 Y300.5406 Z-10.2327
G1 X74.1112 Y300.4582 Z-10.2494
G1 X74.0716 Y300.3717 Z-10.2662
G1 X74.0405 Y300.2817 Z-10.2830
G1 X74.0181 Y300.1893 Z-10.2998
G1 X74.0045 Y300.0951 Z-10.3166
G1 X74.0000 Y300.0000 Z-10.3333
G3 X76.0000 Y300.0000 I1.0000 J0.0000 F3500.
G3 X74.0000 Y300.0000 I-1.0000 J0.0000
G1 X72.5000 Y300.0000 Z-10.3333
G2 X77.5000 Y300.0000 I2.5000 J0.0000
G2 X72.5000 Y300.0000 I-2.5000 J0.0000
G1 X71.0000 Y300.0000 Z-10.3333
G3 X79.0000 Y300.0000 I4.0000 J0.0000
G3 X71.0000 Y300.0000 I-4.0000 J0.0000
G1 X69.5000 Y300.0000 Z-10.3333
G2 X80.5000 Y300.0000 I5.5000 J0.0000
G2 X69.5000 Y300.0000 I-5.5000 J0.0000
G1 X68.0000 Y300.0000 Z-10.3333
G3 X82.0000 Y300.0000 I7.0000 J0.0000
G3 X68.0000 Y300.0000 I-7.0000 J0.0000
G1 X66.5000 Y300.0000 Z-10.3333
G2 X83.5000 Y300.0000 I8.5000 J0.0000
G2 X66.5000 Y300.0000 I-8.5000 J0.0000
G1 X65.0000 Y300.0000 Z-10.3333
G3 X85.0000 Y300.0000 I10.0000 J0.0000
G3 X65.0000 Y300.0000 I-10.0000 J0.0000
G1 X65.5303 Y300.9186 Z-9.2727 F5000.
G1 X65.5303 Y300.9186 Z-8.6727
G1 X65.5303 Y300.9186 Z30.0000 F10000.
G1 X75.9649 Y299.7407 Z30.0000
G1 X75.9649 Y299.7407 Z-11.7167 F2500.
G1 X75.9649 Y299.7407 Z-12.3167
G1 X75.9819 Y299.8107 Z-12.3294
G1 X75.9955 Y299.9049 Z-12.3461
G1 X76.0000 Y300.0000 Z-12.3629
G1 X75.9955 Y300.0951 Z-12.3797
G1 X75.9819 Y300.1893 Z-12.3965
G1 X75.9595 Y300.2817 Z-12.4133
G1 X75.9284 Y300.3717 Z-12.4300
G1 X75.8888 Y300.4582 Z-12.4468
G1 X75.8413 Y300.5406 Z-12.4636
G1 X75.7861 Y300.6182 Z-12.4804
G1 X75.7237 Y300.6901 Z-12.4972
G1 X75.6549 Y300.7557 Z-12.5139
G1 X75.5801 Y300.8146 Z-12.5307
G1 X75.5000 Y300.8660 Z-12.5475
G1 X75.4154 Y300.9096 Z-12.5643
G1 X75.3271 Y300.9450 Z-12.5811
G1 X75.2358 Y300.9718 Z-12.5978
G1 X75.1423 Y300.9898 Z-12.6146
G1 X75.0476 Y300.9989 Z-12.6314
G1 X74.9524 Y300.9989 Z-12.6482
G1 X74.8577 Y300.9898 Z-12.6650
G1 X74.7642 Y300.9718 Z-12.6817
G1 X74.6729 Y300.9450 Z-12.6985
G1 X74.5846 Y300.9096 Z-12.7153
G1 X74.5000 Y300.8660 Z-12.7321
G1 X74.4199 Y300.8146 Z-12.7489
G1 X74.3451 Y300.7557 Z-12.7656
G1 X74.2763 Y300.6901 Z-12.7824
G1 X74.2139 Y300.6182 Z-12.7992
G1 X74.1587 Y300.5406 Z-12.8160
G1 X74.1112 Y300.4582 Z-12.8328
G1 X74.0716 Y300.3717 Z-12.8495
G1 X74.0405 Y300.2817 Z-12.8663
G1 X74.0181 Y300.1893 Z-12.8831
G1 X74.0045 Y300.0951 Z-12.8999
G1 X74.0000 Y300.0000 Z-12.9167
G3 X76.0000 Y300.0000 I1.0000 J0.0000 F3500.
G3 X74.0000 Y300.0000 I-1.0000 J0.0000
G1 X72.5000 Y300.0000 Z-12.9167
G2 X77.5000 Y300.0000 I2.5000 J0.0000
G2 X72.5000 Y300.0000 I-2.5000 J0.0000
G1 X71.0000 Y300.0000 Z-12.9167
G3 X79.0000 Y300.0000 I4.0000 J0.0000
G3 X71.0000 Y300.0000 I-4.0000 J0.0000
G1 X69.5000 Y300.0000 Z-12.9167
G2 X80.5000 Y300.0000 I5.5000 J0.0000
G2 X69.5000 Y300.0000 I-5.5000 J0.0000
G1 X68.0000 Y300.0000 Z-12.9167
G3 X82.0000 Y300.0000 I7.0000 J0.0000
G3 X68.0000 Y300.0000 I-7.0000 J0.0000
G1 X66.5000 Y300.0000 Z-12.9167
G2 X83.5000 Y300.0000 I8.5000 J0.0000
G2 X66.5000 Y300.0000 I-8.5000 J0.0000
G1 X65.0000 Y300.0000 Z-12.9167
G3 X85.0000 Y300.0000 I10.0000 J0.0000
G3 X65.0000 Y300.0000 I-10.0000 J0.0000
G1 X65.5303 Y300.9186 Z-11.8560 F5000.
G1 X65.5303 Y300.9186 Z-11.2560
G1 X65.5303 Y300.9186 Z30.0000 F10000.
G1 X75.9649 Y299.7407 Z30.0000
G1 X75.9649 Y299.7407 Z-14.3000 F2500.
G1 X75.9649 Y299.7407 Z-14.9000
G1 X75.9819 Y299.8107 Z-14.9127
G1 X75.9955 Y299.9049 Z-14.9295
G1 X76.0000 Y300.0000 Z-14.9463
G1 X75.9955 Y300.0951 Z-14.9630
G1 X75.9819 Y300.1893 Z-14.9798
G1 X75.9595 Y300.2817 Z-14.9966
G1 X75.9284 Y300.3717 Z-15.0134
G1 X75.8888 Y300.4582 Z-15.0302
G1 X75.8413 Y300.5406 Z-15.0469
G1 X75.7861 Y300.6182 Z-15.0637
G1 X75.7237 Y300.6901 Z-15.0805
G1 X75.6549 Y300.7557 Z-15.0973
G1 X75.5801 Y300.8146 Z-15.1141
G1 X75.5000 Y300.8660 Z-15.1308
G1 X75.4154 Y300.9096 Z-15.1476
G1 X75.3271 Y300.9450 Z-15.1644
G1 X75.2358 Y300.9718 Z-15.1812
G1 X75.1423 Y300.9898 Z-15.1980
G1 X75.0476 Y300.9989 Z-15.2147
G1 X74.9524 Y300.9989 Z-15.2315
G1 X74.8577 Y300.9898 Z-15.2483
G1 X74.7642 Y300.9718 Z-15.2651
G1 X74.6729 Y300.9450 Z-15.2819
G1 X74.5846 Y300.9096 Z-15.2986
G1 X74.5000 Y300.8660 Z-15.3154
G1 X74.4199 Y300.8146 Z-15.3322
G1 X74.3451 Y300.7557 Z-15.3490
G1 X74.2763 Y300.6901 Z-15.3658
G1 X74.2139 Y300.6182 Z-15.3825
G1 X74.1587 Y300.5406 Z-15.3993
G1 X74.1112 Y300.4582 Z-15.4161
G1 X74.0716 Y300.3717 Z-15.4329
G1 X74.0405 Y300.2817 Z-15.4497
G1 X74.0181 Y300.1893 Z-15.4664
G1 X74.0045 Y300.0951 Z-15.4832
G1 X74.0000 Y300.0000 Z-15.5000
G3 X76.0000 Y300.0000 I1.0000 J0.0000 F3500.
G3 X74.0000 Y300.0000 I-1.0000 J0.0000
G1 X72.5000 Y300.0000 Z-15.5000
G2 X77.5000 Y300.0000 I2.5000 J0.0000
G2 X72.5000 Y300.0000 I-2.5000 J0.0000
G1 X71.0000 Y300.0000 Z-15.5000
G3 X79.0000 Y300.0000 I4.0000 J0.0000
G3 X71.0000 Y300.0000 I-4.0000 J0.0000
G1 X69.5000 Y300.0000 Z-15.5000
G2 X80.5000 Y300.0000 I5.5000 J0.0000
G2 X69.5000 Y300.0000 I-5.5000 J0.0000
G1 X68.0000 Y300.0000 Z-15.5000
G3 X82.0000 Y300.0000 I7.0000 J0.0000
G3 X68.0000 Y300.0000 I-7.0000 J0.0000
G1 X66.5000 Y300.0000 Z-15.5000
G2 X83.5000 Y300.0000 I8.5000 J0.0000
G2 X66.5000 Y300.0000 I-8.5000 J0.0000
G1 X65.0000 Y300.0000 Z-15.5000
G3 X85.0000 Y300.0000 I10.0000 J0.0000
G3 X65.0000 Y300.0000 I-10.0000 J0.0000
G1 X65.5303 Y300.9186 Z-14.4393 F5000.
G1 X65.5303 Y300.9186 Z-13.8393
G1 X65.5303 Y300.9186 Z30.0000 F10000.
G1 X62.9318 Y377.2485 Z30.0000
G1 X62.9318 Y377.2485 Z-1.3833 F2500.
G1 X62.9318 Y377.2485 Z-1.9833
G1 X62.9603 Y377.3048 Z-1.9945
G1 X62.9822 Y377.3679 Z-2.0062
G1 X62.9955 Y377.4334 Z-2.0180
G1 X63.0000 Y377.5000 Z-2.0298
G1 X62.9955 Y377.5666 Z-2.0416
G1 X62.9822 Y377.6321 Z-2.0534
G1 X62.9603 Y377.6952 Z-2.0651
G1 X62.9302 Y377.7548 Z-2.0769
G1 X62.8924 Y377.8099 Z-2.0887
G1 X62.8476 Y377.8594 Z-2.1005
G1 X62.7966 Y377.9025 Z-2.1122
G1 X62.7403 Y377.9385 Z-2.1240
G1 X62.6797 Y377.9666 Z-2.1358
G1 X62.6159 Y377.9864 Z-2.1476
G1 X62.5500 Y377.9975 Z-2.1593
G1 X62.4833 Y377.9997 Z-2.1711
G1 X62.4168 Y377.9930 Z-2.1829
G1 X62.3519 Y377.9776 Z-2.1947
G1 X62.2895 Y377.9535 Z-2.2065
G1 X62.2310 Y377.9214 Z-2.2182
G1 X62.1772 Y377.8818 Z-2.2300
G1 X62.1292 Y377.8354 Z-2.2418
G1 X62.0878 Y377.7830 Z-2.2536
G1 X62.0537 Y377.7255 Z-2.2653
G1 X62.0277 Y377.6640 Z-2.2771
G1 X62.0100 Y377.5996 Z-2.2889
G1 X62.0011 Y377.5334 Z-2.3007
G1 X62.0011 Y377.4666 Z-2.3125
G1 X62.0100 Y377.4004 Z-2.3242
G1 X62.0277 Y377.3360 Z-2.3360
G1 X62.0537 Y377.2745 Z-2.3478
G1 X62.0878 Y377.2170 Z-2.3596
G1 X62.1292 Y377.1646 Z-2.3713
G1 X62.1772 Y377.1182 Z-2.3831
G1 X62.2310 Y377.0786 Z-2.3949
G1 X62.2895 Y377.0465 Z-2.4067
G1 X62.3519 Y377.0224 Z-2.4185
G1 X62.4168 Y377.0070 Z-2.4302
G1 X62.4833 Y377.0003 Z-2.4420
G1 X62.5500 Y377.0025 Z-2.4538
G1 X62.6159 Y377.0136 Z-2.4656
G1 X62.6797 Y377.0334 Z-2.4773
G1 X62.7403 Y377.0615 Z-2.4891
G1 X62.7966 Y377.0975 Z-2.5009
G1 X62.8476 Y377.1406 Z-2.5127
G1 X62.8924 Y377.1901 Z-2.5244
G1 X62.9302 Y377.2452 Z-2.5362
G1 X62.9603 Y377.3048 Z-2.5480
G1 X62.9822 Y377.3679 Z-2.5598
G1 X62.9955 Y377.4334 Z-2.5716
G1 X63.0000 Y377.5000 Z-2.5833
G3 X62.0000 Y377.5000 I-0.5000 J0.0000 F3500.
G3 X63.0000 Y377.5000 I0.5000 J0.0000
G1 X63.0000 Y377.5000 Z-1.9833 F5000.
G1 X63.0000 Y377.5000 Z30.0000 F10000.
G1 X62.9318 Y377.2485 Z30.0000
G1 X62.9318 Y377.2485 Z-3.9667 F2500.
G1 X62.9318 Y377.2485 Z-4.5667
G1 X62.9603 Y377.3048 Z-4.5778
G1 X62.9822 Y377.3679 Z-4.5896
G1 X62.9955 Y377.4334 Z-4.6014
G1 X63.0000 Y377.5000 Z-4.6131
G1 X62.9955 Y377.5666 Z-4.6249
G1 X62.9822 Y377.6321 Z-4.6367
G1 X62.9603 Y377.6952 Z-4.6485
G1 X62.9302 Y377.7548 Z-4.6602
G1 X62.8924 Y377.8099 Z-4.6720
G1 X62.8476 Y377.8594 Z-4.6838
G1 X62.7966 Y377.9025 Z-4.6956
G1 X62.7403 Y377.9385 Z-4.7074
G1 X62.6797 Y377.9666 Z-4.7191
G1 X62.6159 Y377.9864 Z-4.7309
G1 X62.5500 Y377.9975 Z-4.7427
G1 X62.4833 Y377.9997 Z-4.7545
G1 X62.4168 Y377.9930 Z-4.7662
G1 X62.3519 Y377.9776 Z-4.7780
G1 X62.2895 Y377.9535 Z-4.7898
G1 X62.2310 Y377.9214 Z-4.8016
G1 X62.1772 Y377.8818 Z-4.8133
G1 X62.1292 Y377.8354 Z-4.8251
G1 X62.0878 Y377.7830 Z-4.8369
G1 X62.0537 Y377.7255 Z-4.8487
G1 X62.0277 Y377.6640 Z-4.8605
G1 X62.0100 Y377.5996 Z-4.8722
G1 X62.0011 Y377.5334 Z-4.8840
G1 X62.0011 Y377.4666 Z-4.8958
G1 X62.0100 Y377.4004 Z-4.9076
G1 X62.0277 Y377.3360 Z-4.9193
G1 X62.0537 Y377.2745 Z-4.9311
G1 X62.0878 Y377.2170 Z-4.9429
G1 X62.1292 Y377.1646 Z-4.9547
G1 X62.1772 Y377.1182 Z-4.9665
G1 X62.2310 Y377.0786 Z-4.9782
G1 X62.2895 Y377.0465 Z-4.9900
G1 X62.3519 Y377.0224 Z-5.0018
G1 X62.4168 Y377.0070 Z-5.0136
G1 X62.4833 Y377.0003 Z-5.0253
G1 X62.5500 Y377.0025 Z-5.0371
G1 X62.6159 Y377.0136 Z-5.0489
G1 X62.6797 Y377.0334 Z-5.0607
G1 X62.7403 Y377.0615 Z-5.0724
G1 X62.7966 Y377.0975 Z-5.0842
G1 X62.8476 Y377.1406 Z-5.0960
G1 X62.8924 Y377.1901 Z-5.1078
G1 X62.9302 Y377.2452 Z-5.1196
G1 X62.9603 Y377.3048 Z-5.1313
G1 X62.9822 Y377.3679 Z-5.1431
G1 X62.9955 Y377.4334 Z-5.1549
G1 X63.0000 Y377.5000 Z-5.1667
G3 X62.0000 Y377.5000 I-0.5000 J0.0000 F3500.
G3 X63.0000 Y377.5000 I0.5000 J0.0000
G1 X63.0000 Y377.5000 Z-4.5667 F5000.
G1 X63.0000 Y377.5000 Z30.0000 F10000.
G1 X62.9318 Y377.2485 Z30.0000
G1 X62.9318 Y377.2485 Z-6.5500 F2500.
G1 X62.9318 Y377.2485 Z-7.1500
G1 X62.9603 Y377.3048 Z-7.1611
G1 X62.9822 Y377.3679 Z-7.1729
G1 X62.9955 Y377.4334 Z-7.1847
G1 X63.0000 Y377.5000 Z-7.1965
G1 X62.9955 Y377.5666 Z-7.2082
G1 X62.9822 Y377.6321 Z-7.2200
G1 X62.9603 Y377.6952 Z-7.2318
G1 X62.9302 Y377.7548 Z-7.2436
G1 X62.8924 Y377.8099 Z-7.2554
G1 X62.8476 Y377.8594 Z-7.2671
G1 X62.7966 Y377.9025 Z-7.2789
G1 X62.7403 Y377.9385 Z-7.2907
G1 X62.6797 Y377.9666 Z-7.3025
G1 X62.6159 Y377.9864 Z-7.3142
G1 X62.5500 Y377.9975 Z-7.3260
G1 X62.4833 Y377.9997 Z-7.3378
G1 X62.4168 Y377.9930 Z-7.3496
G1 X62.3519 Y377.9776 Z-7.3613
G1 X62.2895 Y377.9535 Z-7.3731
G1 X62.2310 Y377.9214 Z-7.3849
G1 X62.1772 Y377.8818 Z-7.3967
G1 X62.1292 Y377.8354 Z-7.4085
G1 X62.0878 Y377.7830 Z-7.4202
G1 X62.0537 Y377.7255 Z-7.4320
G1 X62.0277 Y377.6640 Z-7.4438
G1 X62.0100 Y377.5996 Z-7.4556
G1 X62.0011 Y377.5334 Z-7.4673
G1 X62.0011 Y377.4666 Z-7.4791
G1 X62.0100 Y377.4004 Z-7.4909
G1 X62.0277 Y377.3360 Z-7.5027
G1 X62.0537 Y377.2745 Z-7.5145
G1 X62.0878 Y377.2170 Z-7.5262
G1 X62.1292 Y377.1646 Z-7.5380
G1 X62.1772 Y377.1182 Z-7.5498
G1 X62.2310 Y377.0786 Z-7.5616
G1 X62.2895 Y377.0465 Z-7.5733
G1 X62.3519 Y377.0224 Z-7.5851
G1 X62.4168 Y377.0070 Z-7.5969
G1 X62.4833 Y377.0003 Z-7.6087
G1 X62.5500 Y377.0025 Z-7.6204
G1 X62.6159 Y377.0136 Z-7.6322
G1 X62.6797 Y377.0334 Z-7.6440
G1 X62.7403 Y377.0615 Z-7.6558
G1 X62.7966 Y377.0975 Z-7.6676
G1 X62.8476 Y377.1406 Z-7.6793
G1 X62.8924 Y377.1901 Z-7.6911
G1 X62.9302 Y377.2452 Z-7.7029
G1 X62.9603 Y377.3048 Z-7.7147
G1 X62.9822 Y377.3679 Z-7.7264
G1 X62.9955 Y377.4334 Z-7.7382
G1 X63.0000 Y377.5000 Z-7.7500
G3 X62.0000 Y377.5000 I-0.5000 J0.0000 F3500.
G3 X63.0000 Y377.5000 I0.5000 J0.0000
G1 X63.0000 Y377.5000 Z-7.1500 F5000.
G1 X63.0000 Y377.5000 Z30.0000 F10000.
G1 X62.9318 Y377.2485 Z30.0000
G1 X62.9318 Y377.2485 Z-9.1333 F2500.
G1 X62.9318 Y377.2485 Z-9.7333
G1 X62.9603 Y377.3048 Z-9.7445
G1 X62.9822 Y377.3679 Z-9.7562
G1 X62.9955 Y377.4334 Z-9.7680
G1 X63.0000 Y377.5000 Z-9.7798
G1 X62.9955 Y377.5666 Z-9.7916
G1 X62.9822 Y377.6321 Z-9.8034
G1 X62.9603 Y377.6952 Z-9.8151
G1 X62.9302 Y377.7548 Z-9.8269
G1 X62.8924 Y377.8099 Z-9.8387
G1 X62.8476 Y377.8594 Z-9.8505
G1 X62.7966 Y377.9025 Z-9.8622
G1 X62.7403 Y377.9385 Z-9.8740
G1 X62.6797 Y377.9666 Z-9.8858
G1 X62.6159 Y377.9864 Z-9.8976
G1 X62.5500 Y377.9975 Z-9.9093
G1 X62.4833 Y377.9997 Z-9.9211
G1 X62.4168 Y377.9930 Z-9.9329
G1 X62.3519 Y377.9776 Z-9.9447
G1 X62.2895 Y377.9535 Z-9.9565
G1 X62.2310 Y377.9214 Z-9.9682
G1 X62.1772 Y377.8818 Z-9.9800
G1 X62.1292 Y377.8354 Z-9.9918
G1 X62.0878 Y377.7830 Z-10.0036
G1 X62.0537 Y377.7255 Z-10.0153
G1 X62.0277 Y377.6640 Z-10.0271
G1 X62.0100 Y377.5996 Z-10.0389
G1 X62.0011 Y377.5334 Z-10.0507
G1 X62.0011 Y377.4666 Z-10.0625
G1 X62.0100 Y377.4004 Z-10.0742
G1 X62.0277 Y377.3360 Z-10.0860
G1 X62.0537 Y377.2745 Z-10.0978
G1 X62.0878 Y377.2170 Z-10.1096
G1 X62.1292 Y377.1646 Z-10.1213
G1 X62.1772 Y377.1182 Z-10.1331
G1 X62.2310 Y377.0786 Z-10.1449
G1 X62.2895 Y377.0465 Z-10.1567
G1 X62.3519 Y377.0224 Z-10.1685
G1 X62.4168 Y377.0070 Z-10.1802
G1 X62.4833 Y377.0003 Z-10.1920
G1 X62.5500 Y377.0025 Z-10.2038
G1 X62.6159 Y377.0136 Z-10.2156
G1 X62.6797 Y377.0334 Z-10.2273
G1 X62.7403 Y377.0615 Z-10.2391
G1 X62.7966 Y377.0975 Z-10.2509
G1 X62.8476 Y377.1406 Z-10.2627
G1 X62.8924 Y377.1901 Z-10.2744
G1 X62.9302 Y377.2452 Z-10.2862
G1 X62.9603 Y377.3048 Z-10.2980
G1 X62.9822 Y377.3679 Z-10.3098
G1 X62.9955 Y377.4334 Z-10.3216
G1 X63.0000 Y377.5000 Z-10.3333
G3 X62.0000 Y377.5000 I-0.5000 J0.0000 F3500.
G3 X63.0000 Y377.5000 I0.5000 J0.0000
G1 X63.0000 Y377.5000 Z-9.7333 F5000.
G1 X63.0000 Y377.5000 Z30.0000 F10000.
G1 X62.9318 Y377.2485 Z30.0000
G1 X62.9318 Y377.2485 Z-11.7167 F2500.
G1 X62.9318 Y377.2485 Z-12.3167
G1 X62.9603 Y377.3048 Z-12.3278
G1 X62.9822 Y377.3679 Z-12.3396
G1 X62.9955 Y377.4334 Z-12.3514
G1 X63.0000 Y377.5000 Z-12.3631
G1 X62.9955 Y377.5666 Z-12.3749
G1 X62.9822 Y377.6321 Z-12.3867
G1 X62.9603 Y377.6952 Z-12.3985
G1 X62.9302 Y377.7548 Z-12.4102
G1 X62.8924 Y377.8099 Z-12.4220
G1 X62.8476 Y377.8594 Z-12.4338
G1 X62.7966 Y377.9025 Z-12.4456
G1 X62.7403 Y377.9385 Z-12.4574
G1 X62.6797 Y377.9666 Z-12.4691
G1 X62.6159 Y377.9864 Z-12.4809
G1 X62.5500 Y377.9975 Z-12.4927
G1 X62.4833 Y377.9997 Z-12.5045
G1 X62.4168 Y377.9930 Z-12.5162
G1 X62.3519 Y377.9776 Z-12.5280
G1 X62.2895 Y377.9535 Z-12.5398
G1 X62.2310 Y377.9214 Z-12.5516
G1 X62.1772 Y377.8818 Z-12.5633
G1 X62.1292 Y377.8354 Z-12.5751
G1 X62.0878 Y377.7830 Z-12.5869
G1 X62.0537 Y377.7255 Z-12.5987
G1 X62.0277 Y377.6640 Z-12.6105
G1 X62.0100 Y377.5996 Z-12.6222
G1 X62.0011 Y377.5334 Z-12.6340
G1 X62.0011 Y377.4666 Z-12.6458
G1 X62.0100 Y377.4004 Z-12.6576
G1 X62.0277 Y377.3360 Z-12.6693
G1 X62.0537 Y377.2745 Z-12.6811
G1 X62.0878 Y377.2170 Z-12.6929
G1 X62.1292 Y377.1646 Z-12.7047
G1 X62.1772 Y377.1182 Z-12.7165
G1 X62.2310 Y377.0786 Z-12.7282
G1 X62.2895 Y377.0465 Z-12.7400
G1 X62.3519 Y377.0224 Z-12.7518
G1 X62.4168 Y377.0070 Z-12.7636
G1 X62.4833 Y377.0003 Z-12.7753
G1 X62.5500 Y377.0025 Z-12.7871
G1 X62.6159 Y377.0136 Z-12.7989
G1 X62.6797 Y377.0334 Z-12.8107
G1 X62.7403 Y377.0615 Z-12.8224
G1 X62.7966 Y377.0975 Z-12.8342
G1 X62.8476 Y377.1406 Z-12.8460
G1 X62.8924 Y377.1901 Z-12.8578
G1 X62.9302 Y377.2452 Z-12.8696
G1 X62.9603 Y377.3048 Z-12.8813
G1 X62.9822 Y377.3679 Z-12.8931
G1 X62.9955 Y377.4334 Z-12.9049
G1 X63.0000 Y377.5000 Z-12.9167
G3 X62.0000 Y377.5000 I-0.5000 J0.0000 F3500.
G3 X63.0000 Y377.5000 I0.5000 J0.0000
G1 X63.0000 Y377.5000 Z-12.3167 F5000.
G1 X63.0000 Y377.5000 Z30.0000 F10000.
G1 X62.9318 Y377.2485 Z30.0000
G1 X62.9318 Y377.2485 Z-14.3000 F2500.
G1 X62.9318 Y377.2485 Z-14.9000
G1 X62.9603 Y377.3048 Z-14.9111
G1 X62.9822 Y377.3679 Z-14.9229
G1 X62.9955 Y377.4334 Z-14.9347
G1 X63.0000 Y377.5000 Z-14.9465
G1 X62.9955 Y377.5666 Z-14.9582
G1 X62.9822 Y377.6321 Z-14.9700
G1 X62.9603 Y377.6952 Z-14.9818
G1 X62.9302 Y377.7548 Z-14.9936
G1 X62.8924 Y377.8099 Z-15.0054
G1 X62.8476 Y377.8594 Z-15.0171
G1 X62.7966 Y377.9025 Z-15.0289
G1 X62.7403 Y377.9385 Z-15.0407
G1 X62.6797 Y377.9666 Z-15.0525
G1 X62.6159 Y377.9864 Z-15.0642
G1 X62.5500 Y377.9975 Z-15.0760
G1 X62.4833 Y377.9997 Z-15.0878
G1 X62.4168 Y377.9930 Z-15.0996
G1 X62.3519 Y377.9776 Z-15.1113
G1 X62.2895 Y377.9535 Z-15.1231
G1 X62.2310 Y377.9214 Z-15.1349
G1 X62.1772 Y377.8818 Z-15.1467
G1 X62.1292 Y377.8354 Z-15.1585
G1 X62.0878 Y377.7830 Z-15.1702
G1 X62.0537 Y377.7255 Z-15.1820
G1 X62.0277 Y377.6640 Z-15.1938
G1 X62.0100 Y377.5996 Z-15.2056
G1 X62.0011 Y377.5334 Z-15.2173
G1 X62.0011 Y377.4666 Z-15.2291
G1 X62.0100 Y377.4004 Z-15.2409
G1 X62.0277 Y377.3360 Z-15.2527
G1 X62.0537 Y377.2745 Z-15.2645
G1 X62.0878 Y377.2170 Z-15.2762
G1 X62.1292 Y377.1646 Z-15.2880
G1 X62.1772 Y377.1182 Z-15.2998
G1 X62.2310 Y377.0786 Z-15.3116
G1 X62.2895 Y377.0465 Z-15.3233
G1 X62.3519 Y377.0224 Z-15.3351
G1 X62.4168 Y377.0070 Z-15.3469
G1 X62.4833 Y377.0003 Z-15.3587
G1 X62.5500 Y377.0025 Z-15.3704
G1 X62.6159 Y377.0136 Z-15.3822
G1 X62.6797 Y377.0334 Z-15.3940
G1 X62.7403 Y377.0615 Z-15.4058
G1 X62.7966 Y377.0975 Z-15.4176
G1 X62.8476 Y377.1406 Z-15.4293
G1 X62.8924 Y377.1901 Z-15.4411
G1 X62.9302 Y377.2452 Z-15.4529
G1 X62.9603 Y377.3048 Z-15.4647
G1 X62.9822 Y377.3679 Z-15.4764
G1 X62.9955 Y377.4334 Z-15.4882
G1 X63.0000 Y377.5000 Z-15.5000
G3 X62.0000 Y377.5000 I-0.5000 J0.0000 F3500.
G3 X63.0000 Y377.5000 I0.5000 J0.0000
G1 X63.0000 Y377.5000 Z-14.9000 F5000.
G1 X63.0000 Y377.5000 Z30.0000 F10000.
G1 X107.9318 Y377.2485 Z30.0000
G1 X107.9318 Y377.2485 Z-1.3833 F2500.
G1 X107.9318 Y377.2485 Z-1.9833
G1 X107.9603 Y377.3048 Z-1.9945
G1 X107.9822 Y377.3679 Z-2.0062
G1 X107.9955 Y377.4334 Z-2.0180
G1 X108.0000 Y377.5000 Z-2.0298
G1 X107.9955 Y377.5666 Z-2.0416
G1 X107.9822 Y377.6321 Z-2.0534
G1 X107.9603 Y377.6952 Z-2.0651
G1 X107.9302 Y377.7548 Z-2.0769
G1 X107.8924 Y377.8099 Z-2.0887
G1 X107.8476 Y377.8594 Z-2.1005
G1 X107.7966 Y377.9025 Z-2.1122
G1 X107.7403 Y377.9385 Z-2.1240
G1 X107.6797 Y377.9666 Z-2.1358
G1 X107.6159 Y377.9864 Z-2.1476
G1 X107.5500 Y377.9975 Z-2.1593
G1 X107.4833 Y377.9997 Z-2.1711
G1 X107.4168 Y377.9930 Z-2.1829
G1 X107.3519 Y377.9776 Z-2.1947
G1 X107.2895 Y377.9535 Z-2.2065
G1 X107.2310 Y377.9214 Z-2.2182
G1 X107.1772 Y377.8818 Z-2.2300
G1 X107.1292 Y377.8354 Z-2.2418
G1 X107.0878 Y377.7830 Z-2.2536
G1 X107.0537 Y377.7255 Z-2.2653
G1 X107.0277 Y377.6640 Z-2.2771
G1 X107.0100 Y377.5996 Z-2.2889
G1 X107.0011 Y377.5334 Z-2.3007
G1 X107.0011 Y377.4666 Z-2.3125
G1 X107.0100 Y377.4004 Z-2.3242
G1 X107.0277 Y377.3360 Z-2.3360
G1 X107.0537 Y377.2745 Z-2.3478
G1 X107.0878 Y377.2170 Z-2.3596
G1 X107.1292 Y377.1646 Z-2.3713
G1 X107.1772 Y377.1182 Z-2.3831
G1 X107.2310 Y377.0786 Z-2.3949
G1 X107.2895 Y377.0465 Z-2.4067
G1 X107.3519 Y377.0224 Z-2.4185
G1 X107.4168 Y377.0070 Z-2.4302
G1 X107.4833 Y377.0003 Z-2.4420
G1 X107.5500 Y377.0025 Z-2.4538
G1 X107.6159 Y377.0136 Z-2.4656
G1 X107.6797 Y377.0334 Z-2.4773
G1 X107.7403 Y377.0615 Z-2.4891
G1 X107.7966 Y377.0975 Z-2.5009
G1 X107.8476 Y377.1406 Z-2.5127
G1 X107.8924 Y377.1901 Z-2.5244
G1 X107.9302 Y377.2452 Z-2.5362
G1 X107.9603 Y377.3048 Z-2.5480
G1 X107.9822 Y377.3679 Z-2.5598
G1 X107.9955 Y377.4334 Z-2.5716
G1 X108.0000 Y377.5000 Z-2.5833
G3 X107.0000 Y377.5000 I-0.5000 J0.0000 F3500.
G3 X108.0000 Y377.5000 I0.5000 J0.0000
G1 X108.0000 Y377.5000 Z-1.9833 F5000.
G1 X108.0000 Y377.5000 Z30.0000 F10000.
G1 X107.9318 Y377.2485 Z30.0000
G1 X107.9318 Y377.2485 Z-3.9667 F2500.
G1 X107.9318 Y377.2485 Z-4.5667
G1 X107.9603 Y377.3048 Z-4.5778
G1 X107.9822 Y377.3679 Z-4.5896
G1 X107.9955 Y377.4334 Z-4.6014
G1 X108.0000 Y377.5000 Z-4.6131
G1 X107.9955 Y377.5666 Z-4.6249
G1 X107.9822 Y377.6321 Z-4.6367
G1 X107.9603 Y377.6952 Z-4.6485
G1 X107.9302 Y377.7548 Z-4.6602
G1 X107.8924 Y377.8099 Z-4.6720
G1 X107.8476 Y377.8594 Z-4.6838
G1 X107.7966 Y377.9025 Z-4.6956
G1 X107.7403 Y377.9385 Z-4.7074
G1 X107.6797 Y377.9666 Z-4.7191
G1 X107.6159 Y377.9864 Z-4.7309
G1 X107.5500 Y377.9975 Z-4.7427
G1 X107.4833 Y377.9997 Z-4.7545
G1 X107.4168 Y377.9930 Z-4.7662
G1 X107.3519 Y377.9776 Z-4.7780
G1 X107.2895 Y377.9535 Z-4.7898
G1 X107.2310 Y377.9214 Z-4.8016
G1 X107.1772 Y377.8818 Z-4.8133
G1 X107.1292 Y377.8354 Z-4.8251
G1 X107.0878 Y377.7830 Z-4.8369
G1 X107.0537 Y377.7255 Z-4.8487
G1 X107.0277 Y377.6640 Z-4.8605
G1 X107.0100 Y377.5996 Z-4.8722
G1 X107.0011 Y377.5334 Z-4.8840
G1 X107.0011 Y377.4666 Z-4.8958
G1 X107.0100 Y377.4004 Z-4.9076
G1 X107.0277 Y377.3360 Z-4.9193
G1 X107.0537 Y377.2745 Z-4.9311
G1 X107.0878 Y377.2170 Z-4.9429
G1 X107.1292 Y377.1646 Z-4.9547
G1 X107.1772 Y377.1182 Z-4.9665
G1 X107.2310 Y377.0786 Z-4.9782
G1 X107.2895 Y377.0465 Z-4.9900
G1 X107.3519 Y377.0224 Z-5.0018
G1 X107.4168 Y377.0070 Z-5.0136
G1 X107.4833 Y377.0003 Z-5.0253
G1 X107.5500 Y377.0025 Z-5.0371
G1 X107.6159 Y377.0136 Z-5.0489
G1 X107.6797 Y377.0334 Z-5.0607
G1 X107.7403 Y377.0615 Z-5.0724
G1 X107.7966 Y377.0975 Z-5.0842
G1 X107.8476 Y377.1406 Z-5.0960
G1 X107.8924 Y377.1901 Z-5.1078
G1 X107.9302 Y377.2452 Z-5.1196
G1 X107.9603 Y377.3048 Z-5.1313
G1 X107.9822 Y377.3679 Z-5.1431
G1 X107.9955 Y377.4334 Z-5.1549
G1 X108.0000 Y377.5000 Z-5.1667
G3 X107.0000 Y377.5000 I-0.5000 J0.0000 F3500.
G3 X108.0000 Y377.5000 I0.5000 J0.0000
G1 X108.0000 Y377.5000 Z-4.5667 F5000.
G1 X108.0000 Y377.5000 Z30.0000 F10000.
G1 X107.9318 Y377.2485 Z30.0000
G1 X107.9318 Y377.2485 Z-6.5500 F2500.
G1 X107.9318 Y377.2485 Z-7.1500
G1 X107.9603 Y377.3048 Z-7.1611
G1 X107.9822 Y377.3679 Z-7.1729
G1 X107.9955 Y377.4334 Z-7.1847
G1 X108.0000 Y377.5000 Z-7.1965
G1 X107.9955 Y377.5666 Z-7.2082
G1 X107.9822 Y377.6321 Z-7.2200
G1 X107.9603 Y377.6952 Z-7.2318
G1 X107.9302 Y377.7548 Z-7.2436
G1 X107.8924 Y377.8099 Z-7.2554
G1 X107.8476 Y377.8594 Z-7.2671
G1 X107.7966 Y377.9025 Z-7.2789
G1 X107.7403 Y377.9385 Z-7.2907
G1 X107.6797 Y377.9666 Z-7.3025
G1 X107.6159 Y377.9864 Z-7.3142
G1 X107.5500 Y377.9975 Z-7.3260
G1 X107.4833 Y377.9997 Z-7.3378
G1 X107.4168 Y377.9930 Z-7.3496
G1 X107.3519 Y377.9776 Z-7.3613
G1 X107.2895 Y377.9535 Z-7.3731
G1 X107.2310 Y377.9214 Z-7.3849
G1 X107.1772 Y377.8818 Z-7.3967
G1 X107.1292 Y377.8354 Z-7.4085
G1 X107.0878 Y377.7830 Z-7.4202
G1 X107.0537 Y377.7255 Z-7.4320
G1 X107.0277 Y377.6640 Z-7.4438
G1 X107.0100 Y377.5996 Z-7.4556
G1 X107.0011 Y377.5334 Z-7.4673
G1 X107.0011 Y377.4666 Z-7.4791
G1 X107.0100 Y377.4004 Z-7.4909
G1 X107.0277 Y377.3360 Z-7.5027
G1 X107.0537 Y377.2745 Z-7.5145
G1 X107.0878 Y377.2170 Z-7.5262
G1 X107.1292 Y377.1646 Z-7.5380
G1 X107.1772 Y377.1182 Z-7.5498
G1 X107.2310 Y377.0786 Z-7.5616
G1 X107.2895 Y377.0465 Z-7.5733
G1 X107.3519 Y377.0224 Z-7.5851
G1 X107.4168 Y377.0070 Z-7.5969
G1 X107.4833 Y377.0003 Z-7.6087
G1 X107.5500 Y377.0025 Z-7.6204
G1 X107.6159 Y377.0136 Z-7.6322
G1 X107.6797 Y377.0334 Z-7.6440
G1 X107.7403 Y377.0615 Z-7.6558
G1 X107.7966 Y377.0975 Z-7.6676
G1 X107.8476 Y377.1406 Z-7.6793
G1 X107.8924 Y377.1901 Z-7.6911
G1 X107.9302 Y377.2452 Z-7.7029
G1 X107.9603 Y377.3048 Z-7.7147
G1 X107.9822 Y377.3679 Z-7.7264
G1 X107.9955 Y377.4334 Z-7.7382
G1 X108.0000 Y377.5000 Z-7.7500
G3 X107.0000 Y377.5000 I-0.5000 J0.0000 F3500.
G3 X108.0000 Y377.5000 I0.5000 J0.0000
G1 X108.0000 Y377.5000 Z-7.1500 F5000.
G1 X108.0000 Y377.5000 Z30.0000 F10000.
G1 X107.9318 Y377.2485 Z30.0000
G1 X107.9318 Y377.2485 Z-9.1333 F2500.
G1 X107.9318 Y377.2485 Z-9.7333
G1 X107.9603 Y377.3048 Z-9.7445
G1 X107.9822 Y377.3679 Z-9.7562
G1 X107.9955 Y377.4334 Z-9.7680
G1 X108.0000 Y377.5000 Z-9.7798
G1 X107.9955 Y377.5666 Z-9.7916
G1 X107.9822 Y377.6321 Z-9.8034
G1 X107.9603 Y377.6952 Z-9.8151
G1 X107.9302 Y377.7548 Z-9.8269
G1 X107.8924 Y377.8099 Z-9.8387
G1 X107.8476 Y377.8594 Z-9.8505
G1 X107.7966 Y377.9025 Z-9.8622
G1 X107.7403 Y377.9385 Z-9.8740
G1 X107.6797 Y377.9666 Z-9.8858
G1 X107.6159 Y377.9864 Z-9.8976
G1 X107.5500 Y377.9975 Z-9.9093
G1 X107.4833 Y377.9997 Z-9.9211
G1 X107.4168 Y377.9930 Z-9.9329
G1 X107.3519 Y377.9776 Z-9.9447
G1 X107.2895 Y377.9535 Z-9.9565
G1 X107.2310 Y377.9214 Z-9.9682
G1 X107.1772 Y377.8818 Z-9.9800
G1 X107.1292 Y377.8354 Z-9.9918
G1 X107.0878 Y377.7830 Z-10.0036
G1 X107.0537 Y377.7255 Z-10.0153
G1 X107.0277 Y377.6640 Z-10.0271
G1 X107.0100 Y377.5996 Z-10.0389
G1 X107.0011 Y377.5334 Z-10.0507
G1 X107.0011 Y377.4666 Z-10.0625
G1 X107.0100 Y377.4004 Z-10.0742
G1 X107.0277 Y377.3360 Z-10.0860
G1 X107.0537 Y377.2745 Z-10.0978
G1 X107.0878 Y377.2170 Z-10.1096
G1 X107.1292 Y377.1646 Z-10.1213
G1 X107.1772 Y377.1182 Z-10.1331
G1 X107.2310 Y377.0786 Z-10.1449
G1 X107.2895 Y377.0465 Z-10.1567
G1 X107.3519 Y377.0224 Z-10.1685
G1 X107.4168 Y377.0070 Z-10.1802
G1 X107.4833 Y377.0003 Z-10.1920
G1 X107.5500 Y377.0025 Z-10.2038
G1 X107.6159 Y377.0136 Z-10.2156
G1 X107.6797 Y377.0334 Z-10.2273
G1 X107.7403 Y377.0615 Z-10.2391
G1 X107.7966 Y377.0975 Z-10.2509
G1 X107.8476 Y377.1406 Z-10.2627
G1 X107.8924 Y377.1901 Z-10.2744
G1 X107.9302 Y377.2452 Z-10.2862
G1 X107.9603 Y377.3048 Z-10.2980
G1 X107.9822 Y377.3679 Z-10.3098
G1 X107.9955 Y377.4334 Z-10.3216
G1 X108.0000 Y377.5000 Z-10.3333
G3 X107.0000 Y377.5000 I-0.5000 J0.0000 F3500.
G3 X108.0000 Y377.5000 I0.5000 J0.0000
G1 X108.0000 Y377.5000 Z-9.7333 F5000.
G1 X108.0000 Y377.5000 Z30.0000 F10000.
G1 X107.9318 Y377.2485 Z30.0000
G1 X107.9318 Y377.2485 Z-11.7167 F2500.
G1 X107.9318 Y377.2485 Z-12.3167
G1 X107.9603 Y377.3048 Z-12.3278
G1 X107.9822 Y377.3679 Z-12.3396
G1 X107.9955 Y377.4334 Z-12.3514
G1 X108.0000 Y377.5000 Z-12.3631
G1 X107.9955 Y377.5666 Z-12.3749
G1 X107.9822 Y377.6321 Z-12.3867
G1 X107.9603 Y377.6952 Z-12.3985
G1 X107.9302 Y377.7548 Z-12.4102
G1 X107.8924 Y377.8099 Z-12.4220
G1 X107.8476 Y377.8594 Z-12.4338
G1 X107.7966 Y377.9025 Z-12.4456
G1 X107.7403 Y377.9385 Z-12.4574
G1 X107.6797 Y377.9666 Z-12.4691
G1 X107.6159 Y377.9864 Z-12.4809
G1 X107.5500 Y377.9975 Z-12.4927
G1 X107.4833 Y377.9997 Z-12.5045
G1 X107.4168 Y377.9930 Z-12.5162
G1 X107.3519 Y377.9776 Z-12.5280
G1 X107.2895 Y377.9535 Z-12.5398
G1 X107.2310 Y377.9214 Z-12.5516
G1 X107.1772 Y377.8818 Z-12.5633
G1 X107.1292 Y377.8354 Z-12.5751
G1 X107.0878 Y377.7830 Z-12.5869
G1 X107.0537 Y377.7255 Z-12.5987
G1 X107.0277 Y377.6640 Z-12.6105
G1 X107.0100 Y377.5996 Z-12.6222
G1 X107.0011 Y377.5334 Z-12.6340
G1 X107.0011 Y377.4666 Z-12.6458
G1 X107.0100 Y377.4004 Z-12.6576
G1 X107.0277 Y377.3360 Z-12.6693
G1 X107.0537 Y377.2745 Z-12.6811
G1 X107.0878 Y377.2170 Z-12.6929
G1 X107.1292 Y377.1646 Z-12.7047
G1 X107.1772 Y377.1182 Z-12.7165
G1 X107.2310 Y377.0786 Z-12.7282
G1 X107.2895 Y377.0465 Z-12.7400
G1 X107.3519 Y377.0224 Z-12.7518
G1 X107.4168 Y377.0070 Z-12.7636
G1 X107.4833 Y377.0003 Z-12.7753
G1 X107.5500 Y377.0025 Z-12.7871
G1 X107.6159 Y377.0136 Z-12.7989
G1 X107.6797 Y377.0334 Z-12.8107
G1 X107.7403 Y377.0615 Z-12.8224
G1 X107.7966 Y377.0975 Z-12.8342
G1 X107.8476 Y377.1406 Z-12.8460
G1 X107.8924 Y377.1901 Z-12.8578
G1 X107.9302 Y377.2452 Z-12.8696
G1 X107.9603 Y377.3048 Z-12.8813
G1 X107.9822 Y377.3679 Z-12.8931
G1 X107.9955 Y377.4334 Z-12.9049
G1 X108.0000 Y377.5000 Z-12.9167
G3 X107.0000 Y377.5000 I-0.5000 J0.0000 F3500.
G3 X108.0000 Y377.5000 I0.5000 J0.0000
G1 X108.0000 Y377.5000 Z-12.3167 F5000.
G1 X108.0000 Y377.5000 Z30.0000 F10000.
G1 X107.9318 Y377.2485 Z30.0000
G1 X107.9318 Y377.2485 Z-14.3000 F2500.
G1 X107.9318 Y377.2485 Z-14.9000
G1 X107.9603 Y377.3048 Z-14.9111
G1 X107.9822 Y377.3679 Z-14.9229
G1 X107.9955 Y377.4334 Z-14.9347
G1 X108.0000 Y377.5000 Z-14.9465
G1 X107.9955 Y377.5666 Z-14.9582
G1 X107.9822 Y377.6321 Z-14.9700
G1 X107.9603 Y377.6952 Z-14.9818
G1 X107.9302 Y377.7548 Z-14.9936
G1 X107.8924 Y377.8099 Z-15.0054
G1 X107.8476 Y377.8594 Z-15.0171
G1 X107.7966 Y377.9025 Z-15.0289
G1 X107.7403 Y377.9385 Z-15.0407
G1 X107.6797 Y377.9666 Z-15.0525
G1 X107.6159 Y377.9864 Z-15.0642
G1 X107.5500 Y377.9975 Z-15.0760
G1 X107.4833 Y377.9997 Z-15.0878
G1 X107.4168 Y377.9930 Z-15.0996
G1 X107.3519 Y377.9776 Z-15.1113
G1 X107.2895 Y377.9535 Z-15.1231
G1 X107.2310 Y377.9214 Z-15.1349
G1 X107.1772 Y377.8818 Z-15.1467
G1 X107.1292 Y377.8354 Z-15.1585
G1 X107.0878 Y377.7830 Z-15.1702
G1 X107.0537 Y377.7255 Z-15.1820
G1 X107.0277 Y377.6640 Z-15.1938
G1 X107.0100 Y377.5996 Z-15.2056
G1 X107.0011 Y377.5334 Z-15.2173
G1 X107.0011 Y377.4666 Z-15.2291
G1 X107.0100 Y377.4004 Z-15.2409
G1 X107.0277 Y377.3360 Z-15.2527
G1 X107.0537 Y377.2745 Z-15.2645
G1 X107.0878 Y377.2170 Z-15.2762
G1 X107.1292 Y377.1646 Z-15.2880
G1 X107.1772 Y377.1182 Z-15.2998
G1 X107.2310 Y377.0786 Z-15.3116
G1 X107.2895 Y377.0465 Z-15.3233
G1 X107.3519 Y377.0224 Z-15.3351
G1 X107.4168 Y377.0070 Z-15.3469
G1 X107.4833 Y377.0003 Z-15.3587
G1 X107.5500 Y377.0025 Z-15.3704
G1 X107.6159 Y377.0136 Z-15.3822
G1 X107.6797 Y377.0334 Z-15.3940
G1 X107.7403 Y377.0615 Z-15.4058
G1 X107.7966 Y377.0975 Z-15.4176
G1 X107.8476 Y377.1406 Z-15.4293
G1 X107.8924 Y377.1901 Z-15.4411
G1 X107.9302 Y377.2452 Z-15.4529
G1 X107.9603 Y377.3048 Z-15.4647
G1 X107.9822 Y377.3679 Z-15.4764
G1 X107.9955 Y377.4334 Z-15.4882
G1 X108.0000 Y377.5000 Z-15.5000
G3 X107.0000 Y377.5000 I-0.5000 J0.0000 F3500.
G3 X108.0000 Y377.5000 I0.5000 J0.0000
G1 X108.0000 Y377.5000 Z-14.9000 F5000.
G1 X108.0000 Y377.5000 Z30.0000 F10000.
G1 X152.9318 Y377.2485 Z30.0000
G1 X152.9318 Y377.2485 Z-1.3833 F2500.
G1 X152.9318 Y377.2485 Z-1.9833
G1 X152.9603 Y377.3048 Z-1.9945
G1 X152.9822 Y377.3679 Z-2.0062
G1 X152.9955 Y377.4334 Z-2.0180
G1 X153.0000 Y377.5000 Z-2.0298
G1 X152.9955 Y377.5666 Z-2.0416
G1 X152.9822 Y377.6321 Z-2.0534
G1 X152.9603 Y377.6952 Z-2.0651
G1 X152.9302 Y377.7548 Z-2.0769
G1 X152.8924 Y377.8099 Z-2.0887
G1 X152.8476 Y377.8594 Z-2.1005
G1 X152.7966 Y377.9025 Z-2.1122
G1 X152.7403 Y377.9385 Z-2.1240
G1 X152.6797 Y377.9666 Z-2.1358
G1 X152.6159 Y377.9864 Z-2.1476
G1 X152.5500 Y377.9975 Z-2.1593
G1 X152.4833 Y377.9997 Z-2.1711
G1 X152.4168 Y377.9930 Z-2.1829
G1 X152.3519 Y377.9776 Z-2.1947
G1 X152.2895 Y377.9535 Z-2.2065
G1 X152.2310 Y377.9214 Z-2.2182
G1 X152.1772 Y377.8818 Z-2.2300
G1 X152.1292 Y377.8354 Z-2.2418
G1 X152.0878 Y377.7830 Z-2.2536
G1 X152.0537 Y377.7255 Z-2.2653
G1 X152.0277 Y377.6640 Z-2.2771
G1 X152.0100 Y377.5996 Z-2.2889
G1 X152.0011 Y377.5334 Z-2.3007
G1 X152.0011 Y377.4666 Z-2.3125
G1 X152.0100 Y377.4004 Z-2.3242
G1 X152.0277 Y377.3360 Z-2.3360
G1 X152.0537 Y377.2745 Z-2.3478
G1 X152.0878 Y377.2170 Z-2.3596
G1 X152.1292 Y377.1646 Z-2.3713
G1 X152.1772 Y377.1182 Z-2.3831
G1 X152.2310 Y377.0786 Z-2.3949
G1 X152.2895 Y377.0465 Z-2.4067
G1 X152.3519 Y377.0224 Z-2.4185
G1 X152.4168 Y377.0070 Z-2.4302
G1 X152.4833 Y377.0003 Z-2.4420
G1 X152.5500 Y377.0025 Z-2.4538
G1 X152.6159 Y377.0136 Z-2.4656
G1 X152.6797 Y377.0334 Z-2.4773
G1 X152.7403 Y377.0615 Z-2.4891
G1 X152.7966 Y377.0975 Z-2.5009
G1 X152.8476 Y377.1406 Z-2.5127
G1 X152.8924 Y377.1901 Z-2.5244
G1 X152.9302 Y377.2452 Z-2.5362
G1 X152.9603 Y377.3048 Z-2.5480
G1 X152.9822 Y377.3679 Z-2.5598
G1 X152.9955 Y377.4334 Z-2.5716
G1 X153.0000 Y377.5000 Z-2.5833
G3 X152.0000 Y377.5000 I-0.5000 J0.0000 F3500.
G3 X153.0000 Y377.5000 I0.5000 J0.0000
G1 X153.0000 Y377.5000 Z-1.9833 F5000.
G1 X153.0000 Y377.5000 Z30.0000 F10000.
G1 X152.9318 Y377.2485 Z30.0000
G1 X152.9318 Y377.2485 Z-3.9667 F2500.
G1 X152.9318 Y377.2485 Z-4.5667
G1 X152.9603 Y377.3048 Z-4.5778
G1 X152.9822 Y377.3679 Z-4.5896
G1 X152.9955 Y377.4334 Z-4.6014
G1 X153.0000 Y377.5000 Z-4.6131
G1 X152.9955 Y377.5666 Z-4.6249
G1 X152.9822 Y377.6321 Z-4.6367
G1 X152.9603 Y377.6952 Z-4.6485
G1 X152.9302 Y377.7548 Z-4.6602
G1 X152.8924 Y377.8099 Z-4.6720
G1 X152.8476 Y377.8594 Z-4.6838
G1 X152.7966 Y377.9025 Z-4.6956
G1 X152.7403 Y377.9385 Z-4.7074
G1 X152.6797 Y377.9666 Z-4.7191
G1 X152.6159 Y377.9864 Z-4.7309
G1 X152.5500 Y377.9975 Z-4.7427
G1 X152.4833 Y377.9997 Z-4.7545
G1 X152.4168 Y377.9930 Z-4.7662
G1 X152.3519 Y377.9776 Z-4.7780
G1 X152.2895 Y377.9535 Z-4.7898
G1 X152.2310 Y377.9214 Z-4.8016
G1 X152.1772 Y377.8818 Z-4.8133
G1 X152.1292 Y377.8354 Z-4.8251
G1 X152.0878 Y377.7830 Z-4.8369
G1 X152.0537 Y377.7255 Z-4.8487
G1 X152.0277 Y377.6640 Z-4.8605
G1 X152.0100 Y377.5996 Z-4.8722
G1 X152.0011 Y377.5334 Z-4.8840
G1 X152.0011 Y377.4666 Z-4.8958
G1 X152.0100 Y377.4004 Z-4.9076
G1 X152.0277 Y377.3360 Z-4.9193
G1 X152.0537 Y377.2745 Z-4.9311
G1 X152.0878 Y377.2170 Z-4.9429
G1 X152.1292 Y377.1646 Z-4.9547
G1 X152.1772 Y377.1182 Z-4.9665
G1 X152.2310 Y377.0786 Z-4.9782
G1 X152.2895 Y377.0465 Z-4.9900
G1 X152.3519 Y377.0224 Z-5.0018
G1 X152.4168 Y377.0070 Z-5.0136
G1 X152.4833 Y377.0003 Z-5.0253
G1 X152.5500 Y377.0025 Z-5.0371
G1 X152.6159 Y377.0136 Z-5.0489
G1 X152.6797 Y377.0334 Z-5.0607
G1 X152.7403 Y377.0615 Z-5.0724
G1 X152.7966 Y377.0975 Z-5.0842
G1 X152.8476 Y377.1406 Z-5.0960
G1 X152.8924 Y377.1901 Z-5.1078
G1 X152.9302 Y377.2452 Z-5.1196
G1 X152.9603 Y377.3048 Z-5.1313
G1 X152.9822 Y377.3679 Z-5.1431
G1 X152.9955 Y377.4334 Z-5.1549
G1 X153.0000 Y377.5000 Z-5.1667
G3 X152.0000 Y377.5000 I-0.5000 J0.0000 F3500.
G3 X153.0000 Y377.5000 I0.5000 J0.0000
G1 X153.0000 Y377.5000 Z-4.5667 F5000.
G1 X153.0000 Y377.5000 Z30.0000 F10000.
G1 X152.9318 Y377.2485 Z30.0000
G1 X152.9318 Y377.2485 Z-6.5500 F2500.
G1 X152.9318 Y377.2485 Z-7.1500
G1 X152.9603 Y377.3048 Z-7.1611
G1 X152.9822 Y377.3679 Z-7.1729
G1 X152.9955 Y377.4334 Z-7.1847
G1 X153.0000 Y377.5000 Z-7.1965
G1 X152.9955 Y377.5666 Z-7.2082
G1 X152.9822 Y377.6321 Z-7.2200
G1 X152.9603 Y377.6952 Z-7.2318
G1 X152.9302 Y377.7548 Z-7.2436
G1 X152.8924 Y377.8099 Z-7.2554
G1 X152.8476 Y377.8594 Z-7.2671
G1 X152.7966 Y377.9025 Z-7.2789
G1 X152.7403 Y377.9385 Z-7.2907
G1 X152.6797 Y377.9666 Z-7.3025
G1 X152.6159 Y377.9864 Z-7.3142
G1 X152.5500 Y377.9975 Z-7.3260
G1 X152.4833 Y377.9997 Z-7.3378
G1 X152.4168 Y377.9930 Z-7.3496
G1 X152.3519 Y377.9776 Z-7.3613
G1 X152.2895 Y377.9535 Z-7.3731
G1 X152.2310 Y377.9214 Z-7.3849
G1 X152.1772 Y377.8818 Z-7.3967
G1 X152.1292 Y377.8354 Z-7.4085
G1 X152.0878 Y377.7830 Z-7.4202
G1 X152.0537 Y377.7255 Z-7.4320
G1 X152.0277 Y377.6640 Z-7.4438
G1 X152.0100 Y377.5996 Z-7.4556
G1 X152.0011 Y377.5334 Z-7.4673
G1 X152.0011 Y377.4666 Z-7.4791
G1 X152.0100 Y377.4004 Z-7.4909
G1 X152.0277 Y377.3360 Z-7.5027
G1 X152.0537 Y377.2745 Z-7.5145
G1 X152.0878 Y377.2170 Z-7.5262
G1 X152.1292 Y377.1646 Z-7.5380
G1 X152.1772 Y377.1182 Z-7.5498
G1 X152.2310 Y377.0786 Z-7.5616
G1 X152.2895 Y377.0465 Z-7.5733
G1 X152.3519 Y377.0224 Z-7.5851
G1 X152.4168 Y377.0070 Z-7.5969
G1 X152.4833 Y377.0003 Z-7.6087
G1 X152.5500 Y377.0025 Z-7.6204
G1 X152.6159 Y377.0136 Z-7.6322
G1 X152.6797 Y377.0334 Z-7.6440
G1 X152.7403 Y377.0615 Z-7.6558
G1 X152.7966 Y377.0975 Z-7.6676
G1 X152.8476 Y377.1406 Z-7.6793
G1 X152.8924 Y377.1901 Z-7.6911
G1 X152.9302 Y377.2452 Z-7.7029
G1 X152.9603 Y377.3048 Z-7.7147
G1 X152.9822 Y377.3679 Z-7.7264
G1 X152.9955 Y377.4334 Z-7.7382
G1 X153.0000 Y377.5000 Z-7.7500
G3 X152.0000 Y377.5000 I-0.5000 J0.0000 F3500.
G3 X153.0000 Y377.5000 I0.5000 J0.0000
G1 X153.0000 Y377.5000 Z-7.1500 F5000.
G1 X153.0000 Y377.5000 Z30.0000 F10000.
G1 X152.9318 Y377.2485 Z30.0000
G1 X152.9318 Y377.2485 Z-9.1333 F2500.
G1 X152.9318 Y377.2485 Z-9.7333
G1 X152.9603 Y377.3048 Z-9.7445
G1 X152.9822 Y377.3679 Z-9.7562
G1 X152.9955 Y377.4334 Z-9.7680
G1 X153.0000 Y377.5000 Z-9.7798
G1 X152.9955 Y377.5666 Z-9.7916
G1 X152.9822 Y377.6321 Z-9.8034
G1 X152.9603 Y377.6952 Z-9.8151
G1 X152.9302 Y377.7548 Z-9.8269
G1 X152.8924 Y377.8099 Z-9.8387
G1 X152.8476 Y377.8594 Z-9.8505
G1 X152.7966 Y377.9025 Z-9.8622
G1 X152.7403 Y377.9385 Z-9.8740
G1 X152.6797 Y377.9666 Z-9.8858
G1 X152.6159 Y377.9864 Z-9.8976
G1 X152.5500 Y377.9975 Z-9.9093
G1 X152.4833 Y377.9997 Z-9.9211
G1 X152.4168 Y377.9930 Z-9.9329
G1 X152.3519 Y377.9776 Z-9.9447
G1 X152.2895 Y377.9535 Z-9.9565
G1 X152.2310 Y377.9214 Z-9.9682
G1 X152.1772 Y377.8818 Z-9.9800
G1 X152.1292 Y377.8354 Z-9.9918
G1 X152.0878 Y377.7830 Z-10.0036
G1 X152.0537 Y377.7255 Z-10.0153
G1 X152.0277 Y377.6640 Z-10.0271
G1 X152.0100 Y377.5996 Z-10.0389
G1 X152.0011 Y377.5334 Z-10.0507
G1 X152.0011 Y377.4666 Z-10.0625
G1 X152.0100 Y377.4004 Z-10.0742
G1 X152.0277 Y377.3360 Z-10.0860
G1 X152.0537 Y377.2745 Z-10.0978
G1 X152.0878 Y377.2170 Z-10.1096
G1 X152.1292 Y377.1646 Z-10.1213
G1 X152.1772 Y377.1182 Z-10.1331
G1 X152.2310 Y377.0786 Z-10.1449
G1 X152.2895 Y377.0465 Z-10.1567
G1 X152.3519 Y377.0224 Z-10.1685
G1 X152.4168 Y377.0070 Z-10.1802
G1 X152.4833 Y377.0003 Z-10.1920
G1 X152.5500 Y377.0025 Z-10.2038
G1 X152.6159 Y377.0136 Z-10.2156
G1 X152.6797 Y377.0334 Z-10.2273
G1 X152.7403 Y377.0615 Z-10.2391
G1 X152.7966 Y377.0975 Z-10.2509
G1 X152.8476 Y377.1406 Z-10.2627
G1 X152.8924 Y377.1901 Z-10.2744
G1 X152.9302 Y377.2452 Z-10.2862
G1 X152.9603 Y377.3048 Z-10.2980
G1 X152.9822 Y377.3679 Z-10.3098
G1 X152.9955 Y377.4334 Z-10.3216
G1 X153.0000 Y377.5000 Z-10.3333
G3 X152.0000 Y377.5000 I-0.5000 J0.0000 F3500.
G3 X153.0000 Y377.5000 I0.5000 J0.0000
G1 X153.0000 Y377.5000 Z-9.7333 F5000.
G1 X153.0000 Y377.5000 Z30.0000 F10000.
G1 X152.9318 Y377.2485 Z30.0000
G1 X152.9318 Y377.2485 Z-11.7167 F2500.
G1 X152.9318 Y377.2485 Z-12.3167
G1 X152.9603 Y377.3048 Z-12.3278
G1 X152.9822 Y377.3679 Z-12.3396
G1 X152.9955 Y377.4334 Z-12.3514
G1 X153.0000 Y377.5000 Z-12.3631
G1 X152.9955 Y377.5666 Z-12.3749
G1 X152.9822 Y377.6321 Z-12.3867
G1 X152.9603 Y377.6952 Z-12.3985
G1 X152.9302 Y377.7548 Z-12.4102
G1 X152.8924 Y377.8099 Z-12.4220
G1 X152.8476 Y377.8594 Z-12.4338
G1 X152.7966 Y377.9025 Z-12.4456
G1 X152.7403 Y377.9385 Z-12.4574
G1 X152.6797 Y377.9666 Z-12.4691
G1 X152.6159 Y377.9864 Z-12.4809
G1 X152.5500 Y377.9975 Z-12.4927
G1 X152.4833 Y377.9997 Z-12.5045
G1 X152.4168 Y377.9930 Z-12.5162
G1 X152.3519 Y377.9776 Z-12.5280
G1 X152.2895 Y377.9535 Z-12.5398
G1 X152.2310 Y377.9214 Z-12.5516
G1 X152.1772 Y377.8818 Z-12.5633
G1 X152.1292 Y377.8354 Z-12.5751
G1 X152.0878 Y377.7830 Z-12.5869
G1 X152.0537 Y377.7255 Z-12.5987
G1 X152.0277 Y377.6640 Z-12.6105
G1 X152.0100 Y377.5996 Z-12.6222
G1 X152.0011 Y377.5334 Z-12.6340
G1 X152.0011 Y377.4666 Z-12.6458
G1 X152.0100 Y377.4004 Z-12.6576
G1 X152.0277 Y377.3360 Z-12.6693
G1 X152.0537 Y377.2745 Z-12.6811
G1 X152.0878 Y377.2170 Z-12.6929
G1 X152.1292 Y377.1646 Z-12.7047
G1 X152.1772 Y377.1182 Z-12.7165
G1 X152.2310 Y377.0786 Z-12.7282
G1 X152.2895 Y377.0465 Z-12.7400
G1 X152.3519 Y377.0224 Z-12.7518
G1 X152.4168 Y377.0070 Z-12.7636
G1 X152.4833 Y377.0003 Z-12.7753
G1 X152.5500 Y377.0025 Z-12.7871
G1 X152.6159 Y377.0136 Z-12.7989
G1 X152.6797 Y377.0334 Z-12.8107
G1 X152.7403 Y377.0615 Z-12.8224
G1 X152.7966 Y377.0975 Z-12.8342
G1 X152.8476 Y377.1406 Z-12.8460
G1 X152.8924 Y377.1901 Z-12.8578
G1 X152.9302 Y377.2452 Z-12.8696
G1 X152.9603 Y377.3048 Z-12.8813
G1 X152.9822 Y377.3679 Z-12.8931
G1 X152.9955 Y377.4334 Z-12.9049
G1 X153.0000 Y377.5000 Z-12.9167
G3 X152.0000 Y377.5000 I-0.5000 J0.0000 F3500.
G3 X153.0000 Y377.5000 I0.5000 J0.0000
G1 X153.0000 Y377.5000 Z-12.3167 F5000.
G1 X153.0000 Y377.5000 Z30.0000 F10000.
G1 X152.9318 Y377.2485 Z30.0000
G1 X152.9318 Y377.2485 Z-14.3000 F2500.
G1 X152.9318 Y377.2485 Z-14.9000
G1 X152.9603 Y377.3048 Z-14.9111
G1 X152.9822 Y377.3679 Z-14.9229
G1 X152.9955 Y377.4334 Z-14.9347
G1 X153.0000 Y377.5000 Z-14.9465
G1 X152.9955 Y377.5666 Z-14.9582
G1 X152.9822 Y377.6321 Z-14.9700
G1 X152.9603 Y377.6952 Z-14.9818
G1 X152.9302 Y377.7548 Z-14.9936
G1 X152.8924 Y377.8099 Z-15.0054
G1 X152.8476 Y377.8594 Z-15.0171
G1 X152.7966 Y377.9025 Z-15.0289
G1 X152.7403 Y377.9385 Z-15.0407
G1 X152.6797 Y377.9666 Z-15.0525
G1 X152.6159 Y377.9864 Z-15.0642
G1 X152.5500 Y377.9975 Z-15.0760
G1 X152.4833 Y377.9997 Z-15.0878
G1 X152.4168 Y377.9930 Z-15.0996
G1 X152.3519 Y377.9776 Z-15.1113
G1 X152.2895 Y377.9535 Z-15.1231
G1 X152.2310 Y377.9214 Z-15.1349
G1 X152.1772 Y377.8818 Z-15.1467
G1 X152.1292 Y377.8354 Z-15.1585
G1 X152.0878 Y377.7830 Z-15.1702
G1 X152.0537 Y377.7255 Z-15.1820
G1 X152.0277 Y377.6640 Z-15.1938
G1 X152.0100 Y377.5996 Z-15.2056
G1 X152.0011 Y377.5334 Z-15.2173
G1 X152.0011 Y377.4666 Z-15.2291
G1 X152.0100 Y377.4004 Z-15.2409
G1 X152.0277 Y377.3360 Z-15.2527
G1 X152.0537 Y377.2745 Z-15.2645
G1 X152.0878 Y377.2170 Z-15.2762
G1 X152.1292 Y377.1646 Z-15.2880
G1 X152.1772 Y377.1182 Z-15.2998
G1 X152.2310 Y377.0786 Z-15.3116
G1 X152.2895 Y377.0465 Z-15.3233
G1 X152.3519 Y377.0224 Z-15.3351
G1 X152.4168 Y377.0070 Z-15.3469
G1 X152.4833 Y377.0003 Z-15.3587
G1 X152.5500 Y377.0025 Z-15.3704
G1 X152.6159 Y377.0136 Z-15.3822
G1 X152.6797 Y377.0334 Z-15.3940
G1 X152.7403 Y377.0615 Z-15.4058
G1 X152.7966 Y377.0975 Z-15.4176
G1 X152.8476 Y377.1406 Z-15.4293
G1 X152.8924 Y377.1901 Z-15.4411
G1 X152.9302 Y377.2452 Z-15.4529
G1 X152.9603 Y377.3048 Z-15.4647
G1 X152.9822 Y377.3679 Z-15.4764
G1 X152.9955 Y377.4334 Z-15.4882
G1 X153.0000 Y377.5000 Z-15.5000
G3 X152.0000 Y377.5000 I-0.5000 J0.0000 F3500.
G3 X153.0000 Y377.5000 I0.5000 J0.0000
G1 X153.0000 Y377.5000 Z-14.9000 F5000.
G1 X153.0000 Y377.5000 Z30.0000 F10000.
G1 X197.9318 Y377.2485 Z30.0000
G1 X197.9318 Y377.2485 Z-1.3833 F2500.
G1 X197.9318 Y377.2485 Z-1.9833
G1 X197.9603 Y377.3048 Z-1.9945
G1 X197.9822 Y377.3679 Z-2.0062
G1 X197.9955 Y377.4334 Z-2.0180
G1 X198.0000 Y377.5000 Z-2.0298
G1 X197.9955 Y377.5666 Z-2.0416
G1 X197.9822 Y377.6321 Z-2.0534
G1 X197.9603 Y377.6952 Z-2.0651
G1 X197.9302 Y377.7548 Z-2.0769
G1 X197.8924 Y377.8099 Z-2.0887
G1 X197.8476 Y377.8594 Z-2.1005
G1 X197.7966 Y377.9025 Z-2.1122
G1 X197.7403 Y377.9385 Z-2.1240
G1 X197.6797 Y377.9666 Z-2.1358
G1 X197.6159 Y377.9864 Z-2.1476
G1 X197.5500 Y377.9975 Z-2.1593
G1 X197.4833 Y377.9997 Z-2.1711
G1 X197.4168 Y377.9930 Z-2.1829
G1 X197.3519 Y377.9776 Z-2.1947
G1 X197.2895 Y377.9535 Z-2.2065
G1 X197.2310 Y377.9214 Z-2.2182
G1 X197.1772 Y377.8818 Z-2.2300
G1 X197.1292 Y377.8354 Z-2.2418
G1 X197.0878 Y377.7830 Z-2.2536
G1 X197.0537 Y377.7255 Z-2.2653
G1 X197.0277 Y377.6640 Z-2.2771
G1 X197.0100 Y377.5996 Z-2.2889
G1 X197.0011 Y377.5334 Z-2.3007
G1 X197.0011 Y377.4666 Z-2.3125
G1 X197.0100 Y377.4004 Z-2.3242
G1 X197.0277 Y377.3360 Z-2.3360
G1 X197.0537 Y377.2745 Z-2.3478
G1 X197.0878 Y377.2170 Z-2.3596
G1 X197.1292 Y377.1646 Z-2.3713
G1 X197.1772 Y377.1182 Z-2.3831
G1 X197.2310 Y377.0786 Z-2.3949
G1 X197.2895 Y377.0465 Z-2.4067
G1 X197.3519 Y377.0224 Z-2.4185
G1 X197.4168 Y377.0070 Z-2.4302
G1 X197.4833 Y377.0003 Z-2.4420
G1 X197.5500 Y377.0025 Z-2.4538
G1 X197.6159 Y377.0136 Z-2.4656
G1 X197.6797 Y377.0334 Z-2.4773
G1 X197.7403 Y377.0615 Z-2.4891
G1 X197.7966 Y377.0975 Z-2.5009
G1 X197.8476 Y377.1406 Z-2.5127
G1 X197.8924 Y377.1901 Z-2.5244
G1 X197.9302 Y377.2452 Z-2.5362
G1 X197.9603 Y377.3048 Z-2.5480
G1 X197.9822 Y377.3679 Z-2.5598
G1 X197.9955 Y377.4334 Z-2.5716
G1 X198.0000 Y377.5000 Z-2.5833
G3 X197.0000 Y377.5000 I-0.5000 J0.0000 F3500.
G3 X198.0000 Y377.5000 I0.5000 J0.0000
G1 X198.0000 Y377.5000 Z-1.9833 F5000.
G1 X198.0000 Y377.5000 Z30.0000 F10000.
G1 X197.9318 Y377.2485 Z30.0000
G1 X197.9318 Y377.2485 Z-3.9667 F2500.
G1 X197.9318 Y377.2485 Z-4.5667
G1 X197.9603 Y377.3048 Z-4.5778
G1 X197.9822 Y377.3679 Z-4.5896
G1 X197.9955 Y377.4334 Z-4.6014
G1 X198.0000 Y377.5000 Z-4.6131
G1 X197.9955 Y377.5666 Z-4.6249
G1 X197.9822 Y377.6321 Z-4.6367
G1 X197.9603 Y377.6952 Z-4.6485
G1 X197.9302 Y377.7548 Z-4.6602
G1 X197.8924 Y377.8099 Z-4.6720
G1 X197.8476 Y377.8594 Z-4.6838
G1 X197.7966 Y377.9025 Z-4.6956
G1 X197.7403 Y377.9385 Z-4.7074
G1 X197.6797 Y377.9666 Z-4.7191
G1 X197.6159 Y377.9864 Z-4.7309
G1 X197.5500 Y377.9975 Z-4.7427
G1 X197.4833 Y377.9997 Z-4.7545
G1 X197.4168 Y377.9930 Z-4.7662
G1 X197.3519 Y377.9776 Z-4.7780
G1 X197.2895 Y377.9535 Z-4.7898
G1 X197.2310 Y377.9214 Z-4.8016
G1 X197.1772 Y377.8818 Z-4.8133
G1 X197.1292 Y377.8354 Z-4.8251
G1 X197.0878 Y377.7830 Z-4.8369
G1 X197.0537 Y377.7255 Z-4.8487
G1 X197.0277 Y377.6640 Z-4.8605
G1 X197.0100 Y377.5996 Z-4.8722
G1 X197.0011 Y377.5334 Z-4.8840
G1 X197.0011 Y377.4666 Z-4.8958
G1 X197.0100 Y377.4004 Z-4.9076
G1 X197.0277 Y377.3360 Z-4.9193
G1 X197.0537 Y377.2745 Z-4.9311
G1 X197.0878 Y377.2170 Z-4.9429
G1 X197.1292 Y377.1646 Z-4.9547
G1 X197.1772 Y377.1182 Z-4.9665
G1 X197.2310 Y377.0786 Z-4.9782
G1 X197.2895 Y377.0465 Z-4.9900
G1 X197.3519 Y377.0224 Z-5.0018
G1 X197.4168 Y377.0070 Z-5.0136
G1 X197.4833 Y377.0003 Z-5.0253
G1 X197.5500 Y377.0025 Z-5.0371
G1 X197.6159 Y377.0136 Z-5.0489
G1 X197.6797 Y377.0334 Z-5.0607
G1 X197.7403 Y377.0615 Z-5.0724
G1 X197.7966 Y377.0975 Z-5.0842
G1 X197.8476 Y377.1406 Z-5.0960
G1 X197.8924 Y377.1901 Z-5.1078
G1 X197.9302 Y377.2452 Z-5.1196
G1 X197.9603 Y377.3048 Z-5.1313
G1 X197.9822 Y377.3679 Z-5.1431
G1 X197.9955 Y377.4334 Z-5.1549
G1 X198.0000 Y377.5000 Z-5.1667
G3 X197.0000 Y377.5000 I-0.5000 J0.0000 F3500.
G3 X198.0000 Y377.5000 I0.5000 J0.0000
G1 X198.0000 Y377.5000 Z-4.5667 F5000.
G1 X198.0000 Y377.5000 Z30.0000 F10000.
G1 X197.9318 Y377.2485 Z30.0000
G1 X197.9318 Y377.2485 Z-6.5500 F2500.
G1 X197.9318 Y377.2485 Z-7.1500
G1 X197.9603 Y377.3048 Z-7.1611
G1 X197.9822 Y377.3679 Z-7.1729
G1 X197.9955 Y377.4334 Z-7.1847
G1 X198.0000 Y377.5000 Z-7.1965
G1 X197.9955 Y377.5666 Z-7.2082
G1 X197.9822 Y377.6321 Z-7.2200
G1 X197.9603 Y377.6952 Z-7.2318
G1 X197.9302 Y377.7548 Z-7.2436
G1 X197.8924 Y377.8099 Z-7.2554
G1 X197.8476 Y377.8594 Z-7.2671
G1 X197.7966 Y377.9025 Z-7.2789
G1 X197.7403 Y377.9385 Z-7.2907
G1 X197.6797 Y377.9666 Z-7.3025
G1 X197.6159 Y377.9864 Z-7.3142
G1 X197.5500 Y377.9975 Z-7.3260
G1 X197.4833 Y377.9997 Z-7.3378
G1 X197.4168 Y377.9930 Z-7.3496
G1 X197.3519 Y377.9776 Z-7.3613
G1 X197.2895 Y377.9535 Z-7.3731
G1 X197.2310 Y377.9214 Z-7.3849
G1 X197.1772 Y377.8818 Z-7.3967
G1 X197.1292 Y377.8354 Z-7.4085
G1 X197.0878 Y377.7830 Z-7.4202
G1 X197.0537 Y377.7255 Z-7.4320
G1 X197.0277 Y377.6640 Z-7.4438
G1 X197.0100 Y377.5996 Z-7.4556
G1 X197.0011 Y377.5334 Z-7.4673
G1 X197.0011 Y377.4666 Z-7.4791
G1 X197.0100 Y377.4004 Z-7.4909
G1 X197.0277 Y377.3360 Z-7.5027
G1 X197.0537 Y377.2745 Z-7.5145
G1 X197.0878 Y377.2170 Z-7.5262
G1 X197.1292 Y377.1646 Z-7.5380
G1 X197.1772 Y377.1182 Z-7.5498
G1 X197.2310 Y377.0786 Z-7.5616
G1 X197.2895 Y377.0465 Z-7.5733
G1 X197.3519 Y377.0224 Z-7.5851
G1 X197.4168 Y377.0070 Z-7.5969
G1 X197.4833 Y377.0003 Z-7.6087
G1 X197.5500 Y377.0025 Z-7.6204
G1 X197.6159 Y377.0136 Z-7.6322
G1 X197.6797 Y377.0334 Z-7.6440
G1 X197.7403 Y377.0615 Z-7.6558
G1 X197.7966 Y377.0975 Z-7.6676
G1 X197.8476 Y377.1406 Z-7.6793
G1 X197.8924 Y377.1901 Z-7.6911
G1 X197.9302 Y377.2452 Z-7.7029
G1 X197.9603 Y377.3048 Z-7.7147
G1 X197.9822 Y377.3679 Z-7.7264
G1 X197.9955 Y377.4334 Z-7.7382
G1 X198.0000 Y377.5000 Z-7.7500
G3 X197.0000 Y377.5000 I-0.5000 J0.0000 F3500.
G3 X198.0000 Y377.5000 I0.5000 J0.0000
G1 X198.0000 Y377.5000 Z-7.1500 F5000.
G1 X198.0000 Y377.5000 Z30.0000 F10000.
G1 X197.9318 Y377.2485 Z30.0000
G1 X197.9318 Y377.2485 Z-9.1333 F2500.
G1 X197.9318 Y377.2485 Z-9.7333
G1 X197.9603 Y377.3048 Z-9.7445
G1 X197.9822 Y377.3679 Z-9.7562
G1 X197.9955 Y377.4334 Z-9.7680
G1 X198.0000 Y377.5000 Z-9.7798
G1 X197.9955 Y377.5666 Z-9.7916
G1 X197.9822 Y377.6321 Z-9.8034
G1 X197.9603 Y377.6952 Z-9.8151
G1 X197.9302 Y377.7548 Z-9.8269
G1 X197.8924 Y377.8099 Z-9.8387
G1 X197.8476 Y377.8594 Z-9.8505
G1 X197.7966 Y377.9025 Z-9.8622
G1 X197.7403 Y377.9385 Z-9.8740
G1 X197.6797 Y377.9666 Z-9.8858
G1 X197.6159 Y377.9864 Z-9.8976
G1 X197.5500 Y377.9975 Z-9.9093
G1 X197.4833 Y377.9997 Z-9.9211
G1 X197.4168 Y377.9930 Z-9.9329
G1 X197.3519 Y377.9776 Z-9.9447
G1 X197.2895 Y377.9535 Z-9.9565
G1 X197.2310 Y377.9214 Z-9.9682
G1 X197.1772 Y377.8818 Z-9.9800
G1 X197.1292 Y377.8354 Z-9.9918
G1 X197.0878 Y377.7830 Z-10.0036
G1 X197.0537 Y377.7255 Z-10.0153
G1 X197.0277 Y377.6640 Z-10.0271
G1 X197.0100 Y377.5996 Z-10.0389
G1 X197.0011 Y377.5334 Z-10.0507
G1 X197.0011 Y377.4666 Z-10.0625
G1 X197.0100 Y377.4004 Z-10.0742
G1 X197.0277 Y377.3360 Z-10.0860
G1 X197.0537 Y377.2745 Z-10.0978
G1 X197.0878 Y377.2170 Z-10.1096
G1 X197.1292 Y377.1646 Z-10.1213
G1 X197.1772 Y377.1182 Z-10.1331
G1 X197.2310 Y377.0786 Z-10.1449
G1 X197.2895 Y377.0465 Z-10.1567
G1 X197.3519 Y377.0224 Z-10.1685
G1 X197.4168 Y377.0070 Z-10.1802
G1 X197.4833 Y377.0003 Z-10.1920
G1 X197.5500 Y377.0025 Z-10.2038
G1 X197.6159 Y377.0136 Z-10.2156
G1 X197.6797 Y377.0334 Z-10.2273
G1 X197.7403 Y377.0615 Z-10.2391
G1 X197.7966 Y377.0975 Z-10.2509
G1 X197.8476 Y377.1406 Z-10.2627
G1 X197.8924 Y377.1901 Z-10.2744
G1 X197.9302 Y377.2452 Z-10.2862
G1 X197.9603 Y377.3048 Z-10.2980
G1 X197.9822 Y377.3679 Z-10.3098
G1 X197.9955 Y377.4334 Z-10.3216
G1 X198.0000 Y377.5000 Z-10.3333
G3 X197.0000 Y377.5000 I-0.5000 J0.0000 F3500.
G3 X198.0000 Y377.5000 I0.5000 J0.0000
G1 X198.0000 Y377.5000 Z-9.7333 F5000.
G1 X198.0000 Y377.5000 Z30.0000 F10000.
G1 X197.9318 Y377.2485 Z30.0000
G1 X197.9318 Y377.2485 Z-11.7167 F2500.
G1 X197.9318 Y377.2485 Z-12.3167
G1 X197.9603 Y377.3048 Z-12.3278
G1 X197.9822 Y377.3679 Z-12.3396
G1 X197.9955 Y377.4334 Z-12.3514
G1 X198.0000 Y377.5000 Z-12.3631
G1 X197.9955 Y377.5666 Z-12.3749
G1 X197.9822 Y377.6321 Z-12.3867
G1 X197.9603 Y377.6952 Z-12.3985
G1 X197.9302 Y377.7548 Z-12.4102
G1 X197.8924 Y377.8099 Z-12.4220
G1 X197.8476 Y377.8594 Z-12.4338
G1 X197.7966 Y377.9025 Z-12.4456
G1 X197.7403 Y377.9385 Z-12.4574
G1 X197.6797 Y377.9666 Z-12.4691
G1 X197.6159 Y377.9864 Z-12.4809
G1 X197.5500 Y377.9975 Z-12.4927
G1 X197.4833 Y377.9997 Z-12.5045
G1 X197.4168 Y377.9930 Z-12.5162
G1 X197.3519 Y377.9776 Z-12.5280
G1 X197.2895 Y377.9535 Z-12.5398
G1 X197.2310 Y377.9214 Z-12.5516
G1 X197.1772 Y377.8818 Z-12.5633
G1 X197.1292 Y377.8354 Z-12.5751
G1 X197.0878 Y377.7830 Z-12.5869
G1 X197.0537 Y377.7255 Z-12.5987
G1 X197.0277 Y377.6640 Z-12.6105
G1 X197.0100 Y377.5996 Z-12.6222
G1 X197.0011 Y377.5334 Z-12.6340
G1 X197.0011 Y377.4666 Z-12.6458
G1 X197.0100 Y377.4004 Z-12.6576
G1 X197.0277 Y377.3360 Z-12.6693
G1 X197.0537 Y377.2745 Z-12.6811
G1 X197.0878 Y377.2170 Z-12.6929
G1 X197.1292 Y377.1646 Z-12.7047
G1 X197.1772 Y377.1182 Z-12.7165
G1 X197.2310 Y377.0786 Z-12.7282
G1 X197.2895 Y377.0465 Z-12.7400
G1 X197.3519 Y377.0224 Z-12.7518
G1 X197.4168 Y377.0070 Z-12.7636
G1 X197.4833 Y377.0003 Z-12.7753
G1 X197.5500 Y377.0025 Z-12.7871
G1 X197.6159 Y377.0136 Z-12.7989
G1 X197.6797 Y377.0334 Z-12.8107
G1 X197.7403 Y377.0615 Z-12.8224
G1 X197.7966 Y377.0975 Z-12.8342
G1 X197.8476 Y377.1406 Z-12.8460
G1 X197.8924 Y377.1901 Z-12.8578
G1 X197.9302 Y377.2452 Z-12.8696
G1 X197.9603 Y377.3048 Z-12.8813
G1 X197.9822 Y377.3679 Z-12.8931
G1 X197.9955 Y377.4334 Z-12.9049
G1 X198.0000 Y377.5000 Z-12.9167
G3 X197.0000 Y377.5000 I-0.5000 J0.0000 F3500.
G3 X198.0000 Y377.5000 I0.5000 J0.0000
G1 X198.0000 Y377.5000 Z-12.3167 F5000.
G1 X198.0000 Y377.5000 Z30.0000 F10000.
G1 X197.9318 Y377.2485 Z30.0000
G1 X197.9318 Y377.2485 Z-14.3000 F2500.
G1 X197.9318 Y377.2485 Z-14.9000
G1 X197.9603 Y377.3048 Z-14.9111
G1 X197.9822 Y377.3679 Z-14.9229
G1 X197.9955 Y377.4334 Z-14.9347
G1 X198.0000 Y377.5000 Z-14.9465
G1 X197.9955 Y377.5666 Z-14.9582
G1 X197.9822 Y377.6321 Z-14.9700
G1 X197.9603 Y377.6952 Z-14.9818
G1 X197.9302 Y377.7548 Z-14.9936
G1 X197.8924 Y377.8099 Z-15.0054
G1 X197.8476 Y377.8594 Z-15.0171
G1 X197.7966 Y377.9025 Z-15.0289
G1 X197.7403 Y377.9385 Z-15.0407
G1 X197.6797 Y377.9666 Z-15.0525
G1 X197.6159 Y377.9864 Z-15.0642
G1 X197.5500 Y377.9975 Z-15.0760
G1 X197.4833 Y377.9997 Z-15.0878
G1 X197.4168 Y377.9930 Z-15.0996
G1 X197.3519 Y377.9776 Z-15.1113
G1 X197.2895 Y377.9535 Z-15.1231
G1 X197.2310 Y377.9214 Z-15.1349
G1 X197.1772 Y377.8818 Z-15.1467
G1 X197.1292 Y377.8354 Z-15.1585
G1 X197.0878 Y377.7830 Z-15.1702
G1 X197.0537 Y377.7255 Z-15.1820
G1 X197.0277 Y377.6640 Z-15.1938
G1 X197.0100 Y377.5996 Z-15.2056
G1 X197.0011 Y377.5334 Z-15.2173
G1 X197.0011 Y377.4666 Z-15.2291
G1 X197.0100 Y377.4004 Z-15.2409
G1 X197.0277 Y377.3360 Z-15.2527
G1 X197.0537 Y377.2745 Z-15.2645
G1 X197.0878 Y377.2170 Z-15.2762
G1 X197.1292 Y377.1646 Z-15.2880
G1 X197.1772 Y377.1182 Z-15.2998
G1 X197.2310 Y377.0786 Z-15.3116
G1 X197.2895 Y377.0465 Z-15.3233
G1 X197.3519 Y377.0224 Z-15.3351
G1 X197.4168 Y377.0070 Z-15.3469
G1 X197.4833 Y377.0003 Z-15.3587
G1 X197.5500 Y377.0025 Z-15.3704
G1 X197.6159 Y377.0136 Z-15.3822
G1 X197.6797 Y377.0334 Z-15.3940
G1 X197.7403 Y377.0615 Z-15.4058
G1 X197.7966 Y377.0975 Z-15.4176
G1 X197.8476 Y377.1406 Z-15.4293
G1 X197.8924 Y377.1901 Z-15.4411
G1 X197.9302 Y377.2452 Z-15.4529
G1 X197.9603 Y377.3048 Z-15.4647
G1 X197.9822 Y377.3679 Z-15.4764
G1 X197.9955 Y377.4334 Z-15.4882
G1 X198.0000 Y377.5000 Z-15.5000
G3 X197.0000 Y377.5000 I-0.5000 J0.0000 F3500.
G3 X198.0000 Y377.5000 I0.5000 J0.0000
G1 X198.0000 Y377.5000 Z-14.9000 F5000.
G1 X198.0000 Y377.5000 Z30.0000 F10000.
G1 X242.9318 Y377.2485 Z30.0000
G1 X242.9318 Y377.2485 Z-1.3833 F2500.
G1 X242.9318 Y377.2485 Z-1.9833
G1 X242.9603 Y377.3048 Z-1.9945
G1 X242.9822 Y377.3679 Z-2.0062
G1 X242.9955 Y377.4334 Z-2.0180
G1 X243.0000 Y377.5000 Z-2.0298
G1 X242.9955 Y377.5666 Z-2.0416
G1 X242.9822 Y377.6321 Z-2.0534
G1 X242.9603 Y377.6952 Z-2.0651
G1 X242.9302 Y377.7548 Z-2.0769
G1 X242.8924 Y377.8099 Z-2.0887
G1 X242.8476 Y377.8594 Z-2.1005
G1 X242.7966 Y377.9025 Z-2.1122
G1 X242.7403 Y377.9385 Z-2.1240
G1 X242.6797 Y377.9666 Z-2.1358
G1 X242.6159 Y377.9864 Z-2.1476
G1 X242.5500 Y377.9975 Z-2.1593
G1 X242.4833 Y377.9997 Z-2.1711
G1 X242.4168 Y377.9930 Z-2.1829
G1 X242.3519 Y377.9776 Z-2.1947
G1 X242.2895 Y377.9535 Z-2.2065
G1 X242.2310 Y377.9214 Z-2.2182
G1 X242.1772 Y377.8818 Z-2.2300
G1 X242.1292 Y377.8354 Z-2.2418
G1 X242.0878 Y377.7830 Z-2.2536
G1 X242.0537 Y377.7255 Z-2.2653
G1 X242.0277 Y377.6640 Z-2.2771
G1 X242.0100 Y377.5996 Z-2.2889
G1 X242.0011 Y377.5334 Z-2.3007
G1 X242.0011 Y377.4666 Z-2.3125
G1 X242.0100 Y377.4004 Z-2.3242
G1 X242.0277 Y377.3360 Z-2.3360
G1 X242.0537 Y377.2745 Z-2.3478
G1 X242.0878 Y377.2170 Z-2.3596
G1 X242.1292 Y377.1646 Z-2.3713
G1 X242.1772 Y377.1182 Z-2.3831
G1 X242.2310 Y377.0786 Z-2.3949
G1 X242.2895 Y377.0465 Z-2.4067
G1 X242.3519 Y377.0224 Z-2.4185
G1 X242.4168 Y377.0070 Z-2.4302
G1 X242.4833 Y377.0003 Z-2.4420
G1 X242.5500 Y377.0025 Z-2.4538
G1 X242.6159 Y377.0136 Z-2.4656
G1 X242.6797 Y377.0334 Z-2.4773
G1 X242.7403 Y377.0615 Z-2.4891
G1 X242.7966 Y377.0975 Z-2.5009
G1 X242.8476 Y377.1406 Z-2.5127
G1 X242.8924 Y377.1901 Z-2.5244
G1 X242.9302 Y377.2452 Z-2.5362
G1 X242.9603 Y377.3048 Z-2.5480
G1 X242.9822 Y377.3679 Z-2.5598
G1 X242.9955 Y377.4334 Z-2.5716
G1 X243.0000 Y377.5000 Z-2.5833
G3 X242.0000 Y377.5000 I-0.5000 J0.0000 F3500.
G3 X243.0000 Y377.5000 I0.5000 J0.0000
G1 X243.0000 Y377.5000 Z-1.9833 F5000.
G1 X243.0000 Y377.5000 Z30.0000 F10000.
G1 X242.9318 Y377.2485 Z30.0000
G1 X242.9318 Y377.2485 Z-3.9667 F2500.
G1 X242.9318 Y377.2485 Z-4.5667
G1 X242.9603 Y377.3048 Z-4.5778
G1 X242.9822 Y377.3679 Z-4.5896
G1 X242.9955 Y377.4334 Z-4.6014
G1 X243.0000 Y377.5000 Z-4.6131
G1 X242.9955 Y377.5666 Z-4.6249
G1 X242.9822 Y377.6321 Z-4.6367
G1 X242.9603 Y377.6952 Z-4.6485
G1 X242.9302 Y377.7548 Z-4.6602
G1 X242.8924 Y377.8099 Z-4.6720
G1 X242.8476 Y377.8594 Z-4.6838
G1 X242.7966 Y377.9025 Z-4.6956
G1 X242.7403 Y377.9385 Z-4.7074
G1 X242.6797 Y377.9666 Z-4.7191
G1 X242.6159 Y377.9864 Z-4.7309
G1 X242.5500 Y377.9975 Z-4.7427
G1 X242.4833 Y377.9997 Z-4.7545
G1 X242.4168 Y377.9930 Z-4.7662
G1 X242.3519 Y377.9776 Z-4.7780
G1 X242.2895 Y377.9535 Z-4.7898
G1 X242.2310 Y377.9214 Z-4.8016
G1 X242.1772 Y377.8818 Z-4.8133
G1 X242.1292 Y377.8354 Z-4.8251
G1 X242.0878 Y377.7830 Z-4.8369
G1 X242.0537 Y377.7255 Z-4.8487
G1 X242.0277 Y377.6640 Z-4.8605
G1 X242.0100 Y377.5996 Z-4.8722
G1 X242.0011 Y377.5334 Z-4.8840
G1 X242.0011 Y377.4666 Z-4.8958
G1 X242.0100 Y377.4004 Z-4.9076
G1 X242.0277 Y377.3360 Z-4.9193
G1 X242.0537 Y377.2745 Z-4.9311
G1 X242.0878 Y377.2170 Z-4.9429
G1 X242.1292 Y377.1646 Z-4.9547
G1 X242.1772 Y377.1182 Z-4.9665
G1 X242.2310 Y377.0786 Z-4.9782
G1 X242.2895 Y377.0465 Z-4.9900
G1 X242.3519 Y377.0224 Z-5.0018
G1 X242.4168 Y377.0070 Z-5.0136
G1 X242.4833 Y377.0003 Z-5.0253
G1 X242.5500 Y377.0025 Z-5.0371
G1 X242.6159 Y377.0136 Z-5.0489
G1 X242.6797 Y377.0334 Z-5.0607
G1 X242.7403 Y377.0615 Z-5.0724
G1 X242.7966 Y377.0975 Z-5.0842
G1 X242.8476 Y377.1406 Z-5.0960
G1 X242.8924 Y377.1901 Z-5.1078
G1 X242.9302 Y377.2452 Z-5.1196
G1 X242.9603 Y377.3048 Z-5.1313
G1 X242.9822 Y377.3679 Z-5.1431
G1 X242.9955 Y377.4334 Z-5.1549
G1 X243.0000 Y377.5000 Z-5.1667
G3 X242.0000 Y377.5000 I-0.5000 J0.0000 F3500.
G3 X243.0000 Y377.5000 I0.5000 J0.0000
G1 X243.0000 Y377.5000 Z-4.5667 F5000.
G1 X243.0000 Y377.5000 Z30.0000 F10000.
G1 X242.9318 Y377.2485 Z30.0000
G1 X242.9318 Y377.2485 Z-6.5500 F2500.
G1 X242.9318 Y377.2485 Z-7.1500
G1 X242.9603 Y377.3048 Z-7.1611
G1 X242.9822 Y377.3679 Z-7.1729
G1 X242.9955 Y377.4334 Z-7.1847
G1 X243.0000 Y377.5000 Z-7.1965
G1 X242.9955 Y377.5666 Z-7.2082
G1 X242.9822 Y377.6321 Z-7.2200
G1 X242.9603 Y377.6952 Z-7.2318
G1 X242.9302 Y377.7548 Z-7.2436
G1 X242.8924 Y377.8099 Z-7.2554
G1 X242.8476 Y377.8594 Z-7.2671
G1 X242.7966 Y377.9025 Z-7.2789
G1 X242.7403 Y377.9385 Z-7.2907
G1 X242.6797 Y377.9666 Z-7.3025
G1 X242.6159 Y377.9864 Z-7.3142
G1 X242.5500 Y377.9975 Z-7.3260
G1 X242.4833 Y377.9997 Z-7.3378
G1 X242.4168 Y377.9930 Z-7.3496
G1 X242.3519 Y377.9776 Z-7.3613
G1 X242.2895 Y377.9535 Z-7.3731
G1 X242.2310 Y377.9214 Z-7.3849
G1 X242.1772 Y377.8818 Z-7.3967
G1 X242.1292 Y377.8354 Z-7.4085
G1 X242.0878 Y377.7830 Z-7.4202
G1 X242.0537 Y377.7255 Z-7.4320
G1 X242.0277 Y377.6640 Z-7.4438
G1 X242.0100 Y377.5996 Z-7.4556
G1 X242.0011 Y377.5334 Z-7.4673
G1 X242.0011 Y377.4666 Z-7.4791
G1 X242.0100 Y377.4004 Z-7.4909
G1 X242.0277 Y377.3360 Z-7.5027
G1 X242.0537 Y377.2745 Z-7.5145
G1 X242.0878 Y377.2170 Z-7.5262
G1 X242.1292 Y377.1646 Z-7.5380
G1 X242.1772 Y377.1182 Z-7.5498
G1 X242.2310 Y377.0786 Z-7.5616
G1 X242.2895 Y377.0465 Z-7.5733
G1 X242.3519 Y377.0224 Z-7.5851
G1 X242.4168 Y377.0070 Z-7.5969
G1 X242.4833 Y377.0003 Z-7.6087
G1 X242.5500 Y377.0025 Z-7.6204
G1 X242.6159 Y377.0136 Z-7.6322
G1 X242.6797 Y377.0334 Z-7.6440
G1 X242.7403 Y377.0615 Z-7.6558
G1 X242.7966 Y377.0975 Z-7.6676
G1 X242.8476 Y377.1406 Z-7.6793
G1 X242.8924 Y377.1901 Z-7.6911
G1 X242.9302 Y377.2452 Z-7.7029
G1 X242.9603 Y377.3048 Z-7.7147
G1 X242.9822 Y377.3679 Z-7.7264
G1 X242.9955 Y377.4334 Z-7.7382
G1 X243.0000 Y377.5000 Z-7.7500
G3 X242.0000 Y377.5000 I-0.5000 J0.0000 F3500.
G3 X243.0000 Y377.5000 I0.5000 J0.0000
G1 X243.0000 Y377.5000 Z-7.1500 F5000.
G1 X243.0000 Y377.5000 Z30.0000 F10000.
G1 X242.9318 Y377.2485 Z30.0000
G1 X242.9318 Y377.2485 Z-9.1333 F2500.
G1 X242.9318 Y377.2485 Z-9.7333
G1 X242.9603 Y377.3048 Z-9.7445
G1 X242.9822 Y377.3679 Z-9.7562
G1 X242.9955 Y377.4334 Z-9.7680
G1 X243.0000 Y377.5000 Z-9.7798
G1 X242.9955 Y377.5666 Z-9.7916
G1 X242.9822 Y377.6321 Z-9.8034
G1 X242.9603 Y377.6952 Z-9.8151
G1 X242.9302 Y377.7548 Z-9.8269
G1 X242.8924 Y377.8099 Z-9.8387
G1 X242.8476 Y377.8594 Z-9.8505
G1 X242.7966 Y377.9025 Z-9.8622
G1 X242.7403 Y377.9385 Z-9.8740
G1 X242.6797 Y377.9666 Z-9.8858
G1 X242.6159 Y377.9864 Z-9.8976
G1 X242.5500 Y377.9975 Z-9.9093
G1 X242.4833 Y377.9997 Z-9.9211
G1 X242.4168 Y377.9930 Z-9.9329
G1 X242.3519 Y377.9776 Z-9.9447
G1 X242.2895 Y377.9535 Z-9.9565
G1 X242.2310 Y377.9214 Z-9.9682
G1 X242.1772 Y377.8818 Z-9.9800
G1 X242.1292 Y377.8354 Z-9.9918
G1 X242.0878 Y377.7830 Z-10.0036
G1 X242.0537 Y377.7255 Z-10.0153
G1 X242.0277 Y377.6640 Z-10.0271
G1 X242.0100 Y377.5996 Z-10.0389
G1 X242.0011 Y377.5334 Z-10.0507
G1 X242.0011 Y377.4666 Z-10.0625
G1 X242.0100 Y377.4004 Z-10.0742
G1 X242.0277 Y377.3360 Z-10.0860
G1 X242.0537 Y377.2745 Z-10.0978
G1 X242.0878 Y377.2170 Z-10.1096
G1 X242.1292 Y377.1646 Z-10.1213
G1 X242.1772 Y377.1182 Z-10.1331
G1 X242.2310 Y377.0786 Z-10.1449
G1 X242.2895 Y377.0465 Z-10.1567
G1 X242.3519 Y377.0224 Z-10.1685
G1 X242.4168 Y377.0070 Z-10.1802
G1 X242.4833 Y377.0003 Z-10.1920
G1 X242.5500 Y377.0025 Z-10.2038
G1 X242.6159 Y377.0136 Z-10.2156
G1 X242.6797 Y377.0334 Z-10.2273
G1 X242.7403 Y377.0615 Z-10.2391
G1 X242.7966 Y377.0975 Z-10.2509
G1 X242.8476 Y377.1406 Z-10.2627
G1 X242.8924 Y377.1901 Z-10.2744
G1 X242.9302 Y377.2452 Z-10.2862
G1 X242.9603 Y377.3048 Z-10.2980
G1 X242.9822 Y377.3679 Z-10.3098
G1 X242.9955 Y377.4334 Z-10.3216
G1 X243.0000 Y377.5000 Z-10.3333
G3 X242.0000 Y377.5000 I-0.5000 J0.0000 F3500.
G3 X243.0000 Y377.5000 I0.5000 J0.0000
G1 X243.0000 Y377.5000 Z-9.7333 F5000.
G1 X243.0000 Y377.5000 Z30.0000 F10000.
G1 X242.9318 Y377.2485 Z30.0000
G1 X242.9318 Y377.2485 Z-11.7167 F2500.
G1 X242.9318 Y377.2485 Z-12.3167
G1 X242.9603 Y377.3048 Z-12.3278
G1 X242.9822 Y377.3679 Z-12.3396
G1 X242.9955 Y377.4334 Z-12.3514
G1 X243.0000 Y377.5000 Z-12.3631
G1 X242.9955 Y377.5666 Z-12.3749
G1 X242.9822 Y377.6321 Z-12.3867
G1 X242.9603 Y377.6952 Z-12.3985
G1 X242.9302 Y377.7548 Z-12.4102
G1 X242.8924 Y377.8099 Z-12.4220
G1 X242.8476 Y377.8594 Z-12.4338
G1 X242.7966 Y377.9025 Z-12.4456
G1 X242.7403 Y377.9385 Z-12.4574
G1 X242.6797 Y377.9666 Z-12.4691
G1 X242.6159 Y377.9864 Z-12.4809
G1 X242.5500 Y377.9975 Z-12.4927
G1 X242.4833 Y377.9997 Z-12.5045
G1 X242.4168 Y377.9930 Z-12.5162
G1 X242.3519 Y377.9776 Z-12.5280
G1 X242.2895 Y377.9535 Z-12.5398
G1 X242.2310 Y377.9214 Z-12.5516
G1 X242.1772 Y377.8818 Z-12.5633
G1 X242.1292 Y377.8354 Z-12.5751
G1 X242.0878 Y377.7830 Z-12.5869
G1 X242.0537 Y377.7255 Z-12.5987
G1 X242.0277 Y377.6640 Z-12.6105
G1 X242.0100 Y377.5996 Z-12.6222
G1 X242.0011 Y377.5334 Z-12.6340
G1 X242.0011 Y377.4666 Z-12.6458
G1 X242.0100 Y377.4004 Z-12.6576
G1 X242.0277 Y377.3360 Z-12.6693
G1 X242.0537 Y377.2745 Z-12.6811
G1 X242.0878 Y377.2170 Z-12.6929
G1 X242.1292 Y377.1646 Z-12.7047
G1 X242.1772 Y377.1182 Z-12.7165
G1 X242.2310 Y377.0786 Z-12.7282
G1 X242.2895 Y377.0465 Z-12.7400
G1 X242.3519 Y377.0224 Z-12.7518
G1 X242.4168 Y377.0070 Z-12.7636
G1 X242.4833 Y377.0003 Z-12.7753
G1 X242.5500 Y377.0025 Z-12.7871
G1 X242.6159 Y377.0136 Z-12.7989
G1 X242.6797 Y377.0334 Z-12.8107
G1 X242.7403 Y377.0615 Z-12.8224
G1 X242.7966 Y377.0975 Z-12.8342
G1 X242.8476 Y377.1406 Z-12.8460
G1 X242.8924 Y377.1901 Z-12.8578
G1 X242.9302 Y377.2452 Z-12.8696
G1 X242.9603 Y377.3048 Z-12.8813
G1 X242.9822 Y377.3679 Z-12.8931
G1 X242.9955 Y377.4334 Z-12.9049
G1 X243.0000 Y377.5000 Z-12.9167
G3 X242.0000 Y377.5000 I-0.5000 J0.0000 F3500.
G3 X243.0000 Y377.5000 I0.5000 J0.0000
G1 X243.0000 Y377.5000 Z-12.3167 F5000.
G1 X243.0000 Y377.5000 Z30.0000 F10000.
G1 X242.9318 Y377.2485 Z30.0000
G1 X242.9318 Y377.2485 Z-14.3000 F2500.
G1 X242.9318 Y377.2485 Z-14.9000
G1 X242.9603 Y377.3048 Z-14.9111
G1 X242.9822 Y377.3679 Z-14.9229
G1 X242.9955 Y377.4334 Z-14.9347
G1 X243.0000 Y377.5000 Z-14.9465
G1 X242.9955 Y377.5666 Z-14.9582
G1 X242.9822 Y377.6321 Z-14.9700
G1 X242.9603 Y377.6952 Z-14.9818
G1 X242.9302 Y377.7548 Z-14.9936
G1 X242.8924 Y377.8099 Z-15.0054
G1 X242.8476 Y377.8594 Z-15.0171
G1 X242.7966 Y377.9025 Z-15.0289
G1 X242.7403 Y377.9385 Z-15.0407
G1 X242.6797 Y377.9666 Z-15.0525
G1 X242.6159 Y377.9864 Z-15.0642
G1 X242.5500 Y377.9975 Z-15.0760
G1 X242.4833 Y377.9997 Z-15.0878
G1 X242.4168 Y377.9930 Z-15.0996
G1 X242.3519 Y377.9776 Z-15.1113
G1 X242.2895 Y377.9535 Z-15.1231
G1 X242.2310 Y377.9214 Z-15.1349
G1 X242.1772 Y377.8818 Z-15.1467
G1 X242.1292 Y377.8354 Z-15.1585
G1 X242.0878 Y377.7830 Z-15.1702
G1 X242.0537 Y377.7255 Z-15.1820
G1 X242.0277 Y377.6640 Z-15.1938
G1 X242.0100 Y377.5996 Z-15.2056
G1 X242.0011 Y377.5334 Z-15.2173
G1 X242.0011 Y377.4666 Z-15.2291
G1 X242.0100 Y377.4004 Z-15.2409
G1 X242.0277 Y377.3360 Z-15.2527
G1 X242.0537 Y377.2745 Z-15.2645
G1 X242.0878 Y377.2170 Z-15.2762
G1 X242.1292 Y377.1646 Z-15.2880
G1 X242.1772 Y377.1182 Z-15.2998
G1 X242.2310 Y377.0786 Z-15.3116
G1 X242.2895 Y377.0465 Z-15.3233
G1 X242.3519 Y377.0224 Z-15.3351
G1 X242.4168 Y377.0070 Z-15.3469
G1 X242.4833 Y377.0003 Z-15.3587
G1 X242.5500 Y377.0025 Z-15.3704
G1 X242.6159 Y377.0136 Z-15.3822
G1 X242.6797 Y377.0334 Z-15.3940
G1 X242.7403 Y377.0615 Z-15.4058
G1 X242.7966 Y377.0975 Z-15.4176
G1 X242.8476 Y377.1406 Z-15.4293
G1 X242.8924 Y377.1901 Z-15.4411
G1 X242.9302 Y377.2452 Z-15.4529
G1 X242.9603 Y377.3048 Z-15.4647
G1 X242.9822 Y377.3679 Z-15.4764
G1 X242.9955 Y377.4334 Z-15.4882
G1 X243.0000 Y377.5000 Z-15.5000
G3 X242.0000 Y377.5000 I-0.5000 J0.0000 F3500.
G3 X243.0000 Y377.5000 I0.5000 J0.0000
G1 X243.0000 Y377.5000 Z-14.9000 F5000.
G1 X243.0000 Y377.5000 Z30.0000 F10000.
G1 X287.9318 Y377.2485 Z30.0000
G1 X287.9318 Y377.2485 Z-1.3833 F2500.
G1 X287.9318 Y377.2485 Z-1.9833
G1 X287.9603 Y377.3048 Z-1.9945
G1 X287.9822 Y377.3679 Z-2.0062
G1 X287.9955 Y377.4334 Z-2.0180
G1 X288.0000 Y377.5000 Z-2.0298
G1 X287.9955 Y377.5666 Z-2.0416
G1 X287.9822 Y377.6321 Z-2.0534
G1 X287.9603 Y377.6952 Z-2.0651
G1 X287.9302 Y377.7548 Z-2.0769
G1 X287.8924 Y377.8099 Z-2.0887
G1 X287.8476 Y377.8594 Z-2.1005
G1 X287.7966 Y377.9025 Z-2.1122
G1 X287.7403 Y377.9385 Z-2.1240
G1 X287.6797 Y377.9666 Z-2.1358
G1 X287.6159 Y377.9864 Z-2.1476
G1 X287.5500 Y377.9975 Z-2.1593
G1 X287.4833 Y377.9997 Z-2.1711
G1 X287.4168 Y377.9930 Z-2.1829
G1 X287.3519 Y377.9776 Z-2.1947
G1 X287.2895 Y377.9535 Z-2.2065
G1 X287.2310 Y377.9214 Z-2.2182
G1 X287.1772 Y377.8818 Z-2.2300
G1 X287.1292 Y377.8354 Z-2.2418
G1 X287.0878 Y377.7830 Z-2.2536
G1 X287.0537 Y377.7255 Z-2.2653
G1 X287.0277 Y377.6640 Z-2.2771
G1 X287.0100 Y377.5996 Z-2.2889
G1 X287.0011 Y377.5334 Z-2.3007
G1 X287.0011 Y377.4666 Z-2.3125
G1 X287.0100 Y377.4004 Z-2.3242
G1 X287.0277 Y377.3360 Z-2.3360
G1 X287.0537 Y377.2745 Z-2.3478
G1 X287.0878 Y377.2170 Z-2.3596
G1 X287.1292 Y377.1646 Z-2.3713
G1 X287.1772 Y377.1182 Z-2.3831
G1 X287.2310 Y377.0786 Z-2.3949
G1 X287.2895 Y377.0465 Z-2.4067
G1 X287.3519 Y377.0224 Z-2.4185
G1 X287.4168 Y377.0070 Z-2.4302
G1 X287.4833 Y377.0003 Z-2.4420
G1 X287.5500 Y377.0025 Z-2.4538
G1 X287.6159 Y377.0136 Z-2.4656
G1 X287.6797 Y377.0334 Z-2.4773
G1 X287.7403 Y377.0615 Z-2.4891
G1 X287.7966 Y377.0975 Z-2.5009
G1 X287.8476 Y377.1406 Z-2.5127
G1 X287.8924 Y377.1901 Z-2.5244
G1 X287.9302 Y377.2452 Z-2.5362
G1 X287.9603 Y377.3048 Z-2.5480
G1 X287.9822 Y377.3679 Z-2.5598
G1 X287.9955 Y377.4334 Z-2.5716
G1 X288.0000 Y377.5000 Z-2.5833
G3 X287.0000 Y377.5000 I-0.5000 J0.0000 F3500.
G3 X288.0000 Y377.5000 I0.5000 J0.0000
G1 X288.0000 Y377.5000 Z-1.9833 F5000.
G1 X288.0000 Y377.5000 Z30.0000 F10000.
G1 X287.9318 Y377.2485 Z30.0000
G1 X287.9318 Y377.2485 Z-3.9667 F2500.
G1 X287.9318 Y377.2485 Z-4.5667
G1 X287.9603 Y377.3048 Z-4.5778
G1 X287.9822 Y377.3679 Z-4.5896
G1 X287.9955 Y377.4334 Z-4.6014
G1 X288.0000 Y377.5000 Z-4.6131
G1 X287.9955 Y377.5666 Z-4.6249
G1 X287.9822 Y377.6321 Z-4.6367
G1 X287.9603 Y377.6952 Z-4.6485
G1 X287.9302 Y377.7548 Z-4.6602
G1 X287.8924 Y377.8099 Z-4.6720
G1 X287.8476 Y377.8594 Z-4.6838
G1 X287.7966 Y377.9025 Z-4.6956
G1 X287.7403 Y377.9385 Z-4.7074
G1 X287.6797 Y377.9666 Z-4.7191
G1 X287.6159 Y377.9864 Z-4.7309
G1 X287.5500 Y377.9975 Z-4.7427
G1 X287.4833 Y377.9997 Z-4.7545
G1 X287.4168 Y377.9930 Z-4.7662
G1 X287.3519 Y377.9776 Z-4.7780
G1 X287.2895 Y377.9535 Z-4.7898
G1 X287.2310 Y377.9214 Z-4.8016
G1 X287.1772 Y377.8818 Z-4.8133
G1 X287.1292 Y377.8354 Z-4.8251
G1 X287.0878 Y377.7830 Z-4.8369
G1 X287.0537 Y377.7255 Z-4.8487
G1 X287.0277 Y377.6640 Z-4.8605
G1 X287.0100 Y377.5996 Z-4.8722
G1 X287.0011 Y377.5334 Z-4.8840
G1 X287.0011 Y377.4666 Z-4.8958
G1 X287.0100 Y377.4004 Z-4.9076
G1 X287.0277 Y377.3360 Z-4.9193
G1 X287.0537 Y377.2745 Z-4.9311
G1 X287.0878 Y377.2170 Z-4.9429
G1 X287.1292 Y377.1646 Z-4.9547
G1 X287.1772 Y377.1182 Z-4.9665
G1 X287.2310 Y377.0786 Z-4.9782
G1 X287.2895 Y377.0465 Z-4.9900
G1 X287.3519 Y377.0224 Z-5.0018
G1 X287.4168 Y377.0070 Z-5.0136
G1 X287.4833 Y377.0003 Z-5.0253
G1 X287.5500 Y377.0025 Z-5.0371
G1 X287.6159 Y377.0136 Z-5.0489
G1 X287.6797 Y377.0334 Z-5.0607
G1 X287.7403 Y377.0615 Z-5.0724
G1 X287.7966 Y377.0975 Z-5.0842
G1 X287.8476 Y377.1406 Z-5.0960
G1 X287.8924 Y377.1901 Z-5.1078
G1 X287.9302 Y377.2452 Z-5.1196
G1 X287.9603 Y377.3048 Z-5.1313
G1 X287.9822 Y377.3679 Z-5.1431
G1 X287.9955 Y377.4334 Z-5.1549
G1 X288.0000 Y377.5000 Z-5.1667
G3 X287.0000 Y377.5000 I-0.5000 J0.0000 F3500.
G3 X288.0000 Y377.5000 I0.5000 J0.0000
G1 X288.0000 Y377.5000 Z-4.5667 F5000.
G1 X288.0000 Y377.5000 Z30.0000 F10000.
G1 X287.9318 Y377.2485 Z30.0000
G1 X287.9318 Y377.2485 Z-6.5500 F2500.
G1 X287.9318 Y377.2485 Z-7.1500
G1 X287.9603 Y377.3048 Z-7.1611
G1 X287.9822 Y377.3679 Z-7.1729
G1 X287.9955 Y377.4334 Z-7.1847
G1 X288.0000 Y377.5000 Z-7.1965
G1 X287.9955 Y377.5666 Z-7.2082
G1 X287.9822 Y377.6321 Z-7.2200
G1 X287.9603 Y377.6952 Z-7.2318
G1 X287.9302 Y377.7548 Z-7.2436
G1 X287.8924 Y377.8099 Z-7.2554
G1 X287.8476 Y377.8594 Z-7.2671
G1 X287.7966 Y377.9025 Z-7.2789
G1 X287.7403 Y377.9385 Z-7.2907
G1 X287.6797 Y377.9666 Z-7.3025
G1 X287.6159 Y377.9864 Z-7.3142
G1 X287.5500 Y377.9975 Z-7.3260
G1 X287.4833 Y377.9997 Z-7.3378
G1 X287.4168 Y377.9930 Z-7.3496
G1 X287.3519 Y377.9776 Z-7.3613
G1 X287.2895 Y377.9535 Z-7.3731
G1 X287.2310 Y377.9214 Z-7.3849
G1 X287.1772 Y377.8818 Z-7.3967
G1 X287.1292 Y377.8354 Z-7.4085
G1 X287.0878 Y377.7830 Z-7.4202
G1 X287.0537 Y377.7255 Z-7.4320
G1 X287.0277 Y377.6640 Z-7.4438
G1 X287.0100 Y377.5996 Z-7.4556
G1 X287.0011 Y377.5334 Z-7.4673
G1 X287.0011 Y377.4666 Z-7.4791
G1 X287.0100 Y377.4004 Z-7.4909
G1 X287.0277 Y377.3360 Z-7.5027
G1 X287.0537 Y377.2745 Z-7.5145
G1 X287.0878 Y377.2170 Z-7.5262
G1 X287.1292 Y377.1646 Z-7.5380
G1 X287.1772 Y377.1182 Z-7.5498
G1 X287.2310 Y377.0786 Z-7.5616
G1 X287.2895 Y377.0465 Z-7.5733
G1 X287.3519 Y377.0224 Z-7.5851
G1 X287.4168 Y377.0070 Z-7.5969
G1 X287.4833 Y377.0003 Z-7.6087
G1 X287.5500 Y377.0025 Z-7.6204
G1 X287.6159 Y377.0136 Z-7.6322
G1 X287.6797 Y377.0334 Z-7.6440
G1 X287.7403 Y377.0615 Z-7.6558
G1 X287.7966 Y377.0975 Z-7.6676
G1 X287.8476 Y377.1406 Z-7.6793
G1 X287.8924 Y377.1901 Z-7.6911
G1 X287.9302 Y377.2452 Z-7.7029
G1 X287.9603 Y377.3048 Z-7.7147
G1 X287.9822 Y377.3679 Z-7.7264
G1 X287.9955 Y377.4334 Z-7.7382
G1 X288.0000 Y377.5000 Z-7.7500
G3 X287.0000 Y377.5000 I-0.5000 J0.0000 F3500.
G3 X288.0000 Y377.5000 I0.5000 J0.0000
G1 X288.0000 Y377.5000 Z-7.1500 F5000.
G1 X288.0000 Y377.5000 Z30.0000 F10000.
G1 X287.9318 Y377.2485 Z30.0000
G1 X287.9318 Y377.2485 Z-9.1333 F2500.
G1 X287.9318 Y377.2485 Z-9.7333
G1 X287.9603 Y377.3048 Z-9.7445
G1 X287.9822 Y377.3679 Z-9.7562
G1 X287.9955 Y377.4334 Z-9.7680
G1 X288.0000 Y377.5000 Z-9.7798
G1 X287.9955 Y377.5666 Z-9.7916
G1 X287.9822 Y377.6321 Z-9.8034
G1 X287.9603 Y377.6952 Z-9.8151
G1 X287.9302 Y377.7548 Z-9.8269
G1 X287.8924 Y377.8099 Z-9.8387
G1 X287.8476 Y377.8594 Z-9.8505
G1 X287.7966 Y377.9025 Z-9.8622
G1 X287.7403 Y377.9385 Z-9.8740
G1 X287.6797 Y377.9666 Z-9.8858
G1 X287.6159 Y377.9864 Z-9.8976
G1 X287.5500 Y377.9975 Z-9.9093
G1 X287.4833 Y377.9997 Z-9.9211
G1 X287.4168 Y377.9930 Z-9.9329
G1 X287.3519 Y377.9776 Z-9.9447
G1 X287.2895 Y377.9535 Z-9.9565
G1 X287.2310 Y377.9214 Z-9.9682
G1 X287.1772 Y377.8818 Z-9.9800
G1 X287.1292 Y377.8354 Z-9.9918
G1 X287.0878 Y377.7830 Z-10.0036
G1 X287.0537 Y377.7255 Z-10.0153
G1 X287.0277 Y377.6640 Z-10.0271
G1 X287.0100 Y377.5996 Z-10.0389
G1 X287.0011 Y377.5334 Z-10.0507
G1 X287.0011 Y377.4666 Z-10.0625
G1 X287.0100 Y377.4004 Z-10.0742
G1 X287.0277 Y377.3360 Z-10.0860
G1 X287.0537 Y377.2745 Z-10.0978
G1 X287.0878 Y377.2170 Z-10.1096
G1 X287.1292 Y377.1646 Z-10.1213
G1 X287.1772 Y377.1182 Z-10.1331
G1 X287.2310 Y377.0786 Z-10.1449
G1 X287.2895 Y377.0465 Z-10.1567
G1 X287.3519 Y377.0224 Z-10.1685
G1 X287.4168 Y377.0070 Z-10.1802
G1 X287.4833 Y377.0003 Z-10.1920
G1 X287.5500 Y377.0025 Z-10.2038
G1 X287.6159 Y377.0136 Z-10.2156
G1 X287.6797 Y377.0334 Z-10.2273
G1 X287.7403 Y377.0615 Z-10.2391
G1 X287.7966 Y377.0975 Z-10.2509
G1 X287.8476 Y377.1406 Z-10.2627
G1 X287.8924 Y377.1901 Z-10.2744
G1 X287.9302 Y377.2452 Z-10.2862
G1 X287.9603 Y377.3048 Z-10.2980
G1 X287.9822 Y377.3679 Z-10.3098
G1 X287.9955 Y377.4334 Z-10.3216
G1 X288.0000 Y377.5000 Z-10.3333
G3 X287.0000 Y377.5000 I-0.5000 J0.0000 F3500.
G3 X288.0000 Y377.5000 I0.5000 J0.0000
G1 X288.0000 Y377.5000 Z-9.7333 F5000.
G1 X288.0000 Y377.5000 Z30.0000 F10000.
G1 X287.9318 Y377.2485 Z30.0000
G1 X287.9318 Y377.2485 Z-11.7167 F2500.
G1 X287.9318 Y377.2485 Z-12.3167
G1 X287.9603 Y377.3048 Z-12.3278
G1 X287.9822 Y377.3679 Z-12.3396
G1 X287.9955 Y377.4334 Z-12.3514
G1 X288.0000 Y377.5000 Z-12.3631
G1 X287.9955 Y377.5666 Z-12.3749
G1 X287.9822 Y377.6321 Z-12.3867
G1 X287.9603 Y377.6952 Z-12.3985
G1 X287.9302 Y377.7548 Z-12.4102
G1 X287.8924 Y377.8099 Z-12.4220
G1 X287.8476 Y377.8594 Z-12.4338
G1 X287.7966 Y377.9025 Z-12.4456
G1 X287.7403 Y377.9385 Z-12.4574
G1 X287.6797 Y377.9666 Z-12.4691
G1 X287.6159 Y377.9864 Z-12.4809
G1 X287.5500 Y377.9975 Z-12.4927
G1 X287.4833 Y377.9997 Z-12.5045
G1 X287.4168 Y377.9930 Z-12.5162
G1 X287.3519 Y377.9776 Z-12.5280
G1 X287.2895 Y377.9535 Z-12.5398
G1 X287.2310 Y377.9214 Z-12.5516
G1 X287.1772 Y377.8818 Z-12.5633
G1 X287.1292 Y377.8354 Z-12.5751
G1 X287.0878 Y377.7830 Z-12.5869
G1 X287.0537 Y377.7255 Z-12.5987
G1 X287.0277 Y377.6640 Z-12.6105
G1 X287.0100 Y377.5996 Z-12.6222
G1 X287.0011 Y377.5334 Z-12.6340
G1 X287.0011 Y377.4666 Z-12.6458
G1 X287.0100 Y377.4004 Z-12.6576
G1 X287.0277 Y377.3360 Z-12.6693
G1 X287.0537 Y377.2745 Z-12.6811
G1 X287.0878 Y377.2170 Z-12.6929
G1 X287.1292 Y377.1646 Z-12.7047
G1 X287.1772 Y377.1182 Z-12.7165
G1 X287.2310 Y377.0786 Z-12.7282
G1 X287.2895 Y377.0465 Z-12.7400
G1 X287.3519 Y377.0224 Z-12.7518
G1 X287.4168 Y377.0070 Z-12.7636
G1 X287.4833 Y377.0003 Z-12.7753
G1 X287.5500 Y377.0025 Z-12.7871
G1 X287.6159 Y377.0136 Z-12.7989
G1 X287.6797 Y377.0334 Z-12.8107
G1 X287.7403 Y377.0615 Z-12.8224
G1 X287.7966 Y377.0975 Z-12.8342
G1 X287.8476 Y377.1406 Z-12.8460
G1 X287.8924 Y377.1901 Z-12.8578
G1 X287.9302 Y377.2452 Z-12.8696
G1 X287.9603 Y377.3048 Z-12.8813
G1 X287.9822 Y377.3679 Z-12.8931
G1 X287.9955 Y377.4334 Z-12.9049
G1 X288.0000 Y377.5000 Z-12.9167
G3 X287.0000 Y377.5000 I-0.5000 J0.0000 F3500.
G3 X288.0000 Y377.5000 I0.5000 J0.0000
G1 X288.0000 Y377.5000 Z-12.3167 F5000.
G1 X288.0000 Y377.5000 Z30.0000 F10000.
G1 X287.9318 Y377.2485 Z30.0000
G1 X287.9318 Y377.2485 Z-14.3000 F2500.
G1 X287.9318 Y377.2485 Z-14.9000
G1 X287.9603 Y377.3048 Z-14.9111
G1 X287.9822 Y377.3679 Z-14.9229
G1 X287.9955 Y377.4334 Z-14.9347
G1 X288.0000 Y377.5000 Z-14.9465
G1 X287.9955 Y377.5666 Z-14.9582
G1 X287.9822 Y377.6321 Z-14.9700
G1 X287.9603 Y377.6952 Z-14.9818
G1 X287.9302 Y377.7548 Z-14.9936
G1 X287.8924 Y377.8099 Z-15.0054
G1 X287.8476 Y377.8594 Z-15.0171
G1 X287.7966 Y377.9025 Z-15.0289
G1 X287.7403 Y377.9385 Z-15.0407
G1 X287.6797 Y377.9666 Z-15.0525
G1 X287.6159 Y377.9864 Z-15.0642
G1 X287.5500 Y377.9975 Z-15.0760
G1 X287.4833 Y377.9997 Z-15.0878
G1 X287.4168 Y377.9930 Z-15.0996
G1 X287.3519 Y377.9776 Z-15.1113
G1 X287.2895 Y377.9535 Z-15.1231
G1 X287.2310 Y377.9214 Z-15.1349
G1 X287.1772 Y377.8818 Z-15.1467
G1 X287.1292 Y377.8354 Z-15.1585
G1 X287.0878 Y377.7830 Z-15.1702
G1 X287.0537 Y377.7255 Z-15.1820
G1 X287.0277 Y377.6640 Z-15.1938
G1 X287.0100 Y377.5996 Z-15.2056
G1 X287.0011 Y377.5334 Z-15.2173
G1 X287.0011 Y377.4666 Z-15.2291
G1 X287.0100 Y377.4004 Z-15.2409
G1 X287.0277 Y377.3360 Z-15.2527
G1 X287.0537 Y377.2745 Z-15.2645
G1 X287.0878 Y377.2170 Z-15.2762
G1 X287.1292 Y377.1646 Z-15.2880
G1 X287.1772 Y377.1182 Z-15.2998
G1 X287.2310 Y377.0786 Z-15.3116
G1 X287.2895 Y377.0465 Z-15.3233
G1 X287.3519 Y377.0224 Z-15.3351
G1 X287.4168 Y377.0070 Z-15.3469
G1 X287.4833 Y377.0003 Z-15.3587
G1 X287.5500 Y377.0025 Z-15.3704
G1 X287.6159 Y377.0136 Z-15.3822
G1 X287.6797 Y377.0334 Z-15.3940
G1 X287.7403 Y377.0615 Z-15.4058
G1 X287.7966 Y377.0975 Z-15.4176
G1 X287.8476 Y377.1406 Z-15.4293
G1 X287.8924 Y377.1901 Z-15.4411
G1 X287.9302 Y377.2452 Z-15.4529
G1 X287.9603 Y377.3048 Z-15.4647
G1 X287.9822 Y377.3679 Z-15.4764
G1 X287.9955 Y377.4334 Z-15.4882
G1 X288.0000 Y377.5000 Z-15.5000
G3 X287.0000 Y377.5000 I-0.5000 J0.0000 F3500.
G3 X288.0000 Y377.5000 I0.5000 J0.0000
G1 X288.0000 Y377.5000 Z-14.9000 F5000.
G1 X288.0000 Y377.5000 Z30.0000 F10000.
G1 X287.9318 Y437.2485 Z30.0000
G1 X287.9318 Y437.2485 Z-1.3833 F2500.
G1 X287.9318 Y437.2485 Z-1.9833
G1 X287.9603 Y437.3048 Z-1.9945
G1 X287.9822 Y437.3679 Z-2.0062
G1 X287.9955 Y437.4334 Z-2.0180
G1 X288.0000 Y437.5000 Z-2.0298
G1 X287.9955 Y437.5666 Z-2.0416
G1 X287.9822 Y437.6321 Z-2.0534
G1 X287.9603 Y437.6952 Z-2.0651
G1 X287.9302 Y437.7548 Z-2.0769
G1 X287.8924 Y437.8099 Z-2.0887
G1 X287.8476 Y437.8594 Z-2.1005
G1 X287.7966 Y437.9025 Z-2.1122
G1 X287.7403 Y437.9385 Z-2.1240
G1 X287.6797 Y437.9666 Z-2.1358
G1 X287.6159 Y437.9864 Z-2.1476
G1 X287.5500 Y437.9975 Z-2.1593
G1 X287.4833 Y437.9997 Z-2.1711
G1 X287.4168 Y437.9930 Z-2.1829
G1 X287.3519 Y437.9776 Z-2.1947
G1 X287.2895 Y437.9535 Z-2.2065
G1 X287.2310 Y437.9214 Z-2.2182
G1 X287.1772 Y437.8818 Z-2.2300
G1 X287.1292 Y437.8354 Z-2.2418
G1 X287.0878 Y437.7830 Z-2.2536
G1 X287.0537 Y437.7255 Z-2.2653
G1 X287.0277 Y437.6640 Z-2.2771
G1 X287.0100 Y437.5996 Z-2.2889
G1 X287.0011 Y437.5334 Z-2.3007
G1 X287.0011 Y437.4666 Z-2.3125
G1 X287.0100 Y437.4004 Z-2.3242
G1 X287.0277 Y437.3360 Z-2.3360
G1 X287.0537 Y437.2745 Z-2.3478
G1 X287.0878 Y437.2170 Z-2.3596
G1 X287.1292 Y437.1646 Z-2.3713
G1 X287.1772 Y437.1182 Z-2.3831
G1 X287.2310 Y437.0786 Z-2.3949
G1 X287.2895 Y437.0465 Z-2.4067
G1 X287.3519 Y437.0224 Z-2.4185
G1 X287.4168 Y437.0070 Z-2.4302
G1 X287.4833 Y437.0003 Z-2.4420
G1 X287.5500 Y437.0025 Z-2.4538
G1 X287.6159 Y437.0136 Z-2.4656
G1 X287.6797 Y437.0334 Z-2.4773
G1 X287.7403 Y437.0615 Z-2.4891
G1 X287.7966 Y437.0975 Z-2.5009
G1 X287.8476 Y437.1406 Z-2.5127
G1 X287.8924 Y437.1901 Z-2.5244
G1 X287.9302 Y437.2452 Z-2.5362
G1 X287.9603 Y437.3048 Z-2.5480
G1 X287.9822 Y437.3679 Z-2.5598
G1 X287.9955 Y437.4334 Z-2.5716
G1 X288.0000 Y437.5000 Z-2.5833
G3 X287.0000 Y437.5000 I-0.5000 J0.0000 F3500.
G3 X288.0000 Y437.5000 I0.5000 J0.0000
G1 X288.0000 Y437.5000 Z-1.9833 F5000.
G1 X288.0000 Y437.5000 Z30.0000 F10000.
G1 X287.9318 Y437.2485 Z30.0000
G1 X287.9318 Y437.2485 Z-3.9667 F2500.
G1 X287.9318 Y437.2485 Z-4.5667
G1 X287.9603 Y437.3048 Z-4.5778
G1 X287.9822 Y437.3679 Z-4.5896
G1 X287.9955 Y437.4334 Z-4.6014
G1 X288.0000 Y437.5000 Z-4.6131
G1 X287.9955 Y437.5666 Z-4.6249
G1 X287.9822 Y437.6321 Z-4.6367
G1 X287.9603 Y437.6952 Z-4.6485
G1 X287.9302 Y437.7548 Z-4.6602
G1 X287.8924 Y437.8099 Z-4.6720
G1 X287.8476 Y437.8594 Z-4.6838
G1 X287.7966 Y437.9025 Z-4.6956
G1 X287.7403 Y437.9385 Z-4.7074
G1 X287.6797 Y437.9666 Z-4.7191
G1 X287.6159 Y437.9864 Z-4.7309
G1 X287.5500 Y437.9975 Z-4.7427
G1 X287.4833 Y437.9997 Z-4.7545
G1 X287.4168 Y437.9930 Z-4.7662
